zhuoxili-jackie/tripod-support-walk/examples/pcbB样侧向移动数据608/trajectory_trotting_acc_f01.csv
root_pos_x,root_pos_y,root_pos_z,root_rot_x,root_rot_y,root_rot_z,root_rot_w,FL_hip_joint,FL_thigh_joint,FL_calf_joint,FR_hip_joint,FR_thigh_joint,FR_calf_joint,RL_hip_joint,RL_thigh_joint,RL_calf_joint,RR_hip_joint,RR_thigh_joint,RR_calf_joint,FL_foot_joint,FR_foot_joint,RL_foot_joint,RR_foot_joint
0.0,0.0,0.72963,0.0,-0.5231245161092812,0.0,0.852256264656019,0.0,-0.81,0.872,0.0,-0.81,0.872,0.0,0.65,1.0,0.0,0.65,1.0,0.0,0.0,0.0,0.0
0.0007215394039566207,-0.0001265792932799527,0.7295754566980642,-5.014854223724913e-05,-0.5233898545904132,0.0001566886555930723,0.8520933241409739,-7.56741131186634e-05,-0.8124250273142908,0.8776703419695433,-7.567411311866437e-05,-0.8124291411553428,0.8781953165669305,0.002168568422852048,0.6520424092485797,0.9998065907376472,0.0021685684228520455,0.6530824444253348,1.0010163406505168,0.0,0.0,0.0,0.0
0.002091501530719698,-0.0002985744022202902,0.7294682489806017,-4.8701485636715764e-05,-0.5237277273854345,0.00021378729012437977,0.8518856845204337,0.0002042051701455946,-0.8176707128776799,0.8892228956557906,0.00020429504621351317,-0.8183341511421054,0.8909446029231444,0.0037397077892180565,0.6562398674119798,0.999584409666348,0.003753174270721738,0.6577632002199125,1.0020922039060383,0.0,0.0,0.0,0.0
0.004088205411698113,-0.0005766266827399243,0.7293633758450964,1.3699720596287048e-05,-0.5241407723470922,0.00016497792381219383,0.8516316242120157,0.001007864936133924,-0.8251403641572395,0.9058696335817799,0.0010082436717228633,-0.8274356153457649,0.9099168238031169,0.0050371450166705935,0.6628422003846185,0.9985784702302686,0.00506798796138214,0.6642957540692376,1.0028752945780963,0.0,0.0,0.0,0.0
0.006723319448429554,-0.0011347177180338766,0.7294141323598619,0.0001733864466201978,-0.5246271619907932,-4.6482899929150256e-05,0.8513320789668191,0.002917825362402714,-0.8337070944267078,0.9264785591712217,0.0029204002056882295,-0.8396613098969238,0.9353950509695734,0.006668275546802154,0.6727819102367034,0.9947265120447099,0.006724224710723899,0.6734013274630759,1.0023817508744786,0.0,0.0,0.0,0.0
0.01014112211044671,-0.0022583598780741895,0.7302265612405828,0.0005310425308258648,-0.5252731427931889,-0.0006250596572382371,0.8509332833744496,0.007172706156341364,-0.8403673767850549,0.9494579118927229,0.007188548262502831,-0.8541246852621701,0.9683134433988675,0.008652173615470288,0.6902292781803456,0.9815785575467662,0.008748356627299256,0.6882061487436688,0.9957321010774047,0.0,0.0,0.0,0.0
0.013159169460092686,-0.003089599378501679,0.7310515080366715,0.0007460652060848843,-0.5250810931275742,-0.0007260098463544667,0.8510515624428187,0.009504529706802453,-0.8509320283987183,0.9740060274034738,0.0034681255729045917,-0.8451905104260299,0.9403158882719128,0.006105106253568176,0.6807628969132442,1.0059608010405978,0.012965663171759852,0.7011080474827769,0.9868023013972463,0.0,0.0,0.0,0.0
0.016116067310925873,-0.0041142294770766755,0.7319105591770851,0.0010170481591514047,-0.5250190348246279,-0.0009689174037580814,0.8510893254435299,0.012712370536928433,-0.8591583009682933,0.995600038166404,0.0008242920852764095,-0.844704156516534,0.9224410329108297,0.0045995729258952655,0.6737823448692309,1.0263352523378235,0.017425344505391956,0.7141550928075626,0.978124617317918,0.0,0.0,0.0,0.0
0.018799766030274563,-0.005256218223631949,0.7327637570235958,0.001298730455356502,-0.5250519810887185,-0.0012577128422452306,0.8510682396919901,0.016364288110619324,-0.8648858568007314,1.0132130377748085,-0.0013263658204660145,-0.8493034514742683,0.9121592089479804,0.00426476018490217,0.6687978617073137,1.043883491723531,0.02255072173798233,0.7266862147405398,0.9701107135565729,0.0,0.0,0.0,0.0
0.02109592137230042,-0.006446469457429287,0.7336005367392683,0.001565109254868559,-0.5251192985398835,-0.00154328894797098,0.8510257875018971,0.020153083385922047,-0.8683910479908046,1.0267420767703466,-0.0032189696389789456,-0.8564646011202252,0.9062188294861936,0.004706133674395743,0.6649583623871089,1.0597480042435832,0.028353621272355446,0.7382212386610464,0.9627804673674437,0.0,0.0,0.0,0.0
0.02297702836233798,-0.0076335293604801804,0.7344228676746869,0.0018054349418166566,-0.5251889188576715,-0.0018033398624963883,0.8509818375730009,0.02387882173956226,-0.8700190246170902,1.036527597119887,-0.00490450897958479,-0.864826602991707,0.9025566744540298,0.005615421337928769,0.6616812520711859,1.0745953829850514,0.03465273848405427,0.7485850714406792,0.9560286868596864,0.0,0.0,0.0,0.0
0.024468961156103808,-0.008780290728990826,0.7352349580859657,0.002016830729684376,-0.5252479471473063,-0.002030261237271521,0.8509444191312713,0.02741615275572672,-0.8701324180662149,1.0431285430970556,-0.006416440777476431,-0.8737069307492478,0.8999398095082092,0.006776974085875791,0.6585965791567632,1.088834669645629,0.041187594371868294,0.7577914718844861,0.9497088777567807,0.0,0.0,0.0,0.0
0.025625233852739807,-0.009861950467437023,0.7360389470142389,0.0022001230107992595,-0.5252935539343079,-0.00222408552964453,0.8509153278072727,0.030694072899546274,-0.8690848000827051,1.0471793385148556,-0.007811766330585776,-0.882785293516567,0.8976607237062895,0.008036513374890664,0.6554909113514346,1.10273166212163,0.04769928119771372,0.7659521703033922,0.9436816393189464,0.0,0.0,0.0,0.0
0.0265094512574794,-0.010864270743033425,0.7368340631532871,0.002357855657857724,-0.5253274086970351,-0.0023885636477852922,0.8508935591200908,0.03368202800807071,-0.8671996130646266,1.0492990338134596,-0.009162210405730824,-0.8919266307268032,0.8953343870368752,0.009282092698249481,0.6522613398059246,1.11646657118468,0.05397673498077343,0.7732184852426616,0.9378388304215538,0.0,0.0,0.0,0.0
0.02718458634787065,-0.011781577433194723,0.737617257805849,0.0024933544562499655,-0.525352661936944,-0.0025289666268597535,0.8508771756881969,0.036378449561309055,-0.864757135805697,1.0500410083064697,-0.010536534837624609,-0.9010896514840365,0.8927648262803312,0.01043549801842777,0.648880894671874,1.1301632266229071,0.05987440837889323,0.7797471953262699,0.9321104694194216,0.0,0.0,0.0,0.0
0.027707321915882894,-0.012614485600159606,0.7383839993574886,0.0026102314812347024,-0.5253724751998625,-0.0026508140949094124,0.8508642207653454,0.03880055791230894,-0.8619906830076588,1.0498725772596562,-0.011988178113313219,-0.910281223759851,0.8898587667006597,0.011448022215457522,0.6453755846490169,1.1439029917519539,0.06531025925159462,0.7856817152793043,0.9264630577614567,0.0,0.0,0.0,0.0
0.028125681440835316,-0.013367530987611889,0.7391285197107473,0.002712060113242297,-0.5253893742587528,-0.0027591108136037867,0.8508531233141573,0.04097535106832499,-0.8590909202271482,1.0491741962151717,-0.013549429043346991,-0.919527961154737,0.8865732398679288,0.01229675360519705,0.6418108394082579,1.1577275420387365,0.07025282784607692,0.7911409810993513,0.9208970358091445,0.0,0.0,0.0,0.0
0.02847830955800942,-0.01404689784597003,0.7398431942728304,0.0028020938939351436,-0.5254049477707677,-0.002857838173761449,0.8508428890745806,0.04293184555854384,-0.8562156452587733,1.048248336986842,-0.015229281944490405,-0.9288424206241622,0.8828916225356063,0.012978774455067853,0.638282992767712,1.171627854622209,0.07470455416679647,0.796209878888871,0.9154492889833962,0.0,0.0,0.0,0.0
0.028793904738393966,-0.014658411084826193,0.740516954900514,0.0028829190580987965,-0.5254196069298959,-0.0029495188719974594,0.8508332537987463,0.044694569046226526,-0.8535013228870523,1.0473280910978924,-0.01701302357120127,-0.9381646007454225,0.8788293652333736,0.013499736814915508,0.6349102965443499,1.1855100471670754,0.07868674322564109,0.8009261158334998,0.9102051191208589,0.0,0.0,0.0,0.0
0.029089509936836337,-0.015205995414782915,0.7411328171465399,0.002955909691030292,-0.5254322796085904,-0.003034728136454401,0.8508248777324017,0.046278438852930016,-0.8510718046605419,1.046575659305334,-0.018864933598669375,-0.94726558270265,0.8744755494686364,0.013850781840372304,0.6318200580156139,1.199121357606063,0.08223050126740722,0.8052598854197012,0.9053223921010781,0.0,0.0,0.0,0.0
0.02936698681047243,-0.01569094900515816,0.7416649828432865,0.0030203693646066675,-0.5254400504769825,-0.0031115338951270386,0.850819574927885,0.0476857796350468,-0.8490395694454803,1.0460637558728232,-0.020738875248023144,-0.9556191883072357,0.8700745296073144,0.01396586518224458,0.6291393629618707,1.211912816583539,0.08537762821632675,0.8090867394483039,0.9010661428984377,0.0,0.0,0.0,0.0
0.029608838078021553,-0.016112610828387944,0.7420770292561685,0.0030724375198728244,-0.5254379015499668,-0.0031750644100287813,0.8508204808938522,0.04890734269001579,-0.8474969389860124,1.0457444290182099,-0.022600889144241968,-0.9622934412963898,0.8661327552356113,0.013655720078828112,0.6270260132539068,1.2228135544401648,0.08819458463404503,0.812165649749054,0.8978383424193481,0.0,0.0,0.0,0.0
0.029778902651294216,-0.016470981588824936,0.7423254950594821,0.003104496008897802,-0.5254190277653434,-0.003217886039978623,0.8508318591684761,0.04993017262253152,-0.8464999340075602,1.0454387727432535,-0.024455999263304225,-0.9659992814744819,0.8634822855392716,0.01253945925739014,0.6258314690770604,1.2299102672062079,0.09079503798682315,0.814162600006448,0.8961501404469056,0.0,0.0,0.0,0.0
0.02984084782920591,-0.016770179041013765,0.7423788854205119,0.0031081483330959547,-0.5253789106859345,-0.0032341933561642095,0.8508565564263668,0.05075539121567806,-0.8460406671357107,1.0449205548909557,-0.026336843299246265,-0.9655553482217724,0.8631289334779298,0.010081016318238562,0.6264890393584969,1.2302311143139544,0.0933175202590513,0.8148106290446224,0.8964082376913929,0.0,0.0,0.0,0.0
0.029786738169869684,-0.017012152409896522,0.7422374184823809,0.003083555845571948,-0.5253176382188887,-0.0032238135611341425,0.850894516191989,0.051386873580889406,-0.8460814292659798,1.0441173144860934,-0.02822546916869757,-0.9609586173518185,0.8650462397092463,0.006289247868388368,0.628967816909931,1.223766237910947,0.09577101160013368,0.8140840451178406,0.8986334832331658,0.0,0.0,0.0,0.0
0.029637904894187814,-0.01719801055044726,0.741933958893606,0.003039329097677433,-0.5252392325160574,-0.003191903912109234,0.850943196020742,0.05183415458034447,-0.8465551178646175,1.04311351198983,-0.030048747733569765,-0.9533931066722482,0.8682055041213372,0.0017100835657253028,0.6322916732826122,1.213461066381291,0.09805040894498993,0.8122084778630019,0.9024500432764077,0.0,0.0,0.0,0.0
0.02941602811536141,-0.01733546792251484,0.741515748152377,0.002983074865118522,-0.5251490416380229,-0.0031447242737593613,0.8509992338658462,0.052126095143763464,-0.8473232643267217,1.0419405260061092,-0.03176123743777176,-0.9441466071504451,0.8717647990040949,-0.003264394350565595,0.6360798901325736,1.2012019617688878,0.10010448583328323,0.8094947715452975,0.9073547851302158,0.0,0.0,0.0,0.0
0.029123651008630777,-0.017435733301500757,0.7410256358887879,0.0029186461966294046,-0.5250499193968621,-0.0030859317079191422,0.8510608325326818,0.052294838930051324,-0.8481962924064169,1.0404821815460505,-0.03335906661546605,-0.9341428739870332,0.8752064255282435,-0.008425214381051128,0.6401503632356381,1.188032718946782,0.10195287030098281,0.8061728653866812,0.912935725794335,0.0,0.0,0.0,0.0
0.028743249799254408,-0.017511469543850418,0.740498043746355,0.0028469777953530873,-0.524941869933345,-0.0030166900755232632,0.8511279736263543,0.05237052062097671,-0.848948142722925,1.0384812642946546,-0.034849691697592,-0.9238998899642529,0.8782760526768366,-0.013679787105797418,0.6443554491981563,1.1744760366113252,0.1036586648211091,0.8023615060823437,0.9189081948548109,0.0,0.0,0.0,0.0
0.028242055938266182,-0.017576908085625946,0.7399602158121362,0.002767297593576516,-0.5248221435249694,-0.0029364124469147264,0.8512023479830318,0.05238312895571437,-0.8493272535326627,1.0355730298360732,-0.036227985982653435,-0.9136445640716273,0.8808804330718829,-0.01899352934659159,0.6485512439316616,1.1607637243663869,0.10531454437919627,0.7980880998538803,0.9250909909508088,0.0,0.0,0.0,0.0
0.02757715665337786,-0.017649183670154556,0.7394344538851577,0.0026779465735122035,-0.5246854647319328,-0.0028434618918247133,0.8512872056043453,0.05236762394649596,-0.8490617234259202,1.031313325386877,-0.037471243910966796,-0.903444610089493,0.8830088741454818,-0.024360382952751277,0.6526056878995343,1.1469819795092016,0.10704351733330347,0.7933177512264227,0.9313755402484755,0.0,0.0,0.0,0.0
0.026699960326180026,-0.017749843036990495,0.738939542543673,0.0025766677364086965,-0.5245243223566483,-0.002735573796225836,0.8513871696682306,0.05236905639217645,-0.8478641334301973,1.0252007465554729,-0.03855041954589181,-0.8933057702318321,0.8846944360394883,-0.029801749640548453,0.6564085050020494,1.1331583411505814,0.1090071788775538,0.7879782318242236,0.9377050643758567,0.0,0.0,0.0,0.0
0.02556112675507783,-0.017905596372808183,0.7384905353554584,0.002460352235589383,-0.524329356523313,-0.0026098382441344364,0.8515079925045124,0.05244494452555169,-0.8454456117381772,1.0167065767121064,-0.0394522399388527,-0.883226636552492,0.8860110095997984,-0.03539356883080325,0.6598771605933503,1.1193173855984746,0.11141473296369803,0.7819800474979656,0.9440670131698079,0.0,0.0,0.0,0.0
0.02411786300288025,-0.018147290008825985,0.738096453388082,0.002324157800652951,-0.5240899736153789,-0.002462003490191405,0.8516561726337474,0.05266182795923139,-0.8415513657298199,1.0053335741952973,-0.040207191893255174,-0.873220560881924,0.8870982338719353,-0.04132946928700557,0.6629674224068448,1.1055287819562185,0.11452750908432195,0.7752360565141075,0.9504970736680338,0.0,0.0,0.0,0.0
0.022345960094882898,-0.018505744536523528,0.7377556557468504,0.002159761357890441,-0.5237953562418173,-0.0022846748492625028,0.8518383300082345,0.05308182280625158,-0.8360340541655732,0.9907330997732638,-0.04091598096062257,-0.8633204564674171,0.8882069811558325,-0.04804188303929819,0.6657066840057755,1.0919699674360555,0.1186553502989736,0.7676881512754211,0.9570907740039781,0.0,0.0,0.0,0.0
0.020259516239243377,-0.01900259641887958,0.7374489013148752,0.0019523199517116473,-0.5234359687703605,-0.0020637101780625285,0.8520602772952987,0.05373350050801202,-0.8289891594728307,0.9729247931948483,-0.04175984310064711,-0.8535891491706159,0.8897566405071753,-0.056424465206656865,0.668280640465327,1.0790287230991946,0.1241441959255453,0.7593519805782312,0.9640164632531882,0.0,0.0,0.0,0.0
0.01794201957902721,-0.019633547552540487,0.7371306573705871,0.001675531790221688,-0.5230049360455239,-0.0017717578961940538,0.8523261642934555,0.05455943293013697,-0.8209921935622454,0.9526898134700801,-0.04297197785081701,-0.8441667141533615,0.892374939122024,-0.06822646984042016,0.6712227061645883,1.0674680050633052,0.1313573581756196,0.7503942182030603,0.9715178279589481,0.0,0.0,0.0,0.0
0.01559198385475333,-0.02033822933383047,0.7367199882342402,0.0012840399464618172,-0.5224832836324548,-0.0013575078187710483,0.8526474809313552,0.055326016184267274,-0.8135806197670835,0.9323188112000823,-0.044781171024636766,-0.8353624605767053,0.8966942709464676,-0.08670995175417333,0.6757731211468749,1.058522840464437,0.14061092025847524,0.7412067803787986,0.9798523311355234,0.0,0.0,0.0,0.0
0.013650971729918072,-0.020935859206782873,0.7361541901651745,0.0007136593491006239,-0.5218060987250683,-0.0007388403370433511,0.8530635029929565,0.05546174912416715,-0.8101727546874037,0.917386396984632,-0.04763763556977912,-0.8278735245298297,0.9026081270126906,-0.1167264328463038,0.6838904115779684,1.0537410425791873,0.1517906059207599,0.7329380278297671,0.9884158568496411,0.0,0.0,0.0,0.0
0.012425409573008344,-0.021377966657456053,0.7356392412563906,3.3434845149113174e-05,-0.5211141601270133,5.438802022009875e-05,0.8534869817631502,0.05488161810414345,-0.8109457134004487,0.9101405857020406,-0.050529868142508344,-0.8251933247716464,0.9111739542616608,-0.15480292020959815,0.692971231957132,1.055013524399319,0.16423547515000475,0.72777512538642,0.9950905794364805,0.0,0.0,0.0,0.0
0.012419681594020867,-0.021365521350251382,0.7356214404098022,-1.1449798018430098e-05,-0.5211112549827055,6.637356680340607e-05,0.8534887552825762,0.054840362380092274,-0.810983964051498,0.9100537425602228,-0.05054598135602082,-0.825192493867375,0.9111839201135074,-0.15480475376923097,0.6929897730189073,1.0550201780681259,0.16425206171637732,0.7277091575287444,0.9950443354424335,0.0,0.0,0.0,0.0
0.012419681594020867,-0.021365521350251382,0.7356214404098022,-1.1449798018430098e-05,-0.5211112549827055,6.637356680340607e-05,0.8534887552825762,0.054840362380092274,-0.810983964051498,0.9100537425602228,-0.05054598135602082,-0.825192493867375,0.9111839201135074,-0.15480475376923097,0.6929897730189073,1.0550201780681259,0.16425206171637732,0.7277091575287444,0.9950443354424335,0.0,0.0,0.0,0.0
0.01257006013793382,-0.021253658936665868,0.7353022311062255,-0.00016970342744300026,-0.5213534177781192,0.0002557111610689175,0.8533407992025359,0.054158682098673985,-0.81215591229349,0.9114768077289778,-0.05125026339343986,-0.8246626417540394,0.9107953048122508,-0.1538806214006577,0.6923001449457318,1.0582900285567591,0.1667935195476921,0.7282883796921847,0.9980652424162503,0.0,0.0,0.0,0.0
0.013274635165406683,-0.020961089876265583,0.7349231560866977,-0.0002082215499709591,-0.5217966039825136,0.00023017774886596452,0.8530698727151873,0.05356516461948622,-0.8150392724964801,0.9175770348581882,-0.051951496893114534,-0.8259938101080642,0.914419938324536,-0.15820612379395002,0.6950332842331776,1.0625409489529507,0.1664457732455333,0.7302830459983609,1.000723983572495,0.0,0.0,0.0,0.0
0.01465706549539505,-0.02042778632033418,0.7346240882203746,1.0419516716684278e-05,-0.5227567541789342,-0.00033014454759265394,0.8524818278745399,0.05364393569010774,-0.8173053709525296,0.9271467313714923,-0.05199075958970893,-0.8281065087226793,0.921596424426742,-0.17308123738010084,0.704765792847973,1.0673767337945823,0.15960647254625018,0.7346211968316606,1.0017112454839179,0.0,0.0,0.0,0.0
0.01680033620928745,-0.0197804271525264,0.73466568388013,0.0006496619677971719,-0.524514626843099,-0.001807215933534671,0.8513992706935694,0.05558450122638415,-0.8155863499752042,0.9377035152835228,-0.05008099670765626,-0.8301517054681844,0.9323322308628031,-0.2045859374888423,0.7259942801288347,1.0706980662976948,0.1427376479435295,0.7422877310632608,0.9989545681710302,0.0,0.0,0.0,0.0
0.019245265978052966,-0.019685903405991655,0.7354799395341249,0.0014605328504456673,-0.5265983618347682,-0.0037029911349454395,0.8501048876540976,0.05983286466554922,-0.8084028948480867,0.9449581957437736,-0.04572311982594705,-0.8316359193079444,0.9458934034836788,-0.24310159270554654,0.7558983894929522,1.0657803001136685,0.12461991013541246,0.7542195193875924,0.9901397435765348,0.0,0.0,0.0,0.0
0.02035225020498929,-0.022150460090648957,0.7369606414734333,-0.0012547334219545512,-0.5220495767894763,0.002040627586759246,0.8529117778862131,0.046815502808383744,-0.818748874167375,0.9186514389357526,-0.05374599324217472,-0.8507864012735408,0.9780595978455178,-0.11717931235890597,0.7159991095436568,1.032489183820601,0.11857142589021188,0.7176173537615049,1.0048025726942453,0.0,0.0,0.0,0.0
0.02221477084900429,-0.023311827852357407,0.7382612199248164,-0.0020294605715144307,-0.5224018696092304,0.00286133978576923,0.8526921957266875,0.04201557240044526,-0.8218776606979286,0.9091892648566441,-0.05260795004577522,-0.8531589598733634,0.9931486140155028,-0.11298257032918226,0.7292333441798543,1.0125637025925271,0.08852960244680665,0.7019726670659296,1.0223557720979006,0.0,0.0,0.0,0.0
0.024134471669434145,-0.024059652303793623,0.7392454450769006,-0.00204552930277656,-0.5233271172510475,0.002464551888391536,0.8521258534650672,0.039005606171245474,-0.8292381687724529,0.9070585560093903,-0.04963012840048782,-0.8557643851164716,1.007004413062454,-0.12092939140559322,0.7464378522138371,0.9993936031936369,0.06400584151400188,0.6936501106353581,1.038744829072497,0.0,0.0,0.0,0.0
0.02566424906755229,-0.024610318755691685,0.7397636433062591,-0.0020181440297736245,-0.5240246307191712,0.002154725700739162,0.8516979926308773,0.035932822077037234,-0.8393788585720269,0.9056705990066036,-0.04743385874792217,-0.8587518908359464,1.0183354257747474,-0.1259633417276967,0.758422678449133,0.9914569006558368,0.048643687508725005,0.6881229937182215,1.05337544827203,0.0,0.0,0.0,0.0
0.026810322957376106,-0.02516908402923156,0.7401720195321846,-0.0020979160893197174,-0.5244179138096219,0.002135569198634111,0.8514557473925723,0.03294812698719223,-0.8501742901312578,0.9039473853060485,-0.045924404586173334,-0.8614431072032754,1.0275500818956391,-0.12450356418663099,0.7657350228507674,0.9844971202707951,0.03791474993315042,0.6828656264432991,1.0670724766032678,0.0,0.0,0.0,0.0
0.027622344338116944,-0.025782343140359994,0.7406084980274695,-0.0022773084881358313,-0.5245684775833981,0.0023571945745792704,0.8513619499517366,0.029978400849138775,-0.8609662744848228,0.9018462295229553,-0.044840384233229655,-0.8635029444374844,1.034855163211509,-0.11738277960375149,0.7696661194227739,0.9770943851881866,0.029632613964401512,0.6772465553245487,1.0802519541040059,0.0,0.0,0.0,0.0
0.028181410052877148,-0.026388172089175294,0.7411040580663455,-0.0024455646734833254,-0.5246716175299353,0.0025802308387343795,0.8512972779122272,0.027108788870183382,-0.8714330856394987,0.899817519203855,-0.04375619212571054,-0.8645313064807575,1.0401261018955752,-0.109368404095976,0.7726159282799521,0.9695066801133133,0.022078133314311046,0.6715888049001751,1.0932040425965428,0.0,0.0,0.0,0.0
0.028564712057384794,-0.026929296249206907,0.7416521446630182,-0.0025137157157953584,-0.5248774307378146,0.002618321967656673,0.8511700819022274,0.02446281799857488,-0.8814167937034901,0.8981502602724949,-0.042373073363327726,-0.8643684218888463,1.0434084173782647,-0.10416415213407296,0.7763458986793472,0.9622445159770897,0.014026475445519156,0.6661964766122777,1.1061034888679562,0.0,0.0,0.0,0.0
0.028795863398694315,-0.027470482311245967,0.742222973711943,-0.0025990183827234114,-0.5250267098051443,0.002697340441078874,0.8510775073101015,0.021556177227775558,-0.891503800516207,0.8961011217930038,-0.041079197727339554,-0.8636924843563116,1.0455749702322752,-0.0980531059674402,0.7792494061777429,0.9548444585528431,0.006494946409440674,0.6606060755974993,1.1189446315276463,0.0,0.0,0.0,0.0
0.02892583684474713,-0.028004515175854353,0.7428088626257012,-0.0026814486371428184,-0.5251554912445259,0.002775379635807587,0.8509975423682516,0.018487833713617643,-0.9016327063904956,0.8936903420568336,-0.03979573444474044,-0.8626316909059307,1.046935610740211,-0.09188309426340796,0.7818266360914733,0.9474090439745808,-0.0009265637314075162,0.6548690248849025,1.1317670046812343,0.0,0.0,0.0,0.0
0.028995805071923286,-0.028522172710548323,0.7433955568970432,-0.002744519593113365,-0.5252919661774732,0.0028195735579313428,0.8509129614047248,0.015337665799613877,-0.9118020557662466,0.8909866803093852,-0.038471961130396526,-0.861309939722991,1.047741841536466,-0.08630494666486892,0.7844219091460949,0.9401133377237237,-0.008455114468057018,0.6490813377722894,1.1445975971105107,0.0,0.0,0.0,0.0
0.029031354353882214,-0.029031420795352897,0.743966075381394,-0.002799960427277939,-0.5254221399280586,0.0028523023537207572,0.8508322980860025,0.012080282659179306,-0.9220816022377093,0.8879191695663968,-0.037144893745937956,-0.8599325530217886,1.04829227005418,-0.08096396157978414,0.7868954913251806,0.9330086365024799,-0.015985788773147016,0.6432657919576998,1.1574072822161316,0.0,0.0,0.0,0.0
0.029050653973090163,-0.029537786227746967,0.7445030664030509,-0.0028485765838799516,-0.5255450422022239,0.00287510524913167,0.8507561507258792,0.008718751964348743,-0.9324057131390273,0.8844945699661199,-0.035806487015233854,-0.8586487072959365,1.048788683927353,-0.07581519959171654,0.789212056741995,0.9262155522121177,-0.023511336407111155,0.6375005452717952,1.1700948144955716,0.0,0.0,0.0,0.0
0.029063785992122622,-0.030042847116740063,0.7449861116365611,-0.002874000656863088,-0.5256800526971985,0.0028576010146964446,0.8506727081744987,0.005310166248736665,-0.9424635386231622,0.8808748384843498,-0.03438251495007134,-0.8575399736641326,1.0493116095942008,-0.07128101390349481,0.7914927329044851,0.9199835651110378,-0.031170703960873836,0.6319261357587894,1.1824148925528177,0.0,0.0,0.0,0.0
0.029062423015212904,-0.030565396944344198,0.7453881810924822,-0.0028765545927007144,-0.5258195094089576,0.002802994230663518,0.8505866870472057,0.0018592088309328284,-0.9516899859364589,0.8772707952776052,-0.032834310045843695,-0.8567401076338829,1.0499340084793838,-0.06714405639157642,0.7935082820005748,0.9145241407522083,-0.03888518035072434,0.6266270034318314,1.193826844182345,0.0,0.0,0.0,0.0
0.029012010104931544,-0.031147629752713814,0.7456677782275598,-0.002893400642334687,-0.5259025650222369,0.0027865487424146955,0.850535334646281,-0.0017742985584130043,-0.9592927527801369,0.8739542324098797,-0.031232880741656054,-0.8564949548322828,1.0507520347940777,-0.06200452217350028,0.7943787707469522,0.9099880726720665,-0.04600380804179848,0.6216574415965727,1.203280113990954,0.0,0.0,0.0,0.0
0.02887450168288554,-0.03179182916750115,0.7457766383635966,-0.002891499627576999,-0.5259620802042014,0.002752497484040276,0.8504986497195474,-0.005427459569174468,-0.9639119953268773,0.8718219650719031,-0.02944188992496559,-0.8567662148325917,1.0514646577612474,-0.056655297780596706,0.7940763632987599,0.9070365291628383,-0.05236211698190375,0.6175346586085634,1.2089629424955934,0.0,0.0,0.0,0.0
0.028607644760838827,-0.03249780108375421,0.7456741434412558,-0.0028434245183496026,-0.5260237017501386,0.0026599887067866117,0.850460995339686,-0.0089477986270151,-0.9643531657954233,0.8718400796398169,-0.027368462564080653,-0.8574703909264731,1.0517232714914837,-0.051691778809585455,0.7925062795472018,0.9062473739866066,-0.057452950220529944,0.615394080559463,1.208052648393446,0.0,0.0,0.0,0.0
0.028187367396829473,-0.03328360325633889,0.7453547771437282,-0.00274423340466981,-0.5260886904265714,0.0025036992496596747,0.8504215957266978,-0.012278656979687774,-0.960615927737508,0.8739558232545542,-0.024952954156090418,-0.8585662681337297,1.0513926037492345,-0.04702368411376432,0.7895631471505558,0.9076633664057093,-0.061216905342534635,0.6152386085114074,1.200573484051886,0.0,0.0,0.0,0.0
0.027608430935548864,-0.034186140011503476,0.7448489914708387,-0.002610762381541584,-0.5261355089041996,0.002311935773960095,0.8503935942508523,-0.015478772839164701,-0.9539019175896587,0.8771384576472324,-0.022162204367907924,-0.8600514049376766,1.050550686205138,-0.04193282176655457,0.7851658473472723,0.9107731466852131,-0.06404308293493768,0.615946763349924,1.1893821950752859,0.0,0.0,0.0,0.0
0.026866453684789352,-0.035230975897661804,0.7442035081226166,-0.002438913731986658,-0.5261714816583216,0.0020766163462268175,0.850372454430319,-0.018503411785716545,-0.9454262376463828,0.8805630163365962,-0.01890680008063956,-0.8617718285955857,1.049132271845046,-0.03631789400960151,0.7795825796872986,0.9150185769042666,-0.0663344388183815,0.6170539896525287,1.176318297057112,0.0,0.0,0.0,0.0
0.02593788649400959,-0.03644614776845194,0.7434597614204562,-0.0022257502409465217,-0.5261999826736001,0.0017947531024049867,0.8503560449196966,-0.021283401261900814,-0.936077911995324,0.8836787573309065,-0.015104346485878863,-0.8635199490325266,1.046930644150641,-0.030006861534608974,0.7729615648414618,0.9199034649404504,-0.06823090012507452,0.6183398885070797,1.1624105526199997,0.0,0.0,0.0,0.0
0.024780283268218326,-0.03786825988897296,0.7426518897505383,-0.001978778412064885,-0.5262086665268758,0.0014844560538175653,0.8503518801638692,-0.023766971457587487,-0.9263849376330159,0.8861329243621487,-0.010702270477798925,-0.8650805184561019,1.0436513254442785,-0.022515538372953565,0.7652202814594449,0.9249529150176022,-0.06963948615267535,0.619625866050273,1.14817322109467,0.0,0.0,0.0,0.0
0.02334096416701767,-0.03953512563675698,0.7418081614764954,-0.0017112132945400556,-0.5261780688313733,0.0011738487705623818,0.8503718796556075,-0.025922243255576627,-0.9165983598389993,0.8877205004798593,-0.005671753513062624,-0.866220838334966,1.038927197368485,-0.013287958276927211,0.756172090814345,0.9297305079147327,-0.07039183057836797,0.6207457078500908,1.1338219686977062,0.0,0.0,0.0,0.0
0.02156630602090323,-0.041473705520648246,0.740951217199993,-0.0014368437294177724,-0.5260915798106244,0.000888988379497098,0.8504262430288236,-0.027744137565054266,-0.9068145494590699,0.8883522611365593,-1.1338115237577787e-05,-0.8666705361503647,1.032317711006365,-0.0019744325910564763,0.7456603109346196,0.9338843146369198,-0.07036575206863536,0.621564980631037,1.1194111259363455,0.0,0.0,0.0,0.0
0.01940979617394005,-0.04368851849550021,0.7400976680265422,-0.001168322700796118,-0.525940829089119,0.0006484194149362984,0.8505201107977278,-0.029269288005304504,-0.8970794139666248,0.8880367551986268,0.006235436028257674,-0.8661095073364287,1.0233124529333906,0.011411981795208186,0.733635012206771,0.9371863634810387,-0.06955319849787282,0.6219922770750442,1.1049119072709523,0.0,0.0,0.0,0.0
0.01683961266132042,-0.046152453392193114,0.7392578119103267,-0.0009180679162695078,-0.5257266013007142,0.0004633197698275892,0.8506529745853427,-0.030592851909242158,-0.8874499120320855,0.8868783946502816,0.012956159242088983,-0.8641733978761114,1.0113551506813383,0.02647596844410445,0.7201737522985947,0.9395568214384473,-0.06809505400520718,0.6219707959251831,1.0902523320028692,0.0,0.0,0.0,0.0
0.013847615475601857,-0.048800714076389695,0.7384349985674108,-0.0007001070159063585,-0.5254567248845327,0.0003407084237451299,0.8508199715812722,-0.03187952829884901,-0.8780070649492218,0.8850905545335865,0.01994803585248317,-0.8604890535277823,0.9959084131430735,0.04252357197368456,0.7054623307337142,0.9410819466972594,-0.06630037724746704,0.6214605191047645,1.0753368316465994,0.0,0.0,0.0,0.0
0.010463140902374352,-0.051526471785330735,0.7376213795067434,-0.0005274004977731803,-0.5251471716984518,0.0002802175860527675,0.8510112169554148,-0.03333821534809946,-0.8688132189782857,0.8830415092501855,0.02691862899803735,-0.8547520038876026,0.9765777804640559,0.05860953182238564,0.6897876036811846,0.9420827885133328,-0.0647207404408119,0.6204384572391431,1.0600643299069406,0.0,0.0,0.0,0.0
0.0067737634149466,-0.05418276633871185,0.736783514582091,-0.0004091205312634233,-0.524817793615118,0.0002781272671119687,0.8512144493431567,-0.035167602288722066,-0.8598532442423056,0.8812770482398185,0.03348784909045441,-0.8469152906620032,0.9533770185861831,0.07369298573417397,0.6734465333554357,0.9432496232226608,-0.06418890497945526,0.6189543957332433,1.0443557832152315,0.0,0.0,0.0,0.0
0.0029451500996781916,-0.05659842089364042,0.7358335388315288,-0.0003418608511936643,-0.5244933107866472,0.0003146894101435748,0.8514144414101719,-0.037693664999149765,-0.8510142342337707,0.8804301338033775,0.039272459766847026,-0.8374730223001281,0.9270881019887354,0.08670965076941632,0.6566370837163655,0.9459029191503091,-0.06613848703063706,0.6172654956256373,1.0281209328368905,0.0,0.0,0.0,0.0
-0.0005028188686242671,-0.05871006622848113,0.7346198297456141,-0.00027342768249022544,-0.5241301074288109,0.0003014620578498345,0.8516381067358325,-0.04065868682394046,-0.84152440707598,0.8796821908721427,0.04438952026281033,-0.8298032684901774,0.9030456813815664,0.09699825104348563,0.6401188687315328,0.9512655556864201,-0.0728275261357556,0.6164282817456884,1.011100957240413,0.0,0.0,0.0,0.0
-0.003298063491557096,-0.06024467003702051,0.7332302438820563,-0.00017650152443735015,-0.5238381791542024,0.00019147740758737825,0.8518177588217001,-0.04399778795326462,-0.8330473378390038,0.8799595153524515,0.048308312639886705,-0.8241332356440653,0.8827864458795741,0.10314883363082002,0.6252731535726676,0.9598012795126368,-0.08702947322124778,0.6155814705005277,0.993227815955762,0.0,0.0,0.0,0.0
-0.005021908993655593,-0.06101992065623715,0.7319701215829173,-6.195400541416899e-05,-0.5236487881329499,3.375256605251816e-05,0.8519342355542231,-0.046627670679652795,-0.8279906365075891,0.880829129253759,0.050504688353429854,-0.8214133261700077,0.8698729389289651,0.10506577364228217,0.6144938843942929,0.9692719991839578,-0.10669905382054193,0.614758839375674,0.9758090324382788,0.0,0.0,0.0,0.0
-0.005037741303754328,-0.061128118482756955,0.7319047270939801,2.1675943652065903e-05,-0.5236558885300768,4.551181236448426e-05,0.8519298726225089,-0.04663218188095618,-0.828011926160641,0.8808384391757266,0.05067208384369107,-0.8214896240380718,0.8696987542156581,0.10508306727618803,0.6144074127731098,0.9691937282958571,-0.10671540994531231,0.61479040388838,0.9758163758559151,0.0,0.0,0.0,0.0
-0.005037741303754328,-0.061128118482756955,0.7319047270939801,2.1675943652065903e-05,-0.5236558885300768,4.551181236448426e-05,0.8519298726225089,-0.04663218188095618,-0.828011926160641,0.8808384391757266,0.05067208384369107,-0.8214896240380718,0.8696987542156581,0.10508306727618803,0.6144074127731098,0.9691937282958571,-0.10671540994531231,0.61479040388838,0.9758163758559151,0.0,0.0,0.0,0.0
-0.005037741303754328,-0.061128118482756955,0.7319047270939801,2.1675943652065903e-05,-0.5236558885300768,4.551181236448426e-05,0.8519298726225089,-0.04663218188095618,-0.828011926160641,0.8808384391757266,0.05067208384369107,-0.8214896240380718,0.8696987542156581,0.10508306727618803,0.6144074127731098,0.9691937282958571,-0.10671540994531231,0.61479040388838,0.9758163758559151,0.0,0.0,0.0,0.0
-0.004319395712102614,-0.061434072901782655,0.7317878786872597,-1.6940975429874677e-05,-0.5239207179600553,0.00022723561632912508,0.8517670041561825,-0.04638356527436049,-0.8302882104709767,0.8860245238358739,0.05101788315823734,-0.8243722317489804,0.8763612276905637,0.10866305072684011,0.6159040750297492,0.9687144217476413,-0.10438607666687437,0.6172031027676133,0.978310785978298,0.0,0.0,0.0,0.0
-0.002917083909973594,-0.06188602198595099,0.7316411961080492,2.3704449822450116e-06,-0.5242782351338195,0.0003074931324845659,0.8515469673525483,-0.045578806827430804,-0.8352537886905225,0.8970653893234485,0.0520586191493934,-0.8310831826351119,0.890335218520971,0.11282481467983987,0.6195142856630106,0.9678068026760289,-0.10248270630172508,0.6212681564610717,0.9811075581394904,0.0,0.0,0.0,0.0
-0.000849844436985661,-0.0626153747539741,0.7314868255603366,0.00010760336187255004,-0.5247401504862559,0.0002547353845966476,0.8512624142995284,-0.04380076366279465,-0.8421861162162516,0.9129499624852486,0.05420149390558497,-0.8415106016579726,0.9114199702395858,0.11806970711769317,0.6254671828616758,0.9657043315241167,-0.1005275446967821,0.6270428113858607,0.9844138837839991,0.0,0.0,0.0,0.0
0.0019123084643579884,-0.06383609213047102,0.7315459872495917,0.0003425456071809517,-0.5253088555628115,-7.198245155012827e-07,0.8509115635183706,-0.04031163172251354,-0.8497707590432573,0.9325754189475509,0.05817134833119118,-0.8554060830844826,0.9398855211620579,0.1250993871729647,0.6352225096657056,0.9594310474298425,-0.09777293577262461,0.6356422430726442,0.986778926676825,0.0,0.0,0.0,0.0
0.005575878888519158,-0.065919933087806,0.7326740243708356,0.000830704299407888,-0.5261392561521216,-0.0007467977877897013,0.8503976924704836,-0.033377502575822685,-0.8539316681552703,0.9540844052279194,0.06563610467415137,-0.8710725778088269,0.9765887655934383,0.13402391822680992,0.6549372414913921,0.9398250006540935,-0.09422036310562733,0.6516166866069045,0.9813927631415901,0.0,0.0,0.0,0.0
0.008698612034830477,-0.06772151163576666,0.7340139228801121,0.0007341208078779258,-0.525732243281589,-0.0004548396415399967,0.8506496708761181,-0.029664654977583027,-0.8641016415961245,0.9783730029372002,0.05899972948147583,-0.8575098190004836,0.9433691876233185,0.10724738888549619,0.6484248750594392,0.9747091491513562,-0.08087201945011056,0.6680444103509737,0.9718869973485406,0.0,0.0,0.0,0.0
0.01186555249059858,-0.06970729041427645,0.735236620886809,0.0007794270643842195,-0.5255566458486464,-0.00046829919118009463,0.8507581237893879,-0.024650696205003535,-0.8720204536757918,1.0001487501843471,0.05282183001349734,-0.8539909328634916,0.9230109081976798,0.08552060821915969,0.6451942067322279,1.002772631736638,-0.0686156883646537,0.6839399960173551,0.9637466211284886,0.0,0.0,0.0,0.0
0.01483960366696803,-0.07176319345439015,0.7363585588219986,0.0009530366565947018,-0.5255546662432388,-0.0006528058751455486,0.8507590483536325,-0.018984681419175326,-0.8773439174770484,1.0181683422532597,0.047750619959474654,-0.856791048047017,0.9117413505272742,0.07254453216331237,0.6429130547968448,1.0251729378325642,-0.05726665194197175,0.6988805740235662,0.9567493490439003,0.0,0.0,0.0,0.0
0.01746738545675387,-0.07380564287243832,0.7374132115823512,0.0011894571928172189,-0.5256216389973415,-0.0009076701088987404,0.8507171409724317,-0.013136591458491945,-0.8803927107182633,1.0322332359685402,0.04377151784478899,-0.8628919705174608,0.905494009050243,0.06556057232927784,0.640867474731946,1.0439884204454803,-0.04631450012910635,0.7126030980786288,0.9504764366246452,0.0,0.0,0.0,0.0
0.019691958166687437,-0.07577830317212027,0.7384175983577514,0.001441346336232498,-0.5257021602952451,-0.001174081708742668,0.8506666695679294,-0.007407404734170402,-0.8815717100629474,1.0426136673553903,0.04063386474717707,-0.8706147436241051,0.9018465965485409,0.06191550035403863,0.6388718205989474,1.0606456308149415,-0.03551536833376827,0.7250082418521157,0.9447122786122325,0.0,0.0,0.0,0.0
0.021519414809170936,-0.07764385348865818,0.739380351892469,0.001683030092339596,-0.5257726859819927,-0.0014243107558389893,0.8506222554247332,-0.0019746622474780826,-0.8812787212533613,1.0498136227080839,0.038014481041663474,-0.8790850688302236,0.8993936388907712,0.05993516252694017,0.6368266834164495,1.076046631160882,-0.024876915232697604,0.7361134921833162,0.9393194402121108,0.0,0.0,0.0,0.0
0.022991207738343938,-0.07938058658665333,0.7403069814599188,0.001902970730242219,-0.5258263617778831,-0.0016484004889781904,0.8505882074997646,0.00306971167644358,-0.8798741000530053,1.0544237138238752,0.03562301357125405,-0.8878722399713705,0.8973360038052499,0.05868579975746131,0.634657824624898,1.0907535020392973,-0.014527394967921943,0.7460201114060123,0.934183363416217,0.0,0.0,0.0,0.0
0.024164610980321275,-0.08097971979644596,0.741201220126958,0.002097476422252785,-0.5258638868612389,-0.001845315394694938,0.8505641468454582,0.0076924851516645115,-0.8776707528667735,1.057030551550393,0.03324591311479844,-0.8967814060873532,0.8952369045102702,0.057666816969886674,0.6323230611936257,1.1051176932330242,-0.004613215936268586,0.7548762975085828,0.9292084292952327,0.0,0.0,0.0,0.0
0.02510033684002398,-0.08244235166653223,0.7420651594001323,0.0022669461655111874,-0.5258886363007159,-0.0020180186287569856,0.8505480179070843,0.011899265421042346,-0.8749325772435765,1.0581671854784676,0.030749019279202344,-0.9057404719686964,0.8928709379506733,0.0566142710902159,0.6298180170501606,1.1193588289147003,0.004753950536426559,0.7628459471082873,0.9243250678886071,0.0,0.0,0.0,0.0
0.025855554176187446,-0.08377625140114218,0.7428991640541083,0.0024138117289425683,-0.5259043325101528,-0.0021709203570732753,0.8505375321905501,0.015719195190837257,-0.8718778863915296,1.0582921630389033,0.028061993788830168,-0.9147403758108619,0.8901292882517495,0.055395113419967563,0.6271756590312959,1.1336096955048423,0.013512831892726606,0.7700865860081194,0.9194942975488429,0.0,0.0,0.0,0.0
0.02648049327334359,-0.08499282935498746,0.7437015647567123,0.0025413865176644383,-0.5259140630413769,-0.002308540620619112,0.850530781506514,0.019192914743886794,-0.8686868051343745,1.0577868140127331,0.02516013814037046,-0.9237985851661921,0.8869626360327819,0.05395275299364851,0.6244634764577488,1.1479377573830736,0.02164749463896845,0.7767344654207077,0.9147101813181101,0.0,0.0,0.0,0.0
0.027016972417429844,-0.0861045082770253,0.7444678487610359,0.0026531541160947133,-0.525919881920508,-0.0024347455283644116,0.8505264902330598,0.022363151983314393,-0.8655114677052286,1.0569615143987614,0.022050793435452003,-0.9329213697116635,0.8833541522095295,0.05227681774683979,0.621779582034349,1.1623452639965708,0.0291738965561605,0.7828922831853669,0.9100050028803751,0.0,0.0,0.0,0.0
0.02749732600466867,-0.08712261813323124,0.7451891093586261,0.00275220625672847,-0.5259225602895357,-0.0025522048122065205,0.850524174959076,0.025267538785468995,-0.8624866889940784,1.056061697653908,0.018764949114889365,-0.9420438402589703,0.8793230398260006,0.05038009778464395,0.6192457822991934,1.1767417701179066,0.03612626203626558,0.7886145448606972,0.9054622717190962,0.0,0.0,0.0,0.0
0.02794239483278584,-0.08805595998362603,0.7458497035866036,0.002840592372188636,-0.5259212853420956,-0.002661873547156574,0.8505243365643996,0.027933566284343268,-0.8597374385175618,1.0552641653574328,0.015349891715578651,-0.9509334673893343,0.8749644768182692,0.04826935469889079,0.6169961280428483,1.1908744537640088,0.04254914854229703,0.793886611608162,0.90124119201276,0.0,0.0,0.0,0.0
0.028357820217018385,-0.08891033061371813,0.7464245034693593,0.002918395980304961,-0.5259132857137895,-0.0027624368583897595,0.8505286989968248,0.030376232475722152,-0.8573788396169663,1.0546566677837526,0.011855993642424088,-0.9590623314521076,0.8705300500854078,0.04589733342809622,0.6151692273500939,1.2041941293389347,0.048499953489259943,0.798597457253778,0.897611525594059,0.0,0.0,0.0,0.0
0.02872968349663408,-0.08968950090929824,0.7468772592145887,0.0029825503112942383,-0.5258935455082868,-0.002849844716364536,0.8505403938505547,0.032599833398805275,-0.8555060944329224,1.0542048141793012,0.008313087757323381,-0.965499337148026,0.8665338088987111,0.04308901030638082,0.6139406900713917,1.2156325546415312,0.054065178271855724,0.8025179638645334,0.8949835187436082,0.0,0.0,0.0,0.0
0.029024863642805,-0.09039801986820527,0.7471644885609243,0.003026097581726893,-0.5258551280852684,-0.002917552804467873,0.8505637629745844,0.034605972284589816,-0.8541765429998512,1.0537391247169106,0.00470629652547692,-0.968958712571119,0.863815229101533,0.0394630363576875,0.6136854605603814,1.2232838644479787,0.059384403325578455,0.805325069116227,0.8938789406912419,0.0,0.0,0.0,0.0
0.029208960266664915,-0.09104433350016627,0.7472550753370852,0.0030410976490574887,-0.525793313279722,-0.0029603804763653754,0.8506017749704359,0.03640938859810766,-0.8533798051628073,1.0530356933194867,0.0009974757943746015,-0.9682613530237547,0.8633854170212382,0.03446868848926499,0.6153569661950807,1.224183252765404,0.06462385714187589,0.8067624410775427,0.8947119324602812,0.0,0.0,0.0,0.0
0.029274734745227064,-0.09163275473714712,0.7471500405774362,0.0030282715626992647,-0.5257078988763901,-0.002978406740753645,0.8506545501692214,0.03802103570978792,-0.853075267360198,1.052021846457268,-0.002777741452679476,-0.9634036455996359,0.86521678793477,0.028131417943800665,0.6189031598343385,1.2183075162670662,0.06980413701491635,0.8068115459947155,0.8975009366867608,0.0,0.0,0.0,0.0
0.0292431553675703,-0.09216538888842332,0.746883518685023,0.002996872074754534,-0.5256025988395255,-0.002976755940447779,0.8507197339752824,0.03945283730478172,-0.8531909993785229,1.050777926679476,-0.006510156338394849,-0.9555664615615078,0.8682747288075734,0.021033778576568803,0.6232983405638002,1.2085725851636677,0.0748189393415529,0.8057022123045405,0.901860452298196,0.0,0.0,0.0,0.0
0.029134915269012844,-0.09265165225044346,0.7465044713660866,0.0029550032047191005,-0.5254824091837523,-0.0029616537261812383,0.8507941785189328,0.04073816016139604,-0.8535783884505136,1.0493235113264288,-0.010121934581629867,-0.9460343985665084,0.8717120014071784,0.013580673834559248,0.628125812848904,1.196841484110356,0.0796214591289029,0.8037495336195722,0.9072781530635627,0.0,0.0,0.0,0.0
0.02895151198360936,-0.0931053914231401,0.7460575371651811,0.0029069274794795634,-0.5253496652228988,-0.0029369434060746496,0.850876403119893,0.04191693078641887,-0.8540351012887252,1.0475267105335397,-0.013587338868843108,-0.9357302027788184,0.8750072126798634,0.005978356973754533,0.6331828962943423,1.1841450093656372,0.08424440985025185,0.8011876807878356,0.9133359701548037,0.0,0.0,0.0,0.0
0.02867442556165929,-0.09354264651978629,0.7455789657744891,0.0028539287139781556,-0.5252036593552876,-0.0029040936925068604,0.8509668251644924,0.04302934110315051,-0.8543210751720008,1.0451124293512666,-0.016900893373609525,-0.9251721837851896,0.8779032279857627,-0.0016864551965257843,0.6383119209430824,1.1709997260541907,0.08877079670552304,0.7981395713973457,0.9197450416955985,0.0,0.0,0.0,0.0
0.02826981888315762,-0.09398149429869421,0.7450979115354545,0.002795463731451056,-0.5250407506344704,-0.0028627533760176163,0.8510676825017068,0.04411630052765641,-0.854170010986378,1.0416960410257516,-0.020050427781718366,-0.9145879492554132,0.8803041128303306,-0.009384005425575534,0.6433648507443707,1.1576351221341366,0.09331735233549708,0.7946363263460615,0.9263205081718195,0.0,0.0,0.0,0.0
0.027693488195403897,-0.09444305799163029,0.7446386349424681,0.0027298651323193765,-0.5248545835248236,-0.0028112654068806853,0.8511828891467188,0.04522307921128351,-0.8532953788721119,1.0368117253689724,-0.023010817578835493,-0.9040457878918299,0.8821956172818208,-0.01711349992721474,0.6482079613220525,1.1441373103608665,0.09803241483948286,0.7906453596226753,0.9329499834429286,0.0,0.0,0.0,0.0
0.026895268618166747,-0.09495254075405737,0.7442217560758826,0.0026544770682655743,-0.5246363376163639,-0.0027469054567676537,0.8513178733671661,0.04640262026645771,-0.8513972448631781,1.0299361459374305,-0.025756231743067345,-0.893551401296244,0.8836049629888764,-0.024906336172772957,0.6527295322504891,1.1305355905022787,0.10310044963825969,0.7860939082223052,0.9395725412331806,0.0,0.0,0.0,0.0
0.025824070593522187,-0.09553920621967457,0.7438636952956584,0.0025652222010664077,-0.5243750458226777,-0.00266566386484116,0.8514793744945813,0.0477153417675406,-0.8481802729104517,1.0205223992792205,-0.028284755300036414,-0.8831013647508674,0.8845957073315048,-0.03285947524239853,0.6568448844923249,1.1168585853039543,0.10874546615579359,0.7808872288979409,0.9461711126605424,0.0,0.0,0.0,0.0
0.024435524793408485,-0.09623410866334174,0.7435738272537418,0.002455524844449753,-0.5240580955164257,-0.0025613100477752293,0.8516751273885332,0.04922190835855144,-0.843396176298845,1.0080669929217698,-0.03064891733168466,-0.8727018084081033,0.8852888108836653,-0.041208016417858734,0.6605081331772384,1.1031834908286855,0.11522715953464543,0.7749260477728529,0.9527761914673051,0.0,0.0,0.0,0.0
0.022704716560415707,-0.09706401047720926,0.7433490996150945,0.002314363036054302,-0.5236720157722804,-0.0024232894473699453,0.8519133707654717,0.05096440167832522,-0.8369287821853545,0.9922423261593781,-0.03298256625741952,-0.8623672360011889,0.8859008376466806,-0.05046248110264133,0.6637507846014968,1.0897010493118486,0.12282582103570899,0.7681311072291909,0.9594763820215152,0.0,0.0,0.0,0.0
0.020647111409993955,-0.0980393778141969,0.7431661589725919,0.002123004877209376,-0.5232034774933532,-0.0022326947938997024,0.8522022231038305,0.052929807480619775,-0.8289493391955718,0.9731445216599717,-0.03550690538871851,-0.852121545871478,0.8867865436115137,-0.06166311312152607,0.6667820665521318,1.0768221625865542,0.13181619695973384,0.7604864162808722,0.9664289324396218,0.0,0.0,0.0,0.0
0.01835156705426677,-0.0991334758663901,0.7429716484013542,0.0018496075348560577,-0.5226391516446235,-0.001954964078591218,0.8525497488332318,0.054987084196506976,-0.8201909377966641,0.9517402302868626,-0.03849298243591963,-0.8420302671430184,0.8884426960661065,-0.07684485250227827,0.6702106992257794,1.0653439086927792,0.14243579575122572,0.7521160032372574,0.9738562892071906,0.0,0.0,0.0,0.0
0.01602846642928672,-0.10024524435437066,0.7426721191678324,0.0014391450177075953,-0.5219391220096142,-0.0015254178240435277,0.8529801608935069,0.05677561424360328,-0.8125517552560307,0.9307609932424206,-0.042220800525792884,-0.8322543799236877,0.8911505149329847,-0.09985855120450168,0.6754720528139935,1.0564669342894266,0.15481039878473105,0.7433344555319595,0.9819559905450641,0.0,0.0,0.0,0.0
0.01409186715836088,-0.1011661611349121,0.7422101288025361,0.0008246138656495765,-0.5210344299539783,-0.0008525330431914775,0.8535348358455651,0.05763385332626459,-0.8094425380483111,0.9157182947184371,-0.04700743123902163,-0.8235322055801653,0.8945105075314552,-0.13596867507628407,0.684398074195343,1.0517219396381214,0.16867283768749117,0.7352119623556302,0.9900269268820958,0.0,0.0,0.0,0.0
0.012843634341154764,-0.10179014696106986,0.7417732599800946,9.430484429003137e-05,-0.5200801100748159,2.4300074030765345e-05,0.8541174799877768,0.05734725158281117,-0.811113659818801,0.9089937495551328,-0.05158044541330592,-0.819380824539597,0.8993115385227802,-0.1808602055348631,0.6940800905129606,1.0530243850175935,0.18274310596942403,0.729783339468896,0.995983714378639,0.0,0.0,0.0,0.0
0.012846142848096329,-0.10179807634073641,0.7417566071603031,6.087972688016387e-05,-0.5200727172477086,4.289894997671857e-05,0.8541219838102305,0.057329107355020476,-0.8111507920185305,0.9089066563550376,-0.05159916908257213,-0.8193782470611564,0.8993210375601817,-0.18086330400762018,0.6940984112186233,1.0530309672209177,0.1827641134614942,0.7297120595624568,0.9959321090590211,0.0,0.0,0.0,0.0
0.012846142848096329,-0.10179807634073641,0.7417566071603031,6.087972688016387e-05,-0.5200727172477086,4.289894997671857e-05,0.8541219838102305,0.057329107355020476,-0.8111507920185305,0.9089066563550376,-0.05159916908257213,-0.8193782470611564,0.8993210375601817,-0.18086330400762018,0.6940984112186233,1.0530309672209177,0.1827641134614942,0.7297120595624568,0.9959321090590211,0.0,0.0,0.0,0.0
0.01273876258468411,-0.10196561743328106,0.7416547123938073,-1.3203113849181138e-05,-0.5204343334257858,9.583122855332386e-05,0.8539016894430596,0.05760177039328333,-0.8085498166257634,0.905383601927655,-0.05121739659591263,-0.8172735398204395,0.8968995960376956,-0.17925255918114147,0.6941314887852486,1.054228229744497,0.18572533750714423,0.7305365669565004,0.9981633260270382,0.0,0.0,0.0,0.0
0.013136509087533324,-0.10213325758466578,0.7415016232319166,-3.1443196127130186e-05,-0.5207428953343124,9.753511589287836e-05,0.8537135505877038,0.058052951806137905,-0.8087690663420276,0.907008979703625,-0.05080205504638665,-0.8183726944965845,0.8999514325610648,-0.17904628067803643,0.6957666100112375,1.0552842120622297,0.18861270725099408,0.7325340492076658,1.000191116607878,0.0,0.0,0.0,0.0
0.014140866258156592,-0.1022495317184672,0.7413671137535617,6.051099690380699e-05,-0.5212015458922059,-7.730375971281818e-05,0.8534336171736632,0.058835022975491966,-0.810727443123459,0.9134878829236818,-0.050159924561124884,-0.8219309929994628,0.9082276694251615,-0.1827045418483313,0.7009174866565633,1.0560926004993607,0.19011094043029594,0.7366126851022421,1.0013758654960354,0.0,0.0,0.0,0.0
0.015815025471685795,-0.10234425067982961,0.741362443057525,0.0003407338451268104,-0.521998628359177,-0.0005996218745613085,0.8529460453892685,0.06040619416316794,-0.8127210264496553,0.9236477489642254,-0.04877948658871473,-0.8272341909172761,0.9214444558798784,-0.19275740537046493,0.7117023452641138,1.0559484017990561,0.18884753358618842,0.7435903800651565,1.0008734260329466,0.0,0.0,0.0,0.0
0.01821128134899996,-0.10259114921000609,0.7418113744695694,0.0008145321906123209,-0.5232169340504775,-0.0015464368043422506,0.852197738200084,0.06337592009718675,-0.8127818616571822,0.9360576077931196,-0.045993196654790465,-0.8335000225034663,0.9397839163878042,-0.2094974260401545,0.7304267269846386,1.051509961050542,0.1853914035253574,0.7553211611978523,0.9960809505084746,0.0,0.0,0.0,0.0
0.02008581569038316,-0.10398529708133442,0.7428022437052016,-0.0006754852098655125,-0.5223595705358666,0.0008644517894761742,0.8527246188028231,0.055823387621046244,-0.815467254583866,0.9197018129640749,-0.04823334909691458,-0.8414303515252363,0.9611104656624364,-0.1626571211103548,0.7260543152070382,1.033018825204257,0.145610010984357,0.7276431954344507,1.0137872745313046,0.0,0.0,0.0,0.0
0.022132406487536206,-0.10510128352542548,0.7437361313843579,-0.0015606935173455663,-0.5223650472677384,0.002094214346712783,0.8527179697267956,0.04904629331167674,-0.8213505616696859,0.9094458485906521,-0.04826471035183505,-0.8472261168026357,0.9799745326720499,-0.13850801364306772,0.7311033893835054,1.017450527003002,0.10903418017852767,0.7084445595974186,1.0286408671775422,0.0,0.0,0.0,0.0
0.02411372387080756,-0.10586462315981532,0.7444750062394028,-0.0018733467699831358,-0.5228748736755761,0.002358759011745666,0.8524041255804399,0.04413145652357158,-0.8297020550493035,0.9049139204429272,-0.04688520534061357,-0.8518838497975435,0.9960402239266325,-0.13048829879001292,0.7410976293981438,1.0062193560660655,0.08272096762834114,0.6971750630449537,1.042544415070618,0.0,0.0,0.0,0.0
0.025832563167542875,-0.10643520577412453,0.7450590576596674,-0.0019814237786625758,-0.5234403884204156,0.0023349712739323143,0.8520567948436558,0.040411108116700734,-0.839517142339387,0.9029008774272163,-0.045327662840849374,-0.8557250999753068,1.0093574506578773,-0.12748357306531696,0.7510435931902671,0.9975466047048914,0.06454010479681391,0.6899722232275807,1.0560777065857139,0.0,0.0,0.0,0.0
0.02722229907885251,-0.10692404555226553,0.7455747745643027,-0.002056142011796174,-0.5239096625810777,0.0023058511939263644,0.8517682318474199,0.0373544765927682,-0.8498745004797492,0.9017461403172384,-0.04396999294655117,-0.8586412876248177,1.0199979925643046,-0.12477368904109425,0.7593340863383767,0.9899615962707686,0.051256559399115297,0.6844792624296898,1.0693931229575528,0.0,0.0,0.0,0.0
0.028286890660241946,-0.10739094653882135,0.7460833496822099,-0.002151431282757398,-0.5242544361467543,0.0023492682058621245,0.8515557165933308,0.03456002747174286,-0.86031427869517,0.9007044357685305,-0.04283267294456089,-0.8605964083331772,1.02820543979033,-0.12072985455251423,0.7657320698994644,0.9826473700914046,0.04073439486297221,0.6795122911897816,1.0825419519708317,0.0,0.0,0.0,0.0
0.02906711737633516,-0.10785509996114594,0.7466138388583632,-0.0022621781825969845,-0.5245073580852597,0.0024419714366685176,0.8513994072348147,0.03179238361783788,-0.8706647049613615,0.8995153746100862,-0.04180513039027244,-0.8616176229022007,1.0342812985985268,-0.115558627351397,0.770683066287702,0.9753200185803146,0.0316986402825354,0.6746054714969966,1.0955674502124797,0.0,0.0,0.0,0.0
0.029620089418036916,-0.10831299359704823,0.7471749969540844,-0.002357849661687094,-0.5247283019022922,0.002517431657634123,0.8512627750968316,0.02899519637001309,-0.8808422987792873,0.8981593586939307,-0.04073654815638377,-0.8617580484138253,1.0385307642299395,-0.11038058169965007,0.7749402382069095,0.9679951174461606,0.02326939876427336,0.6696507161010447,1.1085208174019554,0.0,0.0,0.0,0.0
0.02999117032070208,-0.10878417803966602,0.7477574702048773,-0.0024601010073808,-0.5248967031284769,0.0026155742387781035,0.8511583623035671,0.026022917002691097,-0.8910077434255699,0.896394785535726,-0.03967727747401143,-0.8613132715206159,1.0414686205885828,-0.10453656963365353,0.7783724643470192,0.9605565512679372,0.015384347438094552,0.6644710639260364,1.1214250148480096,0.0,0.0,0.0,0.0
0.030232070483618062,-0.10926192320013557,0.748351980532888,-0.0025519246052126397,-0.5250455070947049,0.0027012963468927044,0.8510660410088748,0.02293041886811016,-0.9011745550913738,0.8942583311310813,-0.038564181845157516,-0.8604246065421206,1.043423440023383,-0.09870540648414401,0.7814124194953567,0.9531188360351692,0.007708325746880809,0.6591164793567676,1.1343192355938854,0.0,0.0,0.0,0.0
0.030384868380432774,-0.10974289389944651,0.7489446338672844,-0.0026283235053738896,-0.525188353681359,0.002763862813471415,0.8509774651160648,0.01975037127127705,-0.9113979429469913,0.8917544365651281,-0.03738459380728748,-0.8592604950698262,1.0447109291177898,-0.09314106239508195,0.7842506286615544,0.9457909065028343,0.00011100298623637796,0.6536454502022865,1.14722357908134,0.0,0.0,0.0,0.0
0.030481332438752912,-0.11022931434064007,0.7495205332733899,-0.0026928932964025445,-0.5253244012725207,0.0028095739965445367,0.850893135503701,0.016489918480431263,-0.9217142439777124,0.8888509912873357,-0.03615169951163166,-0.8579996696285428,1.0456225056454553,-0.08777057374671005,0.7868983289263514,0.938651671510335,-0.007429015177755138,0.6481125443576894,1.1601148923762101,0.0,0.0,0.0,0.0
0.030544285365255535,-0.11072399995833523,0.7500630178121585,-0.0027456304278207443,-0.5254552519543481,0.002837993834216739,0.8508120741374933,0.013157060391723364,-0.932053721546668,0.8855642505180057,-0.03486012440787285,-0.856792817220405,1.046379006310149,-0.08259854107541093,0.7893590215362407,0.9318228499000768,-0.014942380268600522,0.6426049079035828,1.1728944384344007,0.0,0.0,0.0,0.0
0.03058552379057479,-0.11123165741995358,0.7505507102729005,-0.0027819071848295455,-0.5255855936090081,0.0028404845194250996,0.850731436136444,0.009760519175532953,-0.9421524741404282,0.8820063792129582,-0.0334795997361493,-0.8557668877079402,1.0471220092274451,-0.07771646771453614,0.7916136179197686,0.9255009116772004,-0.022462826763100345,0.6372340918157791,1.185312494224179,0.0,0.0,0.0,0.0
0.03060067274603338,-0.1117649090735449,0.7509545383667133,-0.0028000192166770686,-0.5257121104053061,0.0028155055485512607,0.8506532841258485,0.0062951859542317214,-0.9514553396751453,0.8784138693718113,-0.03197609477207291,-0.855051851568241,1.0479249627435272,-0.07303515678896627,0.7934806393442234,0.9199414481290032,-0.029925416862276108,0.6321045834788022,1.196830192749108,0.0,0.0,0.0,0.0
0.030563763308656025,-0.1123467856597535,0.7512338350830957,-0.0028085826552449377,-0.5258135859769709,0.002783544085975012,0.8505906398190781,0.0027258632102008912,-0.9590628408580274,0.8752033683394644,-0.030340663927914208,-0.8547958273943345,1.048785413368793,-0.06807016310294065,0.7944861938638716,0.915464770116176,-0.03700128328064346,0.6273484636544557,1.2064048505189209,0.0,0.0,0.0,0.0
0.030434169132203908,-0.11299020226682711,0.7513403890133782,-0.0027964442399742544,-0.5258931486915647,0.00273035511225111,0.850541663423871,-0.000874038580440072,-0.9636899712309897,0.8731711148534008,-0.028508390279782202,-0.8550370053286739,1.0494926045091648,-0.0629322399703559,0.7943098485893646,0.9126049858401262,-0.04331557091926118,0.6234069946277649,1.2122032011592134,0.0,0.0,0.0,0.0
0.030169063830376004,-0.11370234343015581,0.7512372044677202,-0.0027478660429765965,-0.5259605991553525,0.0026367552858606717,0.8505004085183704,-0.00438683446597583,-0.9641544936522903,0.873226705235073,-0.02641818232201034,-0.855729524474722,1.049754372056825,-0.05786112635827362,0.7927289880394183,0.911825549605949,-0.048294851221364454,0.6213580273575039,1.2113812709296659,0.0,0.0,0.0,0.0
0.02974636900156446,-0.11449929283582654,0.7509202177186824,-0.00265617232954603,-0.5260201469399798,0.002493799589954821,0.8504643030282947,-0.007746241455977731,-0.9604411126282897,0.8753339370080933,-0.024006861503082635,-0.856823699891975,1.049434388189052,-0.052844923767857405,0.7896825473409237,0.9131652832498578,-0.051913390201768786,0.6212117691630478,1.2039593137517552,0.0,0.0,0.0,0.0
0.029164596736529057,-0.11540957364794957,0.7504193543315881,-0.0025279333574951455,-0.5260648761240012,0.0023102142846186677,0.8504375453679938,-0.01097195119502768,-0.9537214582876135,0.8785192263316106,-0.021217048538074962,-0.8582813777423972,1.0485742974252255,-0.04749946224933812,0.7852310633156968,0.9161905696160064,-0.054660141122332084,0.6218944027347227,1.1928053937660414,0.0,0.0,0.0,0.0
0.028420829230194164,-0.11645712969536288,0.7497803833373907,-0.002361591681654559,-0.5260993813594202,0.002082394758851381,0.8504172666697406,-0.014034878488924978,-0.9452317406689276,0.8819522602242107,-0.017974413101139397,-0.859958024160045,1.0471219095733406,-0.04167245670337376,0.7796134699215896,0.9203506803494241,-0.05689891902386477,0.6229557463259756,1.179764427577494,0.0,0.0,0.0,0.0
0.027492952369322244,-0.11766871977777045,0.7490447151191395,-0.002156253863244247,-0.5261246572635838,0.0018109843035593065,0.8504027962820947,-0.016876272575986267,-0.9358729757506555,0.8850753082935444,-0.014208737037483956,-0.8616538679386669,1.0448834794402497,-0.03515093259501997,0.7729580559337812,0.9251476208298519,-0.05875139359218495,0.6241809573062328,1.1658668735281341,0.0,0.0,0.0,0.0
0.02634024283754751,-0.11907746150757731,0.7482463363734102,-0.0019172019929243392,-0.5261312940293817,0.001509902319449199,0.8503998506434912,-0.019440089122180305,-0.9261711907596422,0.8875489333929739,-0.00986689027128559,-0.8631477627669923,1.0415599402691857,-0.027527384331407084,0.7652118035505703,0.9301313156301896,-0.06015331179951043,0.6254016938065223,1.1516280376732841,0.0,0.0,0.0,0.0
0.024911098432659446,-0.1207179186401559,0.7474131685037999,-0.0016550186408808194,-0.5261028336712867,0.0012025925939807875,0.8504184987918558,-0.021690805320056773,-0.9163759722394872,0.8891824151159403,-0.004917637221795597,-0.8642005026248089,1.0367761507310993,-0.018318802547143152,0.7562141956649586,0.9348937411103644,-0.06096406127873771,0.6264595020764757,1.1372634847777707,0.0,0.0,0.0,0.0
0.023151894569081358,-0.12261593130094284,0.7465679469617359,-0.0013825248778849442,-0.526022947372695,0.0009139138934235296,0.8504687602867611,-0.02362430896470341,-0.9065867299662114,0.8898914367370974,0.0006403300688460649,-0.8645412546559461,1.03008941597419,-0.007180497695473539,0.7458074089286253,0.9390935634031866,-0.061065507304537595,0.6272217533869189,1.1228262052242095,0.0,0.0,0.0,0.0
0.021015377928614593,-0.1247766948213398,0.745728244053649,-0.0011115561655094198,-0.52588282144294,0.0006618658574717778,0.8505560442955482,-0.02527386883302621,-0.8968515368719566,0.8896903103814826,0.006766586187186452,-0.8638503061680995,1.0209888338835633,0.005893247580869999,0.7339356021448407,0.9424984485296272,-0.060447936723838205,0.6275978245505585,1.1082864691199796,0.0,0.0,0.0,0.0
0.01846821115534538,-0.12717642587392852,0.7449067182493747,-0.0008549456801996945,-0.5256807493642154,0.00045973809770231754,0.8506813783412932,-0.026729269924414628,-0.8872308712918494,0.8886833093196074,0.013352579658138693,-0.8617673572398908,1.0089242323451526,0.020573413394683705,0.720658196757169,0.9449958974272596,-0.05923360804258795,0.6275281763089846,1.0935722374417716,0.0,0.0,0.0,0.0
0.015499890169097072,-0.12975658172683935,0.7441104654678189,-0.0006298422272514719,-0.5254186475602979,0.0003218546386655761,0.8508435487821882,-0.02815563424164041,-0.8778164962709594,0.8870676285697924,0.02019480417683523,-0.8579297963714413,0.9933741438872702,0.03629375918625295,0.7061229562845326,0.9466023627990751,-0.057670342737795935,0.6269666110543052,1.0785903372638739,0.0,0.0,0.0,0.0
0.012137977419670706,-0.13241394852087723,0.7433345419399142,-0.0004476956815886191,-0.5251133841828821,0.00024595720473104553,0.8510321220880155,-0.029749212167075118,-0.868682788859118,0.8852362591708075,0.027015174866346386,-0.8520246044198209,0.9739362535685978,0.05208912501984771,0.6906425614737064,0.9476023581740164,-0.056284078713177414,0.6258995137021174,1.0632522955632533,0.0,0.0,0.0,0.0
0.008468177689178832,-0.1350051594110497,0.7425490224165663,-0.00031639248550450517,-0.5247867806251869,0.00022534266085555679,0.8512336248043378,-0.031702325384530966,-0.8598327565229428,0.8837732878351591,0.033450718870630405,-0.8439869905784373,0.9506071618060999,0.06688945307714497,0.674552700041827,0.9486420043793463,-0.055856071813819276,0.6243855780366441,1.047504564445624,0.0,0.0,0.0,0.0
0.004657377502383419,-0.13736183228232754,0.7416688355401977,-0.00023492036218869468,-0.5244633828782139,0.00024761022459262363,0.8514329354221272,-0.03429363796981717,-0.8511711133014841,0.8833771577329952,0.03910705005655864,-0.8343014267658865,0.9241765432811999,0.07968092354965679,0.6580640364828906,0.9509812881296112,-0.057610827651173126,0.6227078266812519,1.0313317043221555,0.0,0.0,0.0,0.0
0.0012269598118005874,-0.13943092334304813,0.7405399779550167,-0.00015241117117365625,-0.5241018454008722,0.00022127107429928235,0.8516555544686754,-0.03730190029823978,-0.8418647210832559,0.8832357263395618,0.04413599652261574,-0.8263770464840456,0.9000320502909354,0.0898160375294478,0.6419622091357405,0.9558151928731099,-0.06357377178128762,0.6220427501067326,1.0145395769236916,0.0,0.0,0.0,0.0
-0.0015509880251799069,-0.14094302383605847,0.7392497824462528,-4.3748338928313985e-05,-0.5238149978969805,0.0001015232107745679,0.8518320466836798,-0.04068564108380481,-0.8336066603616935,0.8844078931230994,0.04801015527373839,-0.8204296581505552,0.8797072035752067,0.09588704065150282,0.6276431513646082,0.9635895260463644,-0.07630637970495689,0.6215662042657008,0.9971684145335605,0.0,0.0,0.0,0.0
-0.0032585511251572814,-0.14171425234733512,0.7380844775698446,7.614738193382684e-05,-0.5236344057542358,-6.200197773758746e-05,0.8519430729031954,-0.043384809217386675,-0.8288574667394984,0.8864945304299109,0.0502025120809273,-0.817455736399906,0.8667753054241841,0.09779727989487418,0.6173974978744294,0.972250384928394,-0.09406832591893806,0.621208968500322,0.9805052086083769,0.0,0.0,0.0,0.0
-0.003275094836160523,-0.14182191595525867,0.7380214080509194,0.0001597488191930249,-0.5236407672427961,-5.06064804451683e-05,0.8519391520529355,-0.0433885222569579,-0.8288792529432556,0.8865040692007463,0.05036873644013434,-0.8175306096209269,0.8666015536551254,0.09781334019387042,0.6173121800439481,0.9721726720812365,-0.09408371593639654,0.6212410228113262,0.9805129596288521,0.0,0.0,0.0,0.0
-0.003275094836160523,-0.14182191595525867,0.7380214080509194,0.0001597488191930249,-0.5236407672427961,-5.06064804451683e-05,0.8519391520529355,-0.0433885222569579,-0.8288792529432556,0.8865040692007463,0.05036873644013434,-0.8175306096209269,0.8666015536551254,0.09781334019387042,0.6173121800439481,0.9721726720812365,-0.09408371593639654,0.6212410228113262,0.9805129596288521,0.0,0.0,0.0,0.0
-0.003275094836160523,-0.14182191595525867,0.7380214080509194,0.0001597488191930249,-0.5236407672427961,-5.06064804451683e-05,0.8519391520529355,-0.0433885222569579,-0.8288792529432556,0.8865040692007463,0.05036873644013434,-0.8175306096209269,0.8666015536551254,0.09781334019387042,0.6173121800439481,0.9721726720812365,-0.09408371593639654,0.6212410228113262,0.9805129596288521,0.0,0.0,0.0,0.0
-0.002567562317773064,-0.14211160646551751,0.7379059148130636,0.00011037104823154722,-0.5238992697606668,0.00013851657102984064,0.8517802086076146,-0.04318986585837957,-0.8311650386730001,0.8916454046943104,0.05065863281046255,-0.8203397918693286,0.8731355494824977,0.10138515666842879,0.6187531064494647,0.971733101724516,-0.09159438277815427,0.6237292431645092,0.9828771304869979,0.0,0.0,0.0,0.0
-0.0011844560109659456,-0.14252234404163328,0.7377603035373373,0.00012358218386962204,-0.5242545092922629,0.00022246261405931968,0.8515615918561369,-0.04248637608568451,-0.8360814024716152,0.9025573137752171,0.051583671494660505,-0.8268741200190586,0.886820916635602,0.10531231149223827,0.6223286305098397,0.97097297240834,-0.08968009805852337,0.6278751227761823,0.9854284703862037,0.0,0.0,0.0,0.0
0.0008575675469132795,-0.14317472557123354,0.7376190197872338,0.00022307120378187547,-0.5247146171886211,0.00017464223210047382,0.8512781509283129,-0.04090070478142195,-0.8429411249560235,0.9183110400354123,0.05351040618881813,-0.8369904266507394,0.9074544195478763,0.11007696992235513,0.6283101921557461,0.9690482629528249,-0.08786807513446127,0.6338120457807608,0.9882166846539501,0.0,0.0,0.0,0.0
0.003582054351567646,-0.1443008392737197,0.7376759583556208,0.00045795930341253693,-0.5252835834894493,-8.363623710030201e-05,0.8509271062757015,-0.03763002030259858,-0.8504145980489781,0.9376945690692438,0.05722773846544799,-0.8505458482125214,0.9353567677266665,0.11641318391630416,0.6380219389635917,0.9632033241127432,-0.08538655025100912,0.6424726235865617,0.9901043289480177,0.0,0.0,0.0,0.0
0.007189906986104202,-0.14626326102245113,0.7387651727311358,0.0009525567222458662,-0.526112703179418,-0.0008373533947046866,0.8504139080637315,-0.0309785135910583,-0.8545002616454924,0.958868661980828,0.06436576109270732,-0.8658903700703997,0.9713589197461093,0.12436622105512049,0.6574630533106365,0.9445436485466078,-0.08230472820417789,0.6582643073716791,0.984435896109787,0.0,0.0,0.0,0.0
0.010296237925956539,-0.14794402257382178,0.7400488553539247,0.0008614613386723812,-0.525702469299007,-0.0005676591083359701,0.8506678843240911,-0.027504763980276,-0.8648836981180715,0.9832834536349044,0.05773950549917007,-0.8534489997817781,0.9398254870003884,0.09883423052631549,0.6510391989739571,0.9783841604871122,-0.06952455140803043,0.6744131615365633,0.974800401124834,0.0,0.0,0.0,0.0
0.013420038702736533,-0.14981472952703326,0.7412369492023022,0.0009151899831597208,-0.5255285876483686,-0.0005984243373381433,0.8507752393434579,-0.02273272473143297,-0.8727835906081898,1.0048692749920798,0.051526562244947116,-0.8506704900184895,0.9204713577165705,0.07810817346762378,0.6476860908801404,1.0057555643270024,-0.05781506561446209,0.6900840076964901,0.9664099856498043,0.0,0.0,0.0,0.0
0.016334839349952883,-0.15176481412704876,0.742334945533697,0.0010938449067485932,-0.5255250768574214,-0.0007948010869695692,0.8507770362371997,-0.01730201741790572,-0.8780152661293811,1.0225762861093695,0.04637260357788439,-0.8539099655673235,0.9097137034262637,0.06563969278180722,0.645275517468466,1.027744060541298,-0.046935700223174726,0.7048056940437178,0.9591398792834538,0.0,0.0,0.0,0.0
0.01889701051037279,-0.15371270036748272,0.7433710056295726,0.0013308986048026499,-0.5255875459364134,-0.0010563232531082924,0.8507378235664775,-0.011675923673236482,-0.8809622622588823,1.0363004851034059,0.04228313949376308,-0.8602587754739752,0.9037021111892879,0.058816105546977734,0.6431308617860095,1.0463290933760465,-0.03636208754985727,0.7183087515010915,0.952624075667793,0.0,0.0,0.0,0.0
0.021055839180002138,-0.1556027904384709,0.7443606271135969,0.00158023448050395,-0.5256613624318515,-0.001325665195227002,0.8506914114513361,-0.0061491196764878325,-0.8820498208338725,1.0463534846412794,0.03902694680145143,-0.8681099040316036,0.9001375192650192,0.055147135323253,0.6410576466413054,1.0628639445507482,-0.025858654286285608,0.7305000413426261,0.9466557332923035,0.0,0.0,0.0,0.0
0.022821162726163566,-0.15739778702783142,0.7453121475795406,0.001817615468748997,-0.5257239461917731,-0.0015765014268217835,0.8506518343704482,-0.000894982235927916,-0.8816780574514477,1.0532543692111322,0.03629477668283676,-0.8766352238939555,0.8976851395388303,0.053065652576401764,0.6389456607387994,1.0782030821905466,-0.015446452900103227,0.7414062499358801,0.9410913191003394,0.0,0.0,0.0,0.0
0.024236504789125927,-0.15907545230694595,0.7462308368107452,0.002032597362933042,-0.5257692924073493,-0.0017999185914538555,0.8506228776623043,0.003996268101962054,-0.8802045762823274,1.057597682623654,0.033804066380305996,-0.8854338695257945,0.8955872953462348,0.05169489565748838,0.636715343511801,1.0928797105084789,-0.005266569395444986,0.7511354852716201,0.935808418598296,0.0,0.0,0.0,0.0
0.02536008071636988,-0.16062602504913465,0.7471199797606979,0.0022222056443245938,-0.5257986977991032,-0.001995592617279786,0.8506037907304126,0.008490973686283609,-0.8779395208872552,1.0599697729205642,0.03134414088797326,-0.8943299872755005,0.8934316162817484,0.05056087835683155,0.6343230185714492,1.1072285213234623,0.004523405075063425,0.759839138515488,0.9307054376025493,0.0,0.0,0.0,0.0
0.02625278130909093,-0.16204931698242148,0.7479810715634791,0.0023872678837081624,-0.5258158702670308,-0.002166966818631066,0.8505923087955729,0.0125928240831234,-0.8751452697554456,1.0609020023399076,0.028780626671132764,-0.9032631636387853,0.891006591111707,0.04941027659557673,0.6317644160503633,1.1214598039485577,0.013801925962296365,0.7676810583542425,0.9257088664044852,0.0,0.0,0.0,0.0
0.026971460002886208,-0.16335165945904384,0.7488138571400693,0.0025304402822494587,-0.5258246644942534,-0.002318757650845832,0.8505860582236464,0.016328137345085578,-0.8720396585399552,1.0608507241255618,0.026041361155665563,-0.9122312351139867,0.8882108032407727,0.04811307730792325,0.6290728735169911,1.1357013973729868,0.02249901431834305,0.774816616177124,0.9207771222157581,0.0,0.0,0.0,0.0
0.027565737652968887,-0.1645430153397013,0.7496161114799523,0.002655128283508589,-0.5258281765295324,-0.0024556669420969755,0.8505831227818329,0.019734341116264854,-0.8688028385039446,1.060194792351258,0.023099211604289998,-0.9212556556614886,0.8849983669439508,0.04661231324834316,0.6263159828271903,1.150018345264707,0.030591112869585713,0.7813788323107104,0.9159023986219321,0.0,0.0,0.0,0.0
0.028076673170068355,-0.16563445954410524,0.7503828730001258,0.0027648308793055128,-0.5258284091451925,-0.0025816603926865924,0.8505822563842146,0.022850971813006108,-0.8655869959593553,1.0592418307364668,0.01995905788103894,-0.9303450573476081,0.8813534114271288,0.04489566616414984,0.6235915435818707,1.1644118770084617,0.03808760513849599,0.7874668420854427,0.9111154942302176,0.0,0.0,0.0,0.0
0.028535784307094747,-0.16663615124820239,0.7511049091913345,0.002862613655651989,-0.5258260639467934,-0.0026994517659392403,0.8505830170403383,0.025712772443999565,-0.8625266996480323,1.0582341811356206,0.016649745934228317,-0.9394361133533976,0.8772944502548429,0.04297309451039393,0.6210205513049833,1.1787911870375751,0.04501729385566663,0.7931317485017845,0.9064986643882741,0.0,0.0,0.0,0.0
0.02896308213473149,-0.167555947447927,0.7517663817535327,0.002950468738012434,-0.5258202488962752,-0.002809989726227091,0.8505859536476156,0.028344804959405712,-0.8597462490097437,1.057345164004372,0.013217020610651792,-0.9482975165193643,0.8729146934300466,0.04084781392400061,0.6187355132945298,1.1929031326405686,0.05142075554080515,0.7983559453707464,0.9022100152547811,0.0,0.0,0.0,0.0
0.029363375996015614,-0.1683989483469789,0.7523421092572689,0.0030283760882342543,-0.5258080786573375,-0.002911876839336638,0.8505928604980293,0.030760108764710564,-0.8573597942062385,1.0566587513974122,0.009710568975658678,-0.9564023648089792,0.86846259967531,0.03846866496770867,0.616872243710715,1.2061975639636173,0.057353360415429995,0.8030260442399103,0.898518233349669,0.0,0.0,0.0,0.0
0.02972192220659079,-0.1691684538768023,0.7527959348368444,0.003093097737795111,-0.5257843213516008,-0.0030008844121187073,0.8506070037684654,0.032961412816006105,-0.8554617627961806,1.0561369855449685,0.006160536137191117,-0.9628202122554865,0.8644477236005398,0.03565751765793727,0.6156015722063882,1.2176038326566399,0.06290174910351959,0.8069111145448087,0.89583223356612,0.0,0.0,0.0,0.0
0.030004853659852736,-0.16986869657912734,0.7530845779534256,0.0031374609372279557,-0.5257416560326478,-0.0030702387061239097,0.8506329649650334,0.03494908137433557,-0.8541096985875609,1.0556080974454654,0.002553098279242183,-0.9662653604672963,0.8617035458366412,0.03203323010279704,0.6152912977461422,1.2252116456560393,0.06820691846267374,0.8096865013670275,0.8946719003356214,0.0,0.0,0.0,0.0
0.030177306383720844,-0.17050790469847094,0.7531770859532815,0.003153436514109258,-0.5256749421382725,-0.0031147006093564023,0.850673973791481,0.03673725661529201,-0.8532942066836895,1.0548477294917125,-0.001148679839822122,-0.9655584901790418,0.8612348626368359,0.027049641137986073,0.6168875865606703,1.2260511468065618,0.07343472013691474,0.8110940095780751,0.8954494730998199,0.0,0.0,0.0,0.0
0.030232056922012092,-0.17109057734546146,0.7530745841257929,0.0031417987369134247,-0.5255840289375835,-0.003134442622630239,0.8507301175436776,0.038337595784119244,-0.8529733970141424,1.0537820352401537,-0.004908713704464515,-0.9606962536249288,0.8630142939352408,0.020729576299434404,0.6203406855457242,1.220100248074703,0.07860581867524942,0.8111153157563755,0.8981831187512136,0.0,0.0,0.0,0.0
0.030190484869105094,-0.17161945002431495,0.7528112664305877,0.0031119669267828808,-0.5254730303374217,-0.003134811068004922,0.8507987911424307,0.03976408731019927,-0.8530720745804834,1.0524892795636356,-0.00861810066459178,-0.9528602526724974,0.8660135488647285,0.013646719552659387,0.6246353681979714,1.2102814063082774,0.08361587064352786,0.8099824271843422,0.9024884628100216,0.0,0.0,0.0,0.0
0.03007379649888484,-0.17210477216374692,0.7524361702818286,0.0030723033830589177,-0.5253471231089322,-0.0031223877872840824,0.8508767313116493,0.04105299745264891,-0.8534390681352786,1.050987806864485,-0.01219899418861051,-0.9433353209588073,0.8693908655814074,0.006203444102340091,0.6293630172945202,1.1984623513428287,0.08842061539048168,0.8080121946440726,0.9078538485304908,0.0,0.0,0.0,0.0
0.029883881223161927,-0.17256151653050686,0.7519941972970038,0.003027278790262612,-0.5252085318982526,-0.0031012999229425428,0.8509625229956935,0.042247785256539674,-0.8538696965294266,1.0491440253699693,-0.015624630038185983,-0.9330435713764378,0.8726285423511401,-0.0013915321759720588,0.6343252303321071,1.1856756225707417,0.09305846087906264,0.8054406143315137,0.9138608691193996,0.0,0.0,0.0,0.0
0.029602417666369424,-0.1730072208761844,0.7515220785782298,0.0029783250232863923,-0.5250562307632887,-0.0030731951332489795,0.8510567781225744,0.043392911780016905,-0.8541207701747572,1.046679342285036,-0.018887295296148653,-0.9225020648990006,0.8754715035485233,-0.00904732756313078,0.6393660180883434,1.1724375755296381,0.09762174689627091,0.8023926727072898,0.9202196710956261,0.0,0.0,0.0,0.0
0.029195564427704348,-0.17346183463635081,0.7510496309783331,0.002925007117876508,-0.5248860859364926,-0.003037820966187553,0.851162036728264,0.04453432621381727,-0.8539218169937335,1.0432034430225479,-0.021971698267383256,-0.9119367209310162,0.8778242071022585,-0.016730285183915235,0.6443375902703902,1.1589766392815681,0.10223969443891445,0.7989015342094794,0.9267441088861289,0.0,0.0,0.0,0.0
0.028618910682059674,-0.17394865553967362,0.7506018906711079,0.0028657294459059944,-0.5246910535862748,-0.002993545095572039,0.8512826349509478,0.04572289816509899,-0.8529814893567057,1.0382429261778328,-0.024849267337988146,-0.9014134763028392,0.8796707972636967,-0.02443704597077538,0.6491057113196904,1.1453778768906362,0.10707544726098402,0.7949361108441503,0.9333204457056246,0.0,0.0,0.0,0.0
0.027821874883234784,-0.1744952041674289,0.7502002637458763,0.0027978462718006606,-0.5244613726535596,-0.0029375625404696663,0.8514245776208861,0.047017205807530625,-0.8509953725155422,1.0312657993448602,-0.027491042319063987,-0.890934336470173,0.8810341324869829,-0.03219890666744444,0.653557692354328,1.1316702565550958,0.11232936597225697,0.7904238068258703,0.9398865441316618,0.0,0.0,0.0,0.0
0.02675273485416293,-0.17513293073638425,0.7498618122781102,0.00271717763026597,-0.5241848008072061,-0.002865609435937299,0.8515953850456188,0.04848243252161052,-0.8476656183602959,1.0217168773511263,-0.029893060597665368,-0.880489714238922,0.8819691872976437,-0.04011722997973351,0.6576075142998279,1.1178835163191694,0.11824050063891739,0.7852676061150264,0.9464244894840073,0.0,0.0,0.0,0.0
0.02536628549793982,-0.17589450847599808,0.7495961865839895,0.002616862857184664,-0.523846999724178,-0.002770932410160702,0.8518038476329759,0.05018178123837629,-0.8427459390185044,1.0090872559202526,-0.03210789395034065,-0.870075605226496,0.8825813632287315,-0.048440023415026,0.6612076015993943,1.104098330401401,0.12507963715628434,0.779362021300213,0.952964460203277,0.0,0.0,0.0,0.0
0.02363663056232523,-0.17680708677408388,0.7493999550671803,0.00248532960823018,-0.5234321358945465,-0.0026420728486129465,0.8520596467974962,0.05215576627468491,-0.8361306491280063,0.9930511833411394,-0.03427301082289255,-0.8596906544281746,0.8830594590843736,-0.057707143224651675,0.6643876106994794,1.090512564681527,0.13312965780534322,0.7726157516695387,0.9595951038104472,0.0,0.0,0.0,0.0
0.021578245764688028,-0.17787930790586926,0.749248403854495,0.00230292577359185,-0.5229235300130816,-0.0024587052918551944,0.8523729424728514,0.05438321463716474,-0.8280164710931996,0.9737218811325672,-0.036619305081293255,-0.84933538385449,0.8837082379175105,-0.06902075476601116,0.6673558228259899,1.0775497273105596,0.14265343609854128,0.7649927843349495,0.9664729677270892,0.0,0.0,0.0,0.0
0.019279282906530706,-0.1790789602781765,0.7490855611885414,0.002036321606173715,-0.5223027546580884,-0.002184095498525823,0.8527548977272088,0.056714887482328724,-0.8191886619566517,0.9521138063067144,-0.03943874750660426,-0.839042276646894,0.884932544044134,-0.08454419858549869,0.6707251600254217,1.0660265091439491,0.15385545986856805,0.7565870597785915,0.9738156359378503,0.0,0.0,0.0,0.0
0.01695033550342716,-0.18029353570424134,0.7488140435028178,0.0016276026229955312,-0.5215202659898212,-0.001749441661004185,0.8532355492626187,0.05875504368204196,-0.8116550928025653,0.9310754926102174,-0.04305985070989619,-0.8289237983407964,0.8868340367656502,-0.10838714076931107,0.6759518583637689,1.0571572196354737,0.1668009830550365,0.7476681686491983,0.9818014492746083,0.0,0.0,0.0,0.0
0.014996706368606474,-0.1813016796393808,0.748374352989967,0.0010084976938884377,-0.5204988080141322,-0.0010598125412865731,0.8538611424497816,0.0598052868917126,-0.8088841644307674,0.9161545869983783,-0.04785364960536364,-0.8196998484315389,0.8887787894069641,-0.14608759966478962,0.6848055570123085,1.0524993254874437,0.18112739701330463,0.7392384143726758,0.9897019842002888,0.0,0.0,0.0,0.0
0.013718637639007696,-0.1819740271308681,0.7479466805886374,0.0002760713188140542,-0.5193993328092931,-0.00015980675528373307,0.8545315859134108,0.05959978092919288,-0.8111469152797738,0.9097750589223518,-0.052624106787771796,-0.8148633266750605,0.8913774344535506,-0.1930875223687082,0.694185167922009,1.054086264118914,0.1952723257057051,0.7332688197844488,0.9954364965430946,0.0,0.0,0.0,0.0
0.013724325369826552,-0.1819902064812497,0.747929930026607,0.0002472118262770582,-0.5193901471564594,-0.00013805710003169175,0.8545371816739992,0.059590508327579915,-0.8111852022112866,0.909688349610403,-0.0526428992209864,-0.8148595409872911,0.8913866494873514,-0.19309118465690617,0.6942033929087198,1.0540929458624275,0.1952941190428606,0.7331964810716597,0.9953835723542263,0.0,0.0,0.0,0.0
0.013724325369826552,-0.1819902064812497,0.747929930026607,0.0002472118262770582,-0.5193901471564594,-0.00013805710003169175,0.8545371816739992,0.059590508327579915,-0.8111852022112866,0.909688349610403,-0.0526428992209864,-0.8148595409872911,0.8913866494873514,-0.19309118465690617,0.6942033929087198,1.0540929458624275,0.1952941190428606,0.7331964810716597,0.9953835723542263,0.0,0.0,0.0,0.0
0.013629107815155207,-0.18217297638202265,0.7478541660958783,0.00018220664084952663,-0.5198432272759279,-0.00011492144033264989,0.8542616535050316,0.05996070507151406,-0.8079292995325805,0.9056277576499137,-0.052135552369137216,-0.8122953906644912,0.8886282954221372,-0.19194005000340594,0.6948231202776657,1.0552160670018234,0.19834846446169402,0.7344401380363965,0.9975513601225152,0.0,0.0,0.0,0.0
0.014031666124877697,-0.18237562302622742,0.7477218406695674,0.0001703385864633797,-0.5201991881816567,-0.00013128683312122366,0.8540449393115557,0.06053776484453891,-0.8076907470821023,0.9068172507574137,-0.051581562887529235,-0.8132218533725077,0.8916350698962918,-0.19184121415201424,0.6967895273459757,1.0561056567078408,0.2015630216501299,0.7367319918696429,0.9995497025129092,0.0,0.0,0.0,0.0
0.01503056522848016,-0.1825616884608345,0.7475984417054777,0.0002497545329015845,-0.5206404210451546,-0.00027833997328594344,0.8537759730300781,0.0614327354239315,-0.8095566775714589,0.9130678966685927,-0.05083369980000967,-0.816971781849596,0.9002519693019474,-0.19472070427841637,0.7017792154887693,1.056587134339986,0.2041292225948046,0.7410273808346981,1.0008082274457444,0.0,0.0,0.0,0.0
0.016686003927136026,-0.18276347466437745,0.747578315637111,0.00047712621583543944,-0.5213297576633007,-0.0006797094528753158,0.8533549051364022,0.06300107461296195,-0.8121173235984037,0.9234208539190037,-0.04949200477790088,-0.8229025067937245,0.9142382608471363,-0.2024266923974741,0.7115315914116418,1.0560220875116255,0.20527648880771407,0.7481683269170905,1.000638583163423,0.0,0.0,0.0,0.0
0.019064055065932825,-0.18311962579795868,0.7479687114427868,0.0008678445274807676,-0.5224237679310431,-0.0014400076896112016,0.8526843377970899,0.06582637839593627,-0.8131205971203072,0.9362748358038872,-0.04690149845827642,-0.8298797415633024,0.9333933009269141,-0.21577892591227904,0.7286339238776399,1.051482797754698,0.20536402341323684,0.7601767398328061,0.9966093113483616,0.0,0.0,0.0,0.0
0.02101898069963742,-0.18443365219466845,0.7489259144501609,-0.0004822775427260725,-0.5220328426799473,0.0006185653317659757,0.852925023638535,0.058818189589635646,-0.8146545970277217,0.9207978464661241,-0.04843781839329819,-0.8362579287023749,0.9533516710198211,-0.1758208414853548,0.7278415573151833,1.034609686988422,0.1590551373491463,0.7327751437122635,1.0145678307914099,0.0,0.0,0.0,0.0
0.02312466483494898,-0.18558936555550054,0.7498182836954679,-0.0013794838491058843,-0.5221640857973391,0.0018450024519576348,0.8528419317163594,0.052024696389859626,-0.8204369623859854,0.9106098235191805,-0.04834062658854685,-0.841910987102535,0.972426833826972,-0.15091078111592052,0.733122632986716,1.019598995838264,0.11903747138215622,0.7129955034208973,1.0293254704257182,0.0,0.0,0.0,0.0
0.025154101489066525,-0.1864587169915007,0.7505349595058094,-0.0017682245589156031,-0.5226538951760783,0.002247430814393808,0.8525401622761924,0.04699846741139024,-0.8288671788703313,0.905701324365313,-0.047020686579289483,-0.8469431098203336,0.9893121970461858,-0.13990186228651824,0.7423356984047752,1.0081093795355236,0.09133316511832114,0.7010587821414919,1.0431027147895684,0.0,0.0,0.0,0.0
0.02692072831228287,-0.18713377809897316,0.7511074063540323,-0.0019332184308682994,-0.5231926896423246,0.0023331054821088093,0.8522090288128483,0.043281084018884454,-0.8386948574506852,0.9034091362704987,-0.04546102303910254,-0.8512040245236044,1.0034671794169034,-0.13444770059670208,0.7516863462669408,0.9990508957423426,0.0725184800240834,0.6934614455744343,1.0565925170187964,0.0,0.0,0.0,0.0
0.02835800141063708,-0.18769948519929228,0.7516116530016264,-0.002032453684761247,-0.5236588764392849,0.0023553990779450187,0.8519223569983057,0.0403140068196588,-0.8490355883715912,0.9021692242325224,-0.044032712208737126,-0.8544647537372632,1.014789280929784,-0.13035537936120636,0.7597452403246707,0.9912349563719918,0.05890953468281401,0.6878559129891465,1.0699391758078365,0.0,0.0,0.0,0.0
0.029469408662469776,-0.1882105238558385,0.7521058714066673,-0.00212568404695882,-0.5240264446053318,0.0023995974602432145,0.8516959602778779,0.03765254254933626,-0.8594541948023712,0.9012020234619047,-0.04278703993145437,-0.8566600086023,1.0234910614412642,-0.12595860722730667,0.7662495926415335,0.9838983714265389,0.04815431153783138,0.6829830965980213,1.083169583209275,0.0,0.0,0.0,0.0
0.030293760684395328,-0.18869504859736555,0.7526203129241205,-0.0022226694526971268,-0.524312934958044,0.002469588522771674,0.8515191760076307,0.035020414997089036,-0.8697930707341155,0.9001548203371322,-0.04165615055103308,-0.8578483629712385,1.0299259001033376,-0.12099815053324305,0.7714651790898884,0.9766781102572286,0.03891985449231683,0.6782663228525556,1.0963007558435172,0.0,0.0,0.0,0.0
0.030883566705547556,-0.1891662879499773,0.753163948497602,-0.002315986775337007,-0.5245474788413441,0.0025439222271302553,0.8513742462079461,0.032291673694388005,-0.8800254492729027,0.8988779442266644,-0.04055512763799972,-0.8581659663665824,1.0345008671402673,-0.11576415391208035,0.7758006889421517,0.969453006904341,0.030462341147129587,0.6734764951162614,1.1093597701098104,0.0,0.0,0.0,0.0
0.03128975327224617,-0.18963711078800122,0.7537317699335673,-0.002407954739050205,-0.5247388642636346,0.0026244670013871687,0.8512558007192927,0.029399417353078657,-0.8902184492138758,0.8972386863140679,-0.03945898372669879,-0.8578341457614833,1.037671597944964,-0.11021470466085481,0.7794347467618187,0.9621669595707933,0.022480827505205372,0.668496836985783,1.122373798853216,0.0,0.0,0.0,0.0
0.03156161379190615,-0.19011025135498064,0.7543137733325089,-0.002492148854397768,-0.5249054794961665,0.00269722421407056,0.8511526019290114,0.026366330742365243,-0.9004209806599753,0.8952164252069938,-0.03833118902656879,-0.857039134852828,1.0398196336529364,-0.10462705775125568,0.7826325847979106,0.9548714706516525,0.014745875972436137,0.66333428569747,1.1353746832793805,0.0,0.0,0.0,0.0
0.03174075314604397,-0.1905872035878282,0.7548967480890008,-0.0025659136266904504,-0.5250580342703942,0.0027562265787338808,0.8510580943451608,0.023225513270401045,-0.9106860736593542,0.892797794189144,-0.037157743458548435,-0.8559620456501018,1.0412811616258275,-0.09914654477686868,0.7855513653854427,0.9476439713124707,0.007141711858454939,0.6580347216598919,1.1483797822490098,0.0,0.0,0.0,0.0
0.031859771240283025,-0.19107046246162993,0.7554658693731409,-0.0026296472446600003,-0.5252005961552744,0.0028016606388896652,0.8509697817497267,0.019999630916212666,-0.921037419762258,0.8899669505731059,-0.03593623094473551,-0.8547738633551039,1.0423430382461283,-0.09379436260727878,0.7882511567297689,0.9405733868292595,-0.00038299421480680364,0.6526648576750586,1.161368971166025,0.0,0.0,0.0,0.0
0.03194195617714241,-0.19156310377569222,0.7560037928819012,-0.002682188800654186,-0.5253367340061783,0.0028308827198845784,0.8508854845806136,0.016701442236544604,-0.9314049824883301,0.8867457071721635,-0.03465531722219271,-0.8536248916592681,1.0432268043113884,-0.08860934973043474,0.7907515867417262,0.9337908402374137,-0.007864633001867011,0.6473174865356439,1.1742462217846907,0.0,0.0,0.0,0.0
0.03199916095788073,-0.19207066582172305,0.7564882651457315,-0.0027201239598141254,-0.5254697885701176,0.002837533920873105,0.8508031797231173,0.013333538632896682,-0.9415333754838335,0.8832388140046351,-0.03328806707955091,-0.8526492273070688,1.0440819875905984,-0.08364667364657798,0.7930160783492367,0.9274928713526326,-0.015320075265298161,0.6421003861627825,1.1867627987657394,0.0,0.0,0.0,0.0
0.032027420610447076,-0.192604984146921,0.756889286215417,-0.0027413459152694866,-0.5255973124691874,0.002819170283898322,0.8507243986313373,0.009887227634399262,-0.9508719586633667,0.8796859597301556,-0.031800379377631784,-0.8519773228260596,1.044981732718885,-0.07883892666831491,0.7948687774599412,0.9219476880515142,-0.02268210572290026,0.6371186948863217,1.1983805660500275,0.0,0.0,0.0,0.0
0.03200233324847258,-0.19318526400775843,0.7571662395081731,-0.0027483270090554947,-0.5257065726071978,0.0027844538585723396,0.8506569773022225,0.006347974425006641,-0.9584986772487543,0.876534807736522,-0.030165281235873406,-0.8517366275751385,1.0459019075266816,-0.0738973853668087,0.7959221175228839,0.917512323525903,-0.029690882072538297,0.6325151709817283,1.2080570923132254,0.0,0.0,0.0,0.0
0.03188247625623206,-0.19382701341475353,0.7572710532194811,-0.0027347783554617956,-0.5257937770210496,0.0027284135365648866,0.8506033040100766,0.0027672386002660547,-0.9631420786939194,0.8745551450139487,-0.028333294323787946,-0.8519834288357857,1.0466524919073719,-0.06877449108038654,0.7957880512564777,0.9146906303765288,-0.03593274538003487,0.6287021610957418,1.2139502828236968,0.0,0.0,0.0,0.0
0.03162506565891504,-0.1945387735987084,0.7571676597041314,-0.0026870575123950865,-0.5258656298880311,0.002635670735598345,0.8505593290677392,-0.0007451240747085872,-0.9636191199742984,0.8746455470448863,-0.02624885380001497,-0.8526800531098133,1.046953796887622,-0.06364653949022787,0.7942224935868165,0.9139219727152368,-0.04083614591388251,0.6267342072217226,1.2132069605602251,0.0,0.0,0.0,0.0
0.03120863798281198,-0.1953363379714001,0.7568523245917607,-0.0025989954636302633,-0.5259258570454223,0.0024980724940854393,0.8505227790879163,-0.0041243486126208715,-0.9599140005220079,0.87677030779578,-0.023851477770598078,-0.8537784480895402,1.046674028607004,-0.05849575628993138,0.7911642898320851,0.9152400123642209,-0.04437769517865755,0.6266192831391038,1.2058449232819999,0.0,0.0,0.0,0.0
0.030633122724422188,-0.19624578142986093,0.7563548205860718,-0.002474964755688407,-0.5259710491460436,0.002320082843959457,0.8504957067647463,-0.007379586991504242,-0.95319255686852,0.8799709928494142,-0.021080218237706186,-0.8552321370986076,1.045848085357891,-0.05301649691027349,0.7867079899612636,0.9182306958263392,-0.0470653574332967,0.6273029805449323,1.1947379560836868,0.0,0.0,0.0,0.0
0.02989673419216874,-0.19728974072098523,0.7557204560544839,-0.002313697015133676,-0.5260058365569065,0.0020985087028438155,0.8504752218468303,-0.010482539505724885,-0.9446971094699707,0.8834200856308126,-0.017865307454655057,-0.8568985974557305,1.0444280258214667,-0.04706063766475328,0.7810919509885952,0.9223519895204334,-0.04925627195429602,0.6283474534773283,1.1817358039526855,0.0,0.0,0.0,0.0
0.028978426260831684,-0.1984937633797853,0.7549902814896068,-0.002114604369599,-0.526030937417767,0.0018345135109834622,0.850460825604521,-0.01337638273365482,-0.935333884116228,0.886560143582667,-0.014141091278556978,-0.8585814634757238,1.0422255892491294,-0.040415556270963465,0.7744421588122936,0.9271129046101252,-0.051070845062836795,0.6295444842866973,1.167871346693426,0.0,0.0,0.0,0.0
0.027838506223275987,-0.19988909199568006,0.7541977634729596,-0.0018819352266245329,-0.5260381541076461,0.0015401387959256248,0.8504574925975503,-0.016004098167799293,-0.9256304987519959,0.8890574535854021,-0.009855009910473538,-0.8600596316323107,1.0389418611500882,-0.032708052830002735,0.7667164286284311,0.9320798699716534,-0.05245761514443637,0.6307315073173173,1.1536612144230012,0.0,0.0,0.0,0.0
0.026426129560640353,-0.2015082189681094,0.7533701048563389,-0.001624266698560143,-0.5260131727670859,0.0012353197677132373,0.8504739724519894,-0.018327268747741012,-0.9158364152675447,0.8907314821309957,-0.004972949327703257,-0.8610918313510706,1.0341976155758148,-0.023507141794761707,0.757771349515193,0.9368684048583857,-0.05329540586732816,0.6317556675837218,1.1393219797850789,0.0,0.0,0.0,0.0
0.02468784704961561,-0.2033760084565549,0.752529580125958,-0.0013526896354203247,-0.5259409791530885,0.000942217704544222,0.850519470032308,-0.02033883686850274,-0.9060508071858953,0.8915061249487177,0.0005103475949513048,-0.8614070844391855,1.0275476128139835,-0.01249486158728305,0.7474568844995719,0.9411538212393669,-0.05348004853866116,0.6324868538460515,1.1249072958563073,0.0,0.0,0.0,0.0
0.022575671935720826,-0.20549922594884437,0.7516941019466034,-0.0010793945055020632,-0.5258108608285139,0.000680397977760963,0.8506005587823643,-0.022073313747313205,-0.8963245652564396,0.8913913912962215,0.006555076434531244,-0.8606930658896913,1.018487694161624,0.0003826864476308908,0.7356964553974928,0.9446956130873417,-0.05299010273637981,0.6328307859591671,1.1103872210344174,0.0,0.0,0.0,0.0
0.02005491781919784,-0.20785715489383785,0.7508771992875775,-0.000818240614614295,-0.5256181119665373,0.000466210549174312,0.8507201146691861,-0.023621052482902492,-0.8867222012020218,0.8904836105119152,0.013053790068811126,-0.8585990277565925,1.006477059114678,0.014864567581289454,0.7225219889826174,0.9473595632146838,-0.05192190447574669,0.6327248563463671,1.0956903010770342,0.0,0.0,0.0,0.0
0.017113690833444495,-0.21039343939011507,0.7500865506801666,-0.0005849151829996842,-0.5253649238557744,0.00031234226249819875,0.8508767578789281,-0.025137296407498684,-0.8773376861860194,0.8889913413694219,0.019813045256463976,-0.8547625206448944,0.9909912692647129,0.030378814057538173,0.708084734799829,0.9491556042465881,-0.05051888778686298,0.6321281970612059,1.0807276978222935,0.0,0.0,0.0,0.0
0.013777110158854109,-0.21300875755042906,0.7493184067632968,-0.0003922430675177598,-0.525065144591318,0.00022007763193631304,0.8510619199837989,-0.026819227751455014,-0.8682589671349967,0.887306233541488,0.026556920190796973,-0.8488741461602476,0.971628343140875,0.04601341617323432,0.6926760014260916,0.9503363394086495,-0.04925269482703112,0.6310301108980458,1.0654171742177938,0.0,0.0,0.0,0.0
0.010128283639670086,-0.215561419384732,0.7485441182064609,-0.00024710231120161176,-0.5247423318427088,0.00018010737690508357,0.8512610596485998,-0.0288519816904597,-0.8595012762031952,0.8860410478026626,0.03293357194394467,-0.8408508020204812,0.9483587443248571,0.06066023393753779,0.6766531330855435,0.9515331084393704,-0.04887017243338321,0.6294962557837537,1.0497200408405323,0.0,0.0,0.0,0.0
0.0063335473904371315,-0.2178822634535828,0.7476788855895864,-0.00015081896590308946,-0.5244214870350373,0.00018712934938696778,0.8514587753803505,-0.03146434168710778,-0.8509883147168004,0.8859523543546705,0.03852857411792796,-0.8311549210657765,0.9219518235072066,0.07333466936664904,0.6602205892053087,0.9539887900637974,-0.05041738024052672,0.627830503579296,1.0336787710784516,0.0,0.0,0.0,0.0
0.0029140067509809847,-0.2199252327386882,0.746564386773081,-5.4164445945812516e-05,-0.5240630344568817,0.0001469290510423783,0.8516794651709714,-0.03447629744289911,-0.8418358082881505,0.886218542584738,0.04351847815730978,-0.8232148697879168,0.8978197144810863,0.08339179410374509,0.6441693772548719,0.9589021054869779,-0.05573198741205225,0.6273250106694045,1.017131977677154,0.0,0.0,0.0,0.0
0.00014180128214210828,-0.22142174398735104,0.7452902521900012,6.481200656418434e-05,-0.5237822597240087,1.802361322216454e-05,0.851852181938254,-0.037875692685382094,-0.8337681061005509,0.8880001928394875,0.04736984309103149,-0.8172141394400425,0.8774695651356942,0.08942878213855644,0.629920253272997,0.9666767407542943,-0.06719587056818302,0.6271947356436018,1.0001932926005868,0.0,0.0,0.0,0.0
-0.0015626205173108673,-0.22218676364613674,0.7441430910562061,0.0001865953012766122,-0.52361100106238,-0.00014865814427061062,0.851957430068781,-0.04063079389346839,-0.8292875222958547,0.8909386279825837,0.04955165120424378,-0.8141455653649181,0.8644822353783694,0.09135702820754468,0.6197730099694126,0.9752464380228337,-0.08332105934920452,0.6272829684910337,0.984120857243091,0.0,0.0,0.0,0.0
-0.0015794089098791564,-0.22229432645443567,0.7440808504113742,0.0002705842965443667,-0.5236172470206515,-0.00013765287619540555,0.8519535706001461,-0.040634212146597376,-0.8293093652527412,0.8909484697124398,0.04971807685159822,-0.8142198849914342,0.8643091998034456,0.09137249752716849,0.6196881465186629,0.9751695214856443,-0.08333549020735039,0.6273154415622862,0.9841288347984452,0.0,0.0,0.0,0.0
-0.0015794089098791564,-0.22229432645443567,0.7440808504113742,0.0002705842965443667,-0.5236172470206515,-0.00013765287619540555,0.8519535706001461,-0.040634212146597376,-0.8293093652527412,0.8909484697124398,0.04971807685159822,-0.8142198849914342,0.8643091998034456,0.09137249752716849,0.6196881465186629,0.9751695214856443,-0.08333549020735039,0.6273154415622862,0.9841288347984452,0.0,0.0,0.0,0.0
-0.0015794089098791564,-0.22229432645443567,0.7440808504113742,0.0002705842965443667,-0.5236172470206515,-0.00013765287619540555,0.8519535706001461,-0.040634212146597376,-0.8293093652527412,0.8909484697124398,0.04971807685159822,-0.8142198849914342,0.8643091998034456,0.09137249752716849,0.6196881465186629,0.9751695214856443,-0.08333549020735039,0.6273154415622862,0.9841288347984452,0.0,0.0,0.0,0.0
-0.0008815829877831401,-0.22257144607512,0.7439645623417247,0.00021230133823699256,-0.5238693153181956,5.7204381056718e-05,0.8517986218137744,-0.04047360907086855,-0.831611554885665,0.8960543364874586,0.0499652137482048,-0.816976578284637,0.8707373142728184,0.09494115895846178,0.6210711537907805,0.9747698812368166,-0.08070120271661001,0.6298540972113456,0.9864020749489418,0.0,0.0,0.0,0.0
0.00048455274866171256,-0.2229485775448163,0.7438184302865203,0.0002207402881523508,-0.5242219707442566,0.00014380007377811334,0.8515816202715226,-0.03985191616511443,-0.8364913582720098,0.9068582217672497,0.05079620755803248,-0.8233654515826274,0.8841744137990355,0.09866782428139238,0.6246116962398043,0.97413755328964,-0.07877461199297797,0.6340564628637052,0.9887618002452406,0.0,0.0,0.0,0.0
