zhuoxili-jackie/tripod-support-walk/examples/pcbA样数据/trajectory_trotting_acc_f01.csv
root_pos_x,root_pos_y,root_pos_z,root_rot_x,root_rot_y,root_rot_z,root_rot_w,FL_hip_joint,FL_thigh_joint,FL_calf_joint,FR_hip_joint,FR_thigh_joint,FR_calf_joint,RL_hip_joint,RL_thigh_joint,RL_calf_joint,RR_hip_joint,RR_thigh_joint,RR_calf_joint,FL_foot_joint,FR_foot_joint,RL_foot_joint,RR_foot_joint
0.01,0.0,0.8259446621,0.0,-0.523845373591082,0.0,0.8518133742594206,0.0,0.27,-0.52,0.0,0.27,-0.52,0.0,0.6572093368,0.8119390607,0.0,0.6572093368,0.8119390607,0.0,0.0,0.0,0.0
0.011597138994711226,-0.0007388043770617009,0.8269165807936314,9.816416064746632e-05,-0.524638037142052,1.6984765147759428e-06,0.8513253904028985,0.0013916480819385429,0.276654649232554,-0.5230016341454523,0.0013916480819385429,0.27991179002690214,-0.5295251102635458,0.0028049062830693017,0.6672298095311049,0.8034495787014809,0.0028049062830693056,0.6665758849146795,0.8075665808738408,0.0,0.0,0.0,0.0
0.014634251573162815,-0.002321026723024989,0.8293480140582733,0.0003233814982502266,-0.5262544734066923,-0.00039559232373227385,0.8503269771979276,0.0051934315330576485,0.28742978613740366,-0.5219187389752954,0.005197568123816028,0.29750778461873,-0.5431198044016815,0.007075039032645379,0.690327860707111,0.7812248805917107,0.007095787158115891,0.6871684460428797,0.7936229842914319,0.0,0.0,0.0,0.0
0.017499423428216226,-0.00404834648072141,0.8306771513678084,0.0006119523826142991,-0.5262900594488558,-0.00036547031847366867,0.8503048072726906,0.008342819073238254,0.3031206952344063,-0.5423641567428675,0.005630945735972085,0.2931854830108229,-0.538674855849197,0.007812059870489163,0.6811506430165816,0.8032497592040875,0.01386400835478728,0.6995073934352176,0.7851691494913493,0.0,0.0,0.0,0.0
0.020788618537275434,-0.00584874185537766,0.8316870389836468,0.0008751186358706674,-0.5262871039662838,-0.0004521207815176979,0.8503063647609337,0.011954459137168555,0.3218743986505024,-0.5690871608034505,0.005554987446276134,0.288261229433908,-0.5386318735408462,0.007804444640894276,0.6746826602218154,0.8204851755189116,0.02078148821911682,0.7109590667044129,0.7797135582219488,0.0,0.0,0.0,0.0
0.02439055820884951,-0.00756527219999516,0.8324642743515795,0.001093793825045818,-0.5262106530286329,-0.0005668603225129595,0.8503533565075302,0.01555534047967272,0.3427143628796817,-0.6003345589115994,0.004898019598629451,0.2843108842723123,-0.5411089118467943,0.007653700629128799,0.6714019112596347,0.8346450040088774,0.027652677714629124,0.7219012411168504,0.7758529417988068,0.0,0.0,0.0,0.0
0.027779648475123077,-0.009284377918516527,0.8332709282073419,0.0013371669389866077,-0.5263024514077067,-0.0007162557892007941,0.8502960829055137,0.019241738412190144,0.36046898546744355,-0.6249002861636843,0.004523403849744723,0.2816701751807773,-0.5450097792931345,0.008116644123976733,0.669810104475516,0.8471250860168518,0.03447271699153798,0.7330195900169613,0.7718942846747209,0.0,0.0,0.0,0.0
0.030766597293884153,-0.010995321866205889,0.834140541778388,0.001590332126923829,-0.5264926236453377,-0.0008836706444069243,0.8501777503657497,0.02295194693385567,0.37469088378796983,-0.6425527934657932,0.004423114213223224,0.2798082461443679,-0.5498045385898394,0.009226175428035206,0.6687092621627039,0.8584599477290696,0.04129675678167193,0.7439577722011033,0.7672751547378028,0.0,0.0,0.0,0.0
0.03327380082169698,-0.012666310978876404,0.8350315932211075,0.0018328274613411662,-0.5267095314718868,-0.0010503242174591592,0.8500427089383219,0.02658849582750792,0.3855737725519857,-0.6543782660498931,0.0044506494683293,0.27818351588635837,-0.5551785092866944,0.010794794044497678,0.6675104468613768,0.8689315247741776,0.04810349588536907,0.7541722980227752,0.7622114772011165,0.0,0.0,0.0,0.0
0.03529316911284912,-0.014253623229089912,0.8358970018294821,0.002051536727189098,-0.5269121929297041,-0.0012042413520912633,0.8499163970308098,0.030040584892996488,0.39350354348148725,-0.661558484377642,0.0044526397699446085,0.27643794304698815,-0.5608920614335281,0.012565040337775215,0.6660258822909426,0.8787297613195023,0.05473902804793115,0.7632813372501137,0.7570593856119685,0.0,0.0,0.0,0.0
0.03685524221081211,-0.015711376943314107,0.8366993353478639,0.002238955416730154,-0.5270812954625372,-0.001338149379991029,0.8498108639034996,0.033200705525458084,0.39893943682150623,-0.6651868213199826,0.004307859994812408,0.27441206948412405,-0.5667319617462228,0.014306650817116427,0.6642536789009403,0.8879687436440284,0.06098841127409325,0.7710804637468573,0.7521242590784427,0.0,0.0,0.0,0.0
0.03800806667583141,-0.01699846667761038,0.8374088261238282,0.0023910101540872025,-0.5272096585091741,-0.001447619754638405,0.8497306416989616,0.03597688620585371,0.40235086743182213,-0.6662424211627858,0.003938917513875795,0.27214027122827006,-0.5724613356359097,0.01582018564011205,0.662281974600165,0.8966457059297633,0.06663695835311367,0.7774755438785008,0.7476605033379583,0.0,0.0,0.0,0.0
0.03880347567283515,-0.018082462229384,0.8379977554015007,0.0025053583906715668,-0.5272958795799859,-0.0015298068489780154,0.8496766668847087,0.03829945032124841,0.40417683141733635,-0.6655929822845799,0.0033135921367400453,0.2698510511415223,-0.5777546365920657,0.016897014328842205,0.6602698492971821,0.9045648266999592,0.07151061479068509,0.7824115831546059,0.7439237111797434,0.0,0.0,0.0,0.0
0.0392883396499645,-0.018941566249859997,0.8384361852229839,0.002580221625162388,-0.5273409495692623,-0.0015825728727860016,0.8496483748156387,0.04012376242306961,0.4047959616169368,-0.663989362136493,0.0024408887590794894,0.2679433779111009,-0.5821128929089552,0.01727082118440413,0.6584833315826506,0.9112083114920146,0.07549913701228614,0.7858224376382454,0.7412168147913877,0.0,0.0,0.0,0.0
0.039498910103433336,-0.01956574101683306,0.8386926049236584,0.0026139693045217297,-0.5273474494507918,-0.0016041302017165385,0.849644196995728,0.04143108086321878,0.40449595789612525,-0.6620219800458268,0.0013588624885312144,0.26687257074041887,-0.5847634661000463,0.016602009479826974,0.6573894921686506,0.9155273573836199,0.07856486186671259,0.7876180749509428,0.7398875016530613,0.0,0.0,0.0,0.0
0.03945710528919484,-0.01995712546800791,0.8387456629828886,0.0026067110089516374,-0.5273222962615973,-0.001594956056362066,0.8496598478440006,0.04222956711643768,0.4034272307140224,-0.6599822767025104,0.0001073564024280313,0.26686155275883605,-0.5845924276942697,0.01457577961535852,0.6577813843679883,0.9157367392583047,0.08072069272375261,0.7877408014076732,0.7402082878116767,0.0,0.0,0.0,0.0
0.03916678395589837,-0.020126932136764853,0.8385988227730216,0.002560442486991154,-0.5272700849975647,-0.0015567552887301812,0.8496924609021212,0.04254414204577037,0.40157694205040245,-0.6577993555911104,-0.001291667458651156,0.26793659609924336,-0.5816280357747521,0.011219690378275743,0.659650055914142,0.9118324660783401,0.08200502298436607,0.7862239894597371,0.7421829931077452,0.0,0.0,0.0,0.0
0.038616634247987135,-0.020094479260354473,0.838280344673576,0.002478588876656871,-0.5271920863401282,-0.0014923497749484299,0.8497412156590219,0.042414771244911546,0.3987880551598666,-0.6550762567128073,-0.002841935877648069,0.26993747157666204,-0.5770552505238221,0.00689288260907215,0.6621922181520007,0.9055939367512404,0.08247609405625549,0.7831967776042084,0.7455391555911212,0.0,0.0,0.0,0.0
0.037788757187644184,-0.019888234015724336,0.8378285385474094,0.0023650169683617655,-0.5270920620155937,-0.0014063935159414336,0.8498037343482124,0.04190248976773528,0.3948165332659317,-0.65120966068476,-0.004569308880136405,0.2724991602366439,-0.5717437238501328,0.0019584533892255023,0.6649441340445083,0.8980808774843262,0.08222914508192189,0.7788341263703363,0.7499142930974615,0.0,0.0,0.0,0.0
0.03666643547558976,-0.01954363183800476,0.8372797238138999,0.0022221796560425067,-0.5269744507665896,-0.0013032681653287973,0.8498772215143295,0.04108442921463488,0.38940317400328217,-0.6455679447276603,-0.0065056146430165634,0.27536026544012987,-0.5663248264889751,-0.003328216272195911,0.6676695964496916,0.889852465921186,0.08141168872737892,0.7733080514050686,0.7549817752026191,0.0,0.0,0.0,0.0
0.035243731521591354,-0.019100632238383337,0.8366668436252188,0.0020512118433783574,-0.5268464646362792,-0.0011869916416528002,0.8499571673214305,0.04004930193509392,0.38233209799036777,-0.6375809620634053,-0.008679802276781048,0.27850034698017545,-0.5613144389612994,-0.008835597986370384,0.670291011269594,0.8811955365225153,0.0802140815754071,0.7668063485259653,0.7604673067078235,0.0,0.0,0.0,0.0
0.033538431865035565,-0.018600934172801127,0.8360218344420469,0.0018521727883938864,-0.5267225256998052,-0.0010609917073317763,0.850034602044515,0.038891280475446814,0.3735009301148316,-0.6268236153755727,-0.01110604308479687,0.2821871905814752,-0.5572399926317524,-0.014571735116081432,0.6728968098004877,0.8722846431032476,0.07885822703021159,0.7595843871729672,0.7661305661730141,0.0,0.0,0.0,0.0
0.03161019634824568,-0.018084279602427946,0.8353762033378103,0.0016238369273767904,-0.5266315672620261,-0.0009272517046178215,0.8500915807847126,0.03770115988914392,0.3630278980022119,-0.6131578630366721,-0.013757215192310141,0.28699629670043825,-0.5547863466278895,-0.020746186686535262,0.6758248513417026,0.8633061639413105,0.0775899987980602,0.7520247261080882,0.7717766973628161,0.0,0.0,0.0,0.0
0.02958573451529292,-0.017584789747190323,0.8347504650714874,0.0013624729007131143,-0.5266316555033513,-0.0007828398180028181,0.8500921304489376,0.03655364638501463,0.35142000174496757,-0.5969942688916126,-0.01651523483716639,0.2938332923468244,-0.5549952956906422,-0.02785791348867423,0.6798279583093034,0.8545874636646837,0.07670040947933147,0.7446716014665865,0.7774165589204192,0.0,0.0,0.0,0.0
0.027809081151076828,-0.017065239325004013,0.8340856581619924,0.0010476648186051125,-0.526691747507856,-0.0006086202419518178,0.8500554894163969,0.0353832149271895,0.34121181755542235,-0.5830022140560543,-0.019489770793108423,0.3035149996011099,-0.5590749882291999,-0.037225599566427174,0.6863557157947647,0.846474445785695,0.07631044902105326,0.7379761385709774,0.7834353967693807,0.0,0.0,0.0,0.0
0.02657696531530074,-0.016574069630046442,0.8334976449795475,0.0006949660018739873,-0.5269769944921009,-0.00042052825762377847,0.8498791605012521,0.034308471749915526,0.33388120295676055,-0.5723431047662793,-0.022143604706186377,0.3172745740231564,-0.5699216834344124,-0.049062169282496515,0.69624255872132,0.839407664524325,0.07666653246827579,0.733515630839661,0.789290223581911,0.0,0.0,0.0,0.0
0.026083982616742163,-0.016246350577086895,0.8331524531192762,0.0003386685671899524,-0.52757618129901,-0.0002488234134037115,0.8495076199284293,0.03362999532228482,0.33013723001608664,-0.5650106042237668,-0.023275875627173058,0.3354378401528723,-0.5919280824410987,-0.06029390532666223,0.7081961328340883,0.8332242312307612,0.07818921252939816,0.7326533880090024,0.7939523863293009,0.0,0.0,0.0,0.0
0.026027895698218822,-0.016108462246143186,0.8331210993346071,0.00021510261172413443,-0.5275982369770381,-0.00025231541864341,0.8494939613714255,0.033489855172469885,0.3300408164131658,-0.5650201930639729,-0.023289282609832467,0.335477536549932,-0.5919279963966911,-0.06029047310044611,0.7082312649968311,0.8332352083715621,0.07816928204927609,0.7325738158568533,0.7939231882730855,0.0,0.0,0.0,0.0
0.026027895698218822,-0.016108462246143186,0.8331210993346071,0.00021510261172413443,-0.5275982369770381,-0.00025231541864341,0.8494939613714255,0.033489855172469885,0.3300408164131658,-0.5650201930639729,-0.023289282609832467,0.335477536549932,-0.5919279963966911,-0.06029047310044611,0.7082312649968311,0.8332352083715621,0.07816928204927609,0.7325738158568533,0.7939231882730855,0.0,0.0,0.0,0.0
0.02674140307495727,-0.015528774209995924,0.833493485629311,0.00014033218093640926,-0.5273790771558631,-0.00013828824977997752,0.849630078423233,0.03220400385488468,0.336452346535252,-0.5760664227551135,-0.02466343051979807,0.3392716478673594,-0.5974742717775664,-0.062240795411208305,0.7108560708191456,0.8302406771711598,0.0763127390442227,0.7359190305534484,0.7879648501721175,0.0,0.0,0.0,0.0
0.02843024280534816,-0.014437500865139166,0.8347734568307154,0.00010124786527262234,-0.5280440878852729,-9.365429165674069e-05,0.8492169465025728,0.029956358472318825,0.3468758230729462,-0.5858117921853103,-0.026980880064745718,0.3452140477256428,-0.5983391289544617,-0.06797695009689823,0.7223057420051388,0.822273750416005,0.07207188335518135,0.7481307720911743,0.7740527155572285,0.0,0.0,0.0,0.0
0.02973015645417631,-0.013540917814896823,0.8355553415094407,-0.0005111531436635256,-0.5273789126040603,0.00029941353877545795,0.849629996889561,0.025543413116053282,0.32958722282194064,-0.5635431644757812,-0.029039558509388292,0.3523751485747095,-0.6090600032623941,-0.06698946970483187,0.7263846098404628,0.8142710544372791,0.055725516632199684,0.726417059053577,0.8000698782413902,0.0,0.0,0.0,0.0
0.031508795212246594,-0.012763309094286517,0.8363189961215436,-0.0010174988830956172,-0.5269284884969786,0.000637894811640138,0.8499087749850107,0.019463856491861477,0.3159125828246506,-0.5521549778306859,-0.03088151763395742,0.362441968978491,-0.6237662630673575,-0.06651075535301494,0.7321984967766447,0.8066787752150636,0.03903987392624508,0.7101180585558088,0.8182784211293195,0.0,0.0,0.0,0.0
0.03337628669579845,-0.01210204623640781,0.8370779860499452,-0.0013836885158811996,-0.5267568565544496,0.0008479455554027946,0.8500144589754347,0.013198019143240864,0.30613041390879475,-0.5480770060960973,-0.03237339249968654,0.37251637559204964,-0.6373323562470273,-0.06707372682751199,0.739227466119794,0.7996308404889071,0.02513102096803349,0.6990501265185587,0.8320235025954063,0.0,0.0,0.0,0.0
0.0351306358594632,-0.011592965146337869,0.8378340143070734,-0.001653535850355745,-0.5267756842598058,0.0009778018458437504,0.8500021695239108,0.007532213527699532,0.29920394223126745,-0.5482348744525107,-0.03348057541704966,0.3815993014346731,-0.6484947525605367,-0.06790729298124405,0.7467095450617485,0.7927472957431784,0.013893703112319676,0.691466131628771,0.8433933304888127,0.0,0.0,0.0,0.0
0.036640629904488534,-0.011262195446789872,0.8385592351281278,-0.0018587208956351293,-0.526888829270662,0.0010645517549860311,0.8499315110501459,0.0027054727012201874,0.2940947156167775,-0.5508594300994989,-0.034184089223134984,0.38922668448038966,-0.6570659166959033,-0.06841364621994427,0.753888075735671,0.7859722451830271,0.004473361054617488,0.685818700887824,0.8533968761711026,0.0,0.0,0.0,0.0
0.03783516486525628,-0.011133654753598121,0.8392283281484092,-0.0020176122047117634,-0.5270373971608653,0.0011272795238971099,0.8498389497285747,-0.001309345072789853,0.2899828149030004,-0.5549132982071205,-0.03444976562955255,0.39521584942821714,-0.6631509869297462,-0.06819295206993986,0.7602667790122191,0.7793715562153372,-0.003810200542305795,0.6810860307825134,0.8625556608996499,0.0,0.0,0.0,0.0
0.03868538212134511,-0.011231304362975158,0.8398223448562518,-0.00213801799625323,-0.5271886834969568,0.0011717088067286353,0.8497447546000302,-0.004627404574792257,0.2862812921313585,-0.5597647103064654,-0.0342297724600362,0.39956711263393624,-0.6670148874294832,-0.0669995102825025,0.7655674768806463,0.7730302115277418,-0.011338085143986173,0.6766662052642877,0.8711536501216293,0.0,0.0,0.0,0.0
0.03918825012474833,-0.011578411935372224,0.8403249291135764,-0.0022217812875888186,-0.5273252966523875,0.0011967581130080895,0.8496597336395322,-0.007367157818370931,0.2826322279411639,-0.5649867536331721,-0.03347246075003307,0.4023858051909106,-0.6690100543076253,-0.06468848112015901,0.7696427606164804,0.7670435175959548,-0.018263598190210794,0.6722502144418165,0.8793214837091547,0.0,0.0,0.0,0.0
0.03935376628863306,-0.012195824416801214,0.8407176656011024,-0.002268109382861918,-0.527437935443067,0.00119909333771913,0.8495896904450699,-0.009623103073264597,0.2789100916320495,-0.5702225304629757,-0.03213133852862602,0.4038225804650492,-0.6695246836973096,-0.0611798297822045,0.7723982257275817,0.761542918125523,-0.02459245713384548,0.6677291117863418,0.8870420414207278,0.0,0.0,0.0,0.0
0.03919578655148643,-0.013099934375078628,0.8409764557986446,-0.0022752912559347318,-0.5275211365820306,0.001175414399860225,0.8495380461815066,-0.01146853498458749,0.27522444143499425,-0.575075619606839,-0.03017161173568417,0.4040297184650375,-0.6689434198221772,-0.0564424966036541,0.773736079104369,0.756728321219103,-0.030219751356409197,0.6631484804074214,0.8940987829087187,0.0,0.0,0.0,0.0
0.038725719055358925,-0.014300322622466374,0.841070009064454,-0.002241200958926421,-0.5275713881071625,0.001123025340301309,0.8495070019034736,-0.012968288830923175,0.27189155389844843,-0.57900399639214,-0.0275750694293213,0.40312669374438836,-0.6676061321011908,-0.05049611781524685,0.7735242436065048,0.752888751999206,-0.034930171563682756,0.658717611530815,0.8999592299602759,0.0,0.0,0.0,0.0
0.037948175677800525,-0.015797033086606953,0.840962991654204,-0.0021634891043820115,-0.5275871444868304,0.0010397656687504877,0.8494975239366397,-0.014185856147286305,0.2693124508882571,-0.5812109901157075,-0.024344618799253953,0.40116585091806717,-0.6657392256644564,-0.04341956171209788,0.7716008619646019,0.7503787604987119,-0.0384075160096166,0.6548833541622728,0.9035729706933998,0.0,0.0,0.0,0.0
0.03685780293380484,-0.017578430553293563,0.8406296694823676,-0.002041453422986301,-0.5275706764928481,0.0009262012882840173,0.8495081847304203,-0.0151731982894831,0.2676735566198055,-0.5805765188702122,-0.020510221030560143,0.39808658637097183,-0.6633121218546311,-0.035333024058528534,0.7678389608336049,0.7494807417745184,-0.04034946326636565,0.6524341018936497,0.9031660321757236,0.0,0.0,0.0,0.0
0.03543558538649359,-0.01962382072537487,0.8400693399216725,-0.0018784466654228685,-0.5275197223682896,0.0007872225963263988,0.8495403429097358,-0.015967777844440128,0.26696620653054454,-0.5771376123876811,-0.016124213503100327,0.39369247755085973,-0.659977728028632,-0.026353755752494653,0.7622014120840948,0.7501988871653997,-0.040803189438182355,0.6513602104650464,0.8987153727484065,0.0,0.0,0.0,0.0
0.0336520275978143,-0.021902402660866443,0.8393066587840106,-0.001681887955311385,-0.5274264659077118,0.0006317986755861964,0.8495987848057698,-0.016598798595835254,0.26698296221838863,-0.5720910280088344,-0.01126431618338962,0.38766896725622146,-0.6551034722301209,-0.01660931654091327,0.7547531993637027,0.752250004525093,-0.0401738338933056,0.6508464050938916,0.8919385018215775,0.0,0.0,0.0,0.0
0.03147694175098431,-0.024367477347379495,0.8383780146726846,-0.001460866566269716,-0.527285295777672,0.00047099165369848437,0.8496869193369936,-0.017103032713170926,0.26729720665155965,-0.5663100956289996,-0.006045872164849624,0.37963309208269463,-0.6478660752674523,-0.0063006247844088845,0.7456318158203925,0.7552549811293983,-0.0389106993108868,0.6503942476648935,0.8838305969279628,0.0,0.0,0.0,0.0
0.028889652010241403,-0.02695523937709221,0.8373200196023984,-0.0012245795496507218,-0.5270922244543927,0.00031523931962339067,0.8498071475039605,-0.017547845740023573,0.2675706093217331,-0.5604044884499222,-0.0006212526577620298,0.36920624603105495,-0.6374198854760227,0.00427590610807526,0.7350069277593414,0.7588750309539513,-0.03741991021182257,0.6497130876368126,0.8748885279423011,0.0,0.0,0.0,0.0
0.025893021357857354,-0.02958550471618003,0.8361662082443532,-0.000982693602711862,-0.5268467775317343,0.00017385004880913582,0.849959691452407,-0.018031514618579013,0.2676916275642152,-0.5548088995359084,0.004824214997784131,0.35609602011104563,-0.6230323174227492,0.014748972738935079,0.7230902654556222,0.7628609052947378,-0.036094608947317516,0.6486535472961329,0.8653387452225892,0.0,0.0,0.0,0.0
0.022534018772073793,-0.0321643073026529,0.8349401414602178,-0.0007459767723899044,-0.5265548993911141,5.4898735472992e-05,0.8501407991809342,-0.018659073323111036,0.2678169456116405,-0.5498399696783511,0.01008137517127795,0.3402317459796306,-0.604321847628164,0.024713544157774978,0.7101369297995674,0.767141041360762,-0.03536746966680305,0.6472330530708869,0.8552905398651175,0.0,0.0,0.0,0.0
0.01893304784585295,-0.034590102273149355,0.8336266515307029,-0.0005267325588974925,-0.5262132686219917,-1.6080895655267748e-05,0.8503524670513843,-0.01952161721623824,0.26830205501489696,-0.5457808127347336,0.014896874297696747,0.3220738731417407,-0.5819626229107534,0.03387841402282189,0.6962771189776156,0.7720579255972776,-0.035609223987645905,0.645729183051084,0.8448458519233774,0.0,0.0,0.0,0.0
0.015349272996693003,-0.03679819333539041,0.8321529410503543,-0.00032599784781157373,-0.5257513325925268,-6.605263376272313e-05,0.8506382460480101,-0.02073715817281166,0.2692678097590353,-0.5424253879726221,0.01920519494974344,0.3034608513947382,-0.5596628664309259,0.041879174229766905,0.681550164357878,0.7783198288568262,-0.03738651802486947,0.6446835121838445,0.8340258459613941,0.0,0.0,0.0,0.0
0.012198685415918419,-0.03871853273603357,0.8305819659687917,-0.00016754581664096867,-0.5252293494106035,-8.47789673327491e-05,0.850960689608304,-0.02218475201073938,0.27091740456937513,-0.5394666176412588,0.02289282039865131,0.2871312917535833,-0.5415000589917479,0.04873372529482005,0.6671510331230815,0.7857587227345603,-0.04112663185355456,0.6447596310571361,0.8229277702233296,0.0,0.0,0.0,0.0
0.009702490667064988,-0.04017974054958989,0.829090767614349,-5.5407939261935054e-05,-0.5247254531478777,-7.458249199353139e-05,0.8512715137875616,-0.023869093392966785,0.2729251633845815,-0.5375140036376957,0.025643027380267844,0.27431025865409914,-0.5285332356677196,0.053872659774511715,0.6544244124018632,0.793569898130202,-0.04720623883767001,0.6455720718660269,0.8115153163633428,0.0,0.0,0.0,0.0
0.00817955930766071,-0.041034787261647575,0.8279885170255578,3.5092594287865707e-06,-0.5243454041798663,-5.255605605823661e-05,0.8515056631291413,-0.02526479364541028,0.2743817675007383,-0.5369087102015498,0.027221188507053268,0.26671177228145093,-0.5220207122696484,0.05684085087967703,0.6456227989794535,0.7998054194763009,-0.05378467911078456,0.6471039925505692,0.8003340774991219,0.0,0.0,0.0,0.0
0.008106465674010493,-0.04124618715370854,0.8279052621027471,0.0001656152027230399,-0.5243635691881392,-3.913971250663948e-05,0.8514944617247743,-0.025272923315414454,0.2744221490080951,-0.5369123746333988,0.02743845970777713,0.26650171351408886,-0.5220206447854923,0.05688684527445892,0.6454461325482592,0.799718253681653,-0.05380250572848175,0.6471557998478222,0.8003482839955116,0.0,0.0,0.0,0.0
0.008106465672598382,-0.04124618715331972,0.8279052621041535,0.00016561519726445112,-0.5243635691902918,-3.9139712143074815e-05,0.8514944617234497,-0.025272923315806092,0.2744221490139484,-0.5369123746364416,0.027438459708281716,0.26650171357381797,-0.5220206448779813,0.05688684526782018,0.6454461325563674,0.7997182536992259,-0.05380250573909915,0.6471557998471288,0.8003482840079081,0.0,0.0,0.0,0.0
0.008106465672598382,-0.04124618715331972,0.8279052621041535,0.00016561519726445112,-0.5243635691902918,-3.9139712143074815e-05,0.8514944617234497,-0.025272923315806092,0.2744221490139484,-0.5369123746364416,0.027438459708281716,0.26650171357381797,-0.5220206448779813,0.05688684526782018,0.6454461325563674,0.7997182536992259,-0.05380250573909915,0.6471557998471288,0.8003482840079081,0.0,0.0,0.0,0.0
0.009657400144099788,-0.04234324180378445,0.8288310012160258,0.0002843980266413984,-0.5251317296312165,-5.2585930925063014e-05,0.8510209062573076,-0.023160640118301913,0.28039441250955127,-0.5388765163512447,0.02957532388192176,0.276586331604969,-0.5322481206574944,0.061442427270894676,0.6552516674200732,0.7902216494308848,-0.05024016423037761,0.6557339815942771,0.797649791357159,0.0,0.0,0.0,0.0
0.012726803842714216,-0.04448719866421631,0.8314620698832047,0.0005140844534258782,-0.5267805738191952,-0.0005425296143745825,0.850000981426205,-0.018038325063111364,0.29051587902144477,-0.5354484128422842,0.0347283695845424,0.29466978125735993,-0.5458951880387451,0.06866001163424715,0.6798290677384379,0.7640040436297868,-0.045041656666363124,0.6767234129840319,0.7838665551441136,0.0,0.0,0.0,0.0
0.015601370229912368,-0.046741300916200074,0.8330260259874365,0.0007404949841063553,-0.5267231002930556,-0.00037457679983518934,0.8500365209666413,-0.014124017591969738,0.3054081987555947,-0.5541506001681994,0.03414033462384727,0.2900363513078096,-0.5400542518318147,0.06179578775298603,0.6703496546928481,0.7909244947213895,-0.03563317937327873,0.6899542167978908,0.7748937305216067,0.0,0.0,0.0,0.0
0.018920328706933512,-0.0491205937650111,0.8341768424306496,0.0009159694895990727,-0.5266604233518757,-0.0003429983729987237,0.8500751977483129,-0.009586922316685677,0.3235177942085264,-0.579591440247169,0.03242297007805012,0.28494667100284315,-0.5392456767631193,0.05398350685843674,0.6643591304943584,0.8113724813814198,-0.025816031176806566,0.7018524547915164,0.770079951941088,0.0,0.0,0.0,0.0
0.022579235575277728,-0.0514574472477287,0.8350567993428528,0.0010777506136916614,-0.5265566476894277,-0.0004088749737572844,0.8501392639144145,-0.004870638236066351,0.3437686905120787,-0.6095038770796769,0.029957238832074545,0.2810139988835549,-0.5413923467946773,0.04807936460994181,0.6614978155900705,0.8275104556357539,-0.016276067326530412,0.7130243869631545,0.7673671679181153,0.0,0.0,0.0,0.0
0.026082801412974595,-0.053791599094885525,0.8359324510800679,0.0012823338740076714,-0.5266005348202082,-0.0005347422649925223,0.8501117258323263,-1.7288986846200963e-05,0.36149415813839963,-0.6338799709051088,0.027808626833345885,0.27846435908297745,-0.5450999097537367,0.0446541964933321,0.6602313142833752,0.8411960426389972,-0.006933840589816389,0.7242580663892105,0.764730933507684,0.0,0.0,0.0,0.0
0.029222176408708944,-0.05610826373671943,0.8368743065116278,0.0015192183159919127,-0.5267569101420245,-0.0006976948508675463,0.8500143309469732,0.00488820226851015,0.37587250175488773,-0.6515014630244431,0.02616971208362258,0.2767947646149253,-0.549732246194074,0.04308430428581886,0.6594825104696513,0.8533190623162337,0.0022972460033423535,0.7354539256556125,0.7613243460238823,0.0,0.0,0.0,0.0
0.03190388782290554,-0.05837558210916848,0.8378483188648688,0.0017611782836069237,-0.5269513848667227,-0.0008713842623642646,0.8498931561835075,0.009734045688166477,0.38697942614303926,-0.6632554821277986,0.024912891115099176,0.2754134841860631,-0.5549617922156377,0.04264107557717674,0.6586748241549782,0.8643439663892725,0.011489561165898683,0.7460975018963147,0.7572741326187644,0.0,0.0,0.0,0.0
0.034108846706677506,-0.06055040201797837,0.8388046627236802,0.001989029652321654,-0.5271378338480182,-0.0010387739026423278,0.8497768347253534,0.014400115650287267,0.39514407440202176,-0.6702816269120722,0.023826766819153238,0.2739236532052918,-0.560546362559892,0.042713852808198664,0.6576273599222168,0.8745590586825304,0.02054887896562204,0.7557693635612588,0.7529521531470966,0.0,0.0,0.0,0.0
0.03586069444931467,-0.06258713547222496,0.8397013287837383,0.002191147909384664,-0.527293325662484,-0.0011898418517414587,0.8496796642611877,0.018772482881924492,0.40079557331447435,-0.6736707785837341,0.02271364601040673,0.27214777333060414,-0.566272417084245,0.0428743308743237,0.6563393949602075,0.884137098261094,0.02928369664814994,0.7642178355980306,0.7487068763898899,0.0,0.0,0.0,0.0
0.037203607458066335,-0.06444487252459093,0.8405049256903252,0.002360926245433814,-0.5274085424732075,-0.001318819978450968,0.8496075070686552,0.022754814767141206,0.40438890904943886,-0.6744105567693167,0.021429426933656924,0.2701157013553664,-0.5719027136848458,0.04282592979467797,0.6548956841501073,0.8931128327999257,0.0374790489182649,0.7713098861331598,0.7448333659495671,0.0,0.0,0.0,0.0
0.038187617807706346,-0.06609161550462828,0.8411855823125941,0.002494463948352069,-0.5274808792261464,-0.00142217416173606,0.8495620501888461,0.026274909413786775,0.40635863584338927,-0.6733806750216762,0.019894232209258875,0.2680573637408174,-0.577111140071235,0.04231729393355949,0.6534507226012451,0.9013159093021883,0.044949851506322296,0.7769635228404287,0.7416178784538743,0.0,0.0,0.0,0.0
0.03885905464845195,-0.06750642123564156,0.8417124980184961,0.0025889958540668196,-0.5275107358649392,-0.0014973094854098042,0.8495430999731578,0.029287327422908595,0.4070846290753559,-0.6713438086727376,0.018088046354393685,0.26637434405598986,-0.5813974358797908,0.04106239168560082,0.6522675177444716,0.9082473202289971,0.05157262705309375,0.781096462636326,0.739384273170883,0.0,0.0,0.0,0.0
0.03925420416846427,-0.06868046262795596,0.8420542492734711,0.002642259003727498,-0.5275005187823946,-0.0015420323027266285,0.8495492000396676,0.0317739079023045,0.40685838848610817,-0.6688999194161309,0.016034451879861425,0.2655235085276363,-0.583986158180287,0.03870795691637552,0.6518115196692564,0.9128736657702737,0.057298310524483496,0.7836108788384785,0.7384934408476488,0.0,0.0,0.0,0.0
0.03939503519233375,-0.0696170411462165,0.8421901128724092,0.0026540279022998986,-0.527457165292881,-0.001556422191000798,0.8495760545513601,0.03374390852951509,0.40583534346877237,-0.666348906140427,0.01376879851553733,0.26572708884442653,-0.583757879919539,0.03492800986955078,0.6528713944589027,0.9134218298234907,0.06212997187847227,0.7844461197772706,0.7392253854277904,0.0,0.0,0.0,0.0
0.03928525405990837,-0.07032744557702082,0.8421240605475898,0.0026260999349712764,-0.5273853506222571,-0.0015417796221894307,0.8496207497841416,0.03522159965296136,0.40401008699589513,-0.6636332617277592,0.011314325905803148,0.26700804203931394,-0.5807337813630766,0.02975638356792782,0.6554248400390532,0.9098835099765377,0.06609538184499757,0.7836337301958413,0.741589584455686,0.0,0.0,0.0,0.0
0.0389130708483131,-0.07082985576641715,0.8418846812324785,0.0025617338714184847,-0.5272865360538207,-0.0015005071956179733,0.8496823494071716,0.036243931952952,0.4012339853329385,-0.6603720602644355,0.008669725004388278,0.26920110603875563,-0.5760904345985998,0.02356989014510607,0.6586486112190914,0.9040233814122367,0.06923891703012831,0.7813005032817768,0.7453184929124528,0.0,0.0,0.0,0.0
0.038259786375136294,-0.07115071221455888,0.841510630157951,0.0024645746849129937,-0.527164733271572,-0.0014367654006444575,0.8497583218607032,0.03686677393102044,0.39727049480637117,-0.6559768210129794,0.005807449341443046,0.2719347550890731,-0.5706864806424375,0.016738539112636685,0.662060327285231,0.8968927162120361,0.07163727739913771,0.7776182229019273,0.7500525057323307,0.0,0.0,0.0,0.0
0.037307802389049155,-0.07132201782776626,0.8410382866931964,0.002336647514476539,-0.5270246126222845,-0.0013542995053471025,0.8498457293189005,0.037158661034925246,0.3918689128397521,-0.649834491294527,0.0026861749057813028,0.27493876105554527,-0.5651386952496666,0.00950885877841735,0.6654103727519844,0.8890499203372417,0.07341318441997648,0.7727541151508039,0.755466778734676,0.0,0.0,0.0,0.0
0.03605044538942029,-0.07137817875220112,0.8404999949977214,0.0021784300037523754,-0.5268734758163673,-0.0012562715465214457,0.8499400077097795,0.037194753271228384,0.38482627399130515,-0.6414053619002452,-0.0007412957218261664,0.27817970891492066,-0.5599414954395762,0.001986632556660306,0.6686150683572625,0.8807886630234458,0.07472367202802277,0.7668885658335546,0.7612885022210963,0.0,0.0,0.0,0.0
0.03450515063095678,-0.07135247806629347,0.8399261626941855,0.0019891277861832433,-0.526725531922225,-0.0011449058085177685,0.8500323209046753,0.037049106554196735,0.37606170463087335,-0.6303160606418877,-0.004513514218148572,0.2819053256499584,-0.5555876522511297,-0.005881277381700414,0.6717665943461532,0.8722990892456666,0.07574729738703256,0.7602667944470554,0.7672780360894265,0.0,0.0,0.0,0.0
0.03273188047482581,-0.07127260946379635,0.8393458173688664,0.0017665795784235683,-0.5266087129675077,-0.0010204554992000604,0.8501053471740267,0.036784109491135614,0.36572929270991267,-0.6165146213440952,-0.008626919928514972,0.28665779567979477,-0.5527016339398858,-0.014373739650106403,0.6752189575927935,0.8637938499796247,0.07667568749820364,0.7532594611995808,0.7732360593082599,0.0,0.0,0.0,0.0
0.030858340872059326,-0.07115570330018936,0.8387767652381677,0.0015065829719481962,-0.5265747439787347,-0.0008782504438094629,0.8501270480861296,0.03643623268833619,0.35440185450851536,-0.6005787616942675,-0.012975903753557082,0.29327051144759786,-0.5522084011901063,-0.024096895216317346,0.6797470015517493,0.8556206624694133,0.07772336301411478,0.7463916234245435,0.7791366350290483,0.0,0.0,0.0,0.0
0.029177576197216355,-0.07096632060335659,0.8381705960451024,0.0011878951841283068,-0.5265989524764288,-0.0006954097343296543,0.850112726972759,0.03593294776646018,0.34423081064676786,-0.586467803607886,-0.017522226301486525,0.30249243032472856,-0.5553109124517952,-0.036263870740870854,0.6866182693626557,0.8481817393284558,0.0790447714678636,0.7400824210759114,0.7852795080508197,0.0,0.0,0.0,0.0
0.02801311607020487,-0.07071528322696029,0.8376329885918395,0.0008314617423608061,-0.5268300855771917,-0.00048813728221015686,0.8499700767227594,0.03531599868225344,0.3369860694851851,-0.5759605054133148,-0.02165999719175876,0.31541112755464423,-0.5645555570942253,-0.05115870558686187,0.6967158532654545,0.8419912638009239,0.08069025375395131,0.7358943821207536,0.7910607006498425,0.0,0.0,0.0,0.0
0.02754606626871657,-0.07051654195120889,0.8373273823800053,0.00048751482872530413,-0.5273625012577259,-0.000295888858769393,0.8496401985818881,0.03484565815150037,0.33329926231867446,-0.5688807852491972,-0.023894743661263405,0.3322502767952838,-0.5840937894339969,-0.06516556704181191,0.7085405419870391,0.8369768013239535,0.08287057111050265,0.7351457367421631,0.7954336834768676,0.0,0.0,0.0,0.0
0.02749935523910222,-0.0704044027745265,0.8373011138625529,0.0003842771978142919,-0.5273782389983022,-0.0002993168496610062,0.8496304818987537,0.03473473316121689,0.33321261017664133,-0.5688875190590024,-0.023912942903221462,0.33228978720757923,-0.5840927477083272,-0.06516362226383833,0.7085750530347291,0.8369881592147571,0.08285865604786098,0.7350710360010273,0.7954061782120031,0.0,0.0,0.0,0.0
0.02749935523910222,-0.0704044027745265,0.8373011138625529,0.0003842771978142919,-0.5273782389983022,-0.0002993168496610062,0.8496304818987537,0.03473473316121689,0.33321261017664133,-0.5688875190590024,-0.023912942903221462,0.33228978720757923,-0.5840927477083272,-0.06516362226383833,0.7085750530347291,0.8369881592147571,0.08285865604786098,0.7350710360010273,0.7954061782120031,0.0,0.0,0.0,0.0
0.028230922849949408,-0.06987703990227445,0.8376653237714126,0.00028590174978720576,-0.5271882432113516,-0.00018542339229305767,0.8497484569554002,0.033581002064473044,0.3395696442054593,-0.5797075159330992,-0.02515309403924637,0.3362582439716539,-0.5898242543878011,-0.06675356662399602,0.7112533824902714,0.8340324065446082,0.08141367482755661,0.738492686572283,0.7897455185166695,0.0,0.0,0.0,0.0
0.029937078786441047,-0.06885364204808117,0.8389169483423268,0.00023756929228611383,-0.5278572735929872,-0.0001478022560542204,0.8493330444709559,0.03149725687416534,0.3499845095768674,-0.5894788078581567,-0.0273065939811837,0.3424639020748934,-0.5912615441508215,-0.0722225797883262,0.7226400814657115,0.8261765031140194,0.0775659270914102,0.7506049433039796,0.776286473952258,0.0,0.0,0.0,0.0
0.031248176801814555,-0.06802964942716413,0.8396756116652048,-0.00040136188149910703,-0.5272070560216701,0.0002582649112036358,0.8497367193953898,0.027286558292968707,0.3320900763893884,-0.5659600028296224,-0.02921134817339734,0.3498730464865092,-0.6024203856346749,-0.07064734149344845,0.7266148588702532,0.8182804283621786,0.06056493157452618,0.7289654022749757,0.8019392079642012,0.0,0.0,0.0,0.0
0.03304373576536139,-0.06732140131342468,0.8404231893364781,-0.0009303952275911797,-0.5267754084198731,0.0006068487692960893,0.8500037853935519,0.021359409647803473,0.3180192345647244,-0.5536904668666758,-0.030904104997137714,0.3602159307732351,-0.61757300044977,-0.06965833856973876,0.7323996608891821,0.8107356863922229,0.04338307550763715,0.7127743126321814,0.819954575160183,0.0,0.0,0.0,0.0
0.03492266094267209,-0.06671964358178631,0.8411758278885626,-0.0013116332491090994,-0.526624937295086,0.0008227855581211302,0.8500963345769067,0.015198138290011966,0.30800664393350086,-0.5490691522016224,-0.03226592316245517,0.3704795421315204,-0.6313935710108003,-0.06983599786098899,0.7394600334174551,0.8036642412262437,0.029213192359928187,0.7018010850517475,0.8336361439420628,0.0,0.0,0.0,0.0
0.03668355290968497,-0.06626099306214332,0.8419285523584521,-0.0015897023207178047,-0.5266593719931333,0.0009551519511081961,0.8500743887584663,0.009616794571582927,0.3009377574952853,-0.5489025310469949,-0.03326219598522519,0.3797014860262466,-0.6427466036706506,-0.07038167060501385,0.746976603060317,0.7967310530472631,0.01789398366518773,0.6942913391871256,0.8450045000026714,0.0,0.0,0.0,0.0
0.038197016914371544,-0.0659726276381652,0.8426509424373874,-0.0017984339977303518,-0.5267827362219477,0.0010422952108853811,0.8499974282751489,0.004866404836732077,0.2957404740127768,-0.5513385041516258,-0.03387254523502327,0.3874354209752012,-0.6514804507687363,-0.07066887432768637,0.7541766263229271,0.789908265693178,0.008492077454580318,0.6887065210382818,0.8550369427465301,0.0,0.0,0.0,0.0
0.0393937111278701,-0.0658794904588185,0.843317078637388,-0.0019579482318318174,-0.5269373264226238,0.0011042839748430153,0.8499011713241732,0.0009238874572651991,0.29157743757700844,-0.5552882916962535,-0.03406113299676167,0.39351057903844033,-0.657713928415323,-0.07027644666501096,0.7605624702496815,0.7832712280494176,0.0002701895748937868,0.6840307591111852,0.8642401155302873,0.0,0.0,0.0,0.0
0.040246013521646,-0.0660062827451788,0.8439081822102454,-0.0020772895312409015,-0.5270916755035728,0.0011474827310204811,0.8498051151684259,-0.002326116928337115,0.2878505805644541,-0.5600880101612524,-0.03377875488572763,0.3979344168101251,-0.6617152844528016,-0.06894480608562434,0.7658596718185179,0.7769058774404585,-0.00718548972569219,0.6796653795276669,0.8728903706249758,0.0,0.0,0.0,0.0
0.040751531388730576,-0.0663767059942985,0.844408305174652,-0.002159141215379631,-0.5272295128434272,0.0011711970259614419,0.8497193696707289,-0.005004234021329614,0.2841938786075161,-0.5652903743993889,-0.032972810439413046,0.40081529586625164,-0.6638337930838683,-0.06652079843095794,0.7699256553182968,0.7709054487041959,-0.014043979433906846,0.6753023772408002,0.8811139686096051,0.0,0.0,0.0,0.0
0.04092041585767921,-0.06701184221286534,0.8447994828266613,-0.0022032936512277335,-0.5273425134273195,0.0011723351835435125,0.8496491303234891,-0.007207842807619982,0.2804755951721912,-0.5705251666974545,-0.0315961564676769,0.4023039346071499,-0.6644505931788894,-0.0629193466548041,0.7726705386114158,0.7653983587087829,-0.02031715265506579,0.670831800132034,0.8888907401467102,0.0,0.0,0.0,0.0
0.04076637987121341,-0.06792826683113586,0.8450580505142724,-0.002208471462028585,-0.5274260618960789,0.00114777141467095,0.8495972896068905,-0.009013278725203883,0.2768006086974526,-0.5753866722357609,-0.029613416357611812,0.40255108419135405,-0.6639416069655256,-0.05810568720133448,0.7740005213316713,0.7605810272627357,-0.025901907225519247,0.6662965585172642,0.896001336858952,0.0,0.0,0.0,0.0
0.04030062594403544,-0.06913584424542175,0.8451530928084363,-0.0021728832482633942,-0.5274773971320904,0.0010949215591586226,0.8495655803055604,-0.010488241532995863,0.27348198629600934,-0.5793257281562275,-0.027005553376343264,0.4016747156982259,-0.6626389487209465,-0.052096061808217436,0.7737872689418139,0.756738750800936,-0.030583749641223457,0.6619023535329374,0.9019098799480176,0.0,0.0,0.0,0.0
0.03952777038883278,-0.07063517839176642,0.845049503899808,-0.002094410827233184,-0.5274955316806683,0.0010116786067130394,0.849554620967135,-0.011698286181988912,0.2709187701662204,-0.5815398714783694,-0.02377410504559317,0.3997278571463568,-0.660766626118473,-0.044965414605183614,0.7718722428179796,0.7542224404853737,-0.034047611107903185,0.6580928462837029,0.9055611474225449,0.0,0.0,0.0,0.0
0.03844297507262135,-0.07241565617909004,0.8447214877861864,-0.0019723655484897486,-0.5274827864100591,0.0008985728066379445,0.8495629537486521,-0.012695268130785416,0.26929632287410055,-0.580905632649486,-0.019946839817048444,0.39665541104458374,-0.6583036627937277,-0.03682924862894517,0.7681303088477076,0.7533116239299742,-0.03599200933124049,0.6556552677690173,0.9051750826863135,0.0,0.0,0.0,0.0
0.03702841237747125,-0.07445810377580046,0.844167919666818,-0.001809799008247143,-0.527436541333801,0.00076039177695131,0.8495921617445237,-0.013513375486466247,0.26860729446274695,-0.5774618287862124,-0.015573125435417392,0.3922720043059834,-0.6549256322401512,-0.027799456201808348,0.7625241913591261,0.7540105041660471,-0.036461875732838434,0.6545826072741643,0.9007299035597947,0.0,0.0,0.0,0.0
0.03525632604714738,-0.0767336529173818,0.8434127434457195,-0.0016135501008393853,-0.5273482317208082,0.0006059743710521055,0.849647498526342,-0.014175402891089825,0.26864772921665303,-0.5724120056177926,-0.010727068364827773,0.386278690744836,-0.6500337157354746,-0.017997848570570026,0.755116821121497,0.7560382950650282,-0.03585734464878491,0.6540659763591031,0.8939517512896139,0.0,0.0,0.0,0.0
0.03309842787679129,-0.0791977407131836,0.8424915384315227,-0.001391970938487057,-0.5272110090709237,0.00044621899371015465,0.8497331435338593,-0.014709495796192558,0.2689947675213391,-0.5666385123203621,-0.005519938155376734,0.37831035466613466,-0.6428454714767402,-0.007620315492541722,0.7460424759704422,0.7590176488707061,-0.03462323490376432,0.653615118343576,0.8858427387297076,0.0,0.0,0.0,0.0
0.030535552965356802,-0.08178854635198998,0.8414403284110814,-0.0011534716886571564,-0.5270193882173012,0.0002913770010165131,0.849852427804715,-0.015173482311359952,0.26931372610464815,-0.5607616164922161,-0.00010014898241501608,0.36800475119679216,-0.6325548223365509,0.003039383870999949,0.7354679309278471,0.7626083994847298,-0.03316211695412783,0.6529467025908677,0.8769043279765328,0.0,0.0,0.0,0.0
0.027571108160156666,-0.08442734764177255,0.8402927912704421,-0.0009069190198865232,-0.5267713246580993,0.0001504897760689967,0.8500065448975497,-0.01565631098870144,0.26949650392620583,-0.5552288639238494,0.005350169452509816,0.35508052831903203,-0.6184585797956262,0.013608109290861575,0.7236046389364733,0.7665526349457424,-0.031862242630967604,0.6519148862543398,0.8673661046970405,0.0,0.0,0.0,0.0
0.02425107304506888,-0.08702081582785068,0.8390743684250661,-0.0006624301249702536,-0.5264715993592258,3.1224555402415835e-05,0.8501924577879384,-0.016255532956873396,0.26970356692318953,-0.5503703867127676,0.010623851458695441,0.33946787484678004,-0.6001799615302741,0.023673847171003563,0.7107156792987608,0.7707540183739013,-0.03114365156731165,0.6505350865318265,0.8573408786025574,0.0,0.0,0.0,0.0
0.020692926642334002,-0.08946745298577505,0.8377753887471603,-0.000432863824900746,-0.5261159440626563,-4.107378396092058e-05,0.8504127376426774,-0.017057063705608406,0.2702884680972386,-0.5464662087748139,0.015469089152396412,0.3216145612329965,-0.5783597093358935,0.03294308575655747,0.6969555270611888,0.7754918963818058,-0.031334739764487266,0.6490807618709129,0.846927713223363,0.0,0.0,0.0,0.0
0.01711815592259769,-0.09168832923433927,0.8363398419005613,-0.00021958874976250233,-0.5256490139539195,-9.381593031923514e-05,0.8507015088199998,-0.018248818314999197,0.27142438947837355,-0.5434306441392979,0.019791216560704157,0.3030183060210844,-0.5559813370455033,0.04097833754354124,0.6824064870995339,0.7813861529587136,-0.03301827945845356,0.6479962472169289,0.8361689277567677,0.0,0.0,0.0,0.0
0.013980025259174167,-0.09362695719495592,0.8348235388102808,-5.0173943981731605e-05,-0.5251286536732889,-0.00011853912259843613,0.8510228437135696,-0.019653092048982454,0.2733292818599714,-0.5407984913962478,0.02351264942952343,0.2866982251665977,-0.5376313801879213,0.04787685660340021,0.6683070561666109,0.7882905606867925,-0.03646491825730449,0.6481078450612715,0.8252072534586425,0.0,0.0,0.0,0.0
0.01150037027545471,-0.09510997461786062,0.8334019732900603,7.151476884872941e-05,-0.5246368407130719,-0.000119130519361115,0.8513261220355945,-0.02128772636755598,0.2757491047142473,-0.5392810401428593,0.026315709778942268,0.27387366128945234,-0.5243464196547932,0.05305193267830714,0.6560014517346456,0.7954427139074384,-0.04205359819944571,0.6490208887254901,0.8140812917386304,0.0,0.0,0.0,0.0
0.009995939354745059,-0.09598485850384353,0.8323659923353691,0.00013631947688278462,-0.5242747680701043,-0.0001103100721332819,0.8515491394004967,-0.0226439810457272,0.27778383835608894,-0.5393695736577843,0.027952701576558905,0.266278837951685,-0.5175095279363783,0.05604471167482401,0.647624653253064,0.8010777968058584,-0.04809157238547075,0.6506455132417155,0.8033626710420261,0.0,0.0,0.0,0.0
0.009922760515910853,-0.09619743333231989,0.832283789633953,0.000299317024058968,-0.5242926232470303,-9.729028321318423e-05,0.8515381061072178,-0.022651954583745283,0.2778243361164441,-0.5393736178012818,0.028171430106018334,0.26606960409680863,-0.5175093744825318,0.05609029993150633,0.647448531243474,0.8009910172952291,-0.048108773469190604,0.6506972336544059,0.8033768850170743,0.0,0.0,0.0,0.0
0.009922760514745053,-0.09619743333200709,0.832283789635123,0.00029931701948251603,-0.5242926232488513,-9.729028291405335e-05,0.8515381061060984,-0.02265195458396547,0.2778243361213409,-0.5393736178037257,0.028171430106586605,0.266069604146278,-0.5175093745590575,0.05609029992619674,0.6474485312502104,0.8009910173097619,-0.04810877347818391,0.6506972336538988,0.8033768850273658,0.0,0.0,0.0,0.0
0.009922760514745053,-0.09619743333200709,0.832283789635123,0.00029931701948251603,-0.5242926232488513,-9.729028291405335e-05,0.8515381061060984,-0.02265195458396547,0.2778243361213409,-0.5393736178037257,0.028171430106586605,0.266069604146278,-0.5175093745590575,0.05609029992619674,0.6474485312502104,0.8009910173097619,-0.04810877347818391,0.6506972336538988,0.8033768850273658,0.0,0.0,0.0,0.0
0.01145589270392882,-0.09726708147803989,0.8332033148786698,0.00041344996356621725,-0.5250538648368049,-0.00011125063991738982,0.8510688901037078,-0.02058710979793501,0.2836903907218717,-0.5412155085017437,0.03025633841074443,0.2760030925811293,-0.5275204542451647,0.060557217488931295,0.6571706270720602,0.791579527844115,-0.04454695687716791,0.6592797872782191,0.8005218623044578,0.0,0.0,0.0,0.0
0.014488855581805748,-0.09935173822272142,0.8357963740727458,0.0006481327834709087,-0.5266960923449218,-0.0006087193147084227,0.8500531958020513,-0.015574793665180057,0.2936140207074531,-0.5376117996828258,0.03529212735934716,0.29377263932640824,-0.5407941385287839,0.06746614820376974,0.6814725735291388,0.7658446883795058,-0.039510152330767295,0.6801064787537833,0.786722430457343,0.0,0.0,0.0,0.0
0.017334883967568045,-0.10154526796562809,0.8373288668119387,0.0008559995367071017,-0.5266482908745107,-0.00043920030178397297,0.8500827324953995,-0.01175628638493988,0.3083227841853212,-0.5560730506811049,0.03466646999159511,0.2897611358617619,-0.5363200826828555,0.06050642868464765,0.6721013007698523,0.7924968926254601,-0.030134826132493096,0.6932558627520518,0.7777702157028437,0.0,0.0,0.0,0.0
0.02062172748570874,-0.10384365763187733,0.8384782104956554,0.0010198290219552793,-0.5265921884423258,-0.00040727910859793975,0.8501173219879804,-0.007359396454701405,0.32622124578517375,-0.5811234870508695,0.03283694161134731,0.28509031224155007,-0.5363103075843673,0.052610576316900276,0.6661433645112709,0.8128398933236939,-0.020468453394779283,0.7052374733554454,0.7725780218316922,0.0,0.0,0.0,0.0
0.02424220151647262,-0.10609396621242538,0.8393565105805424,0.0011718071199571108,-0.5264886144162726,-0.00047069644786658783,0.8501812419731225,-0.0028017184320256287,0.34626815428855706,-0.6106996186786013,0.03023954528377414,0.2813809666905722,-0.5389087105278827,0.04661815726028799,0.6632607961203811,0.8289372974550506,-0.011110477376986378,0.7164758067409494,0.7694459285307195,0.0,0.0,0.0,0.0
0.02769761843625635,-0.1083474413754901,0.8402312770654871,0.0013703610064192673,-0.5265376844732803,-0.0005960366296582285,0.8501504770807132,0.0019009547377386192,0.3637296959134356,-0.6346144554095312,0.027976234118302884,0.2789351183825492,-0.5428683899915764,0.043080716393642395,0.6619433452846256,0.8426121827542956,-0.001965321016543061,0.7277513630687262,0.7664314994621587,0.0,0.0,0.0,0.0
0.03078648924104915,-0.110590630819428,0.8411674998787338,0.0016016751907024977,-0.5266956230145602,-0.0007585723919061134,0.8500521042276256,0.006665990482741803,0.3778615752355752,-0.65185262154891,0.026229737654020847,0.27728593939480783,-0.5476367947170294,0.041375696244597866,0.6611258877125488,0.8547361040116118,0.007081974970909677,0.7389320220044898,0.7627312795531107,0.0,0.0,0.0,0.0
0.03341999342791083,-0.11279228246855899,0.8421320659014924,0.0018382245446362223,-0.5268890147104883,-0.0009315754315771648,0.8499315968212674,0.011383567211843922,0.38875193763815535,-0.6633090009497008,0.02487247019648899,0.27588244190036215,-0.5529298311510246,0.04078503265070081,0.6602543873729556,0.8657707636898095,0.016108559149752226,0.749518991184446,0.7584701351951411,0.0,0.0,0.0,0.0
0.03558174170791922,-0.11490969649103927,0.843077318782493,0.0020609587094197303,-0.5270730498825492,-0.0010980290621868734,0.8498167725273986,0.015935504523684092,0.39673291815438005,-0.6701086580989962,0.023695282591958373,0.27435398525789434,-0.558534042359275,0.040711536219951605,0.6591558551252029,0.8760031599493509,0.025022449924574718,0.7591141334407099,0.7540007699327839,0.0,0.0,0.0,0.0
0.037296799656148835,-0.1168977232356379,0.8439630572499073,0.0022584736466918667,-0.5272256882838807,-0.0012480682211226492,0.8497213750613144,0.020209730398676642,0.4022335917696228,-0.6733273884928008,0.022502984067356447,0.2725371451921582,-0.5642550089690785,0.04073767213654364,0.6578299234025189,0.8856034793929444,0.03363430330363178,0.7674825606108161,0.7496525574586186,0.0,0.0,0.0,0.0
0.038609982145569315,-0.11871582602698598,0.844757052496179,0.0024243559651290353,-0.5273381277087338,-0.0013761034865896152,0.8496509447426017,0.02411147683228689,0.40570749803973494,-0.6739407640901314,0.021153504408862052,0.2704684593698627,-0.5698683934913709,0.040573465846414164,0.6563591151895193,0.8946032624816375,0.04173151361132025,0.7745023969966708,0.7457061933549338,0.0,0.0,0.0,0.0
0.03957148655611934,-0.12033225418112485,0.8454300417939433,0.002554845143301042,-0.5274080065707993,-0.0014787520543998616,0.8496070154275275,0.027569661678946738,0.40758721903565626,-0.6728199135857078,0.01956835112835489,0.26838050191076146,-0.5750569342301836,0.03997108306743641,0.6548951510607429,0.9028288063954678,0.04913129835234421,0.7800981759623958,0.7424384499499446,0.0,0.0,0.0,0.0
0.04022752356105909,-0.12172615714817528,0.8459514391144126,0.0026472737886439382,-0.5274357757636468,-0.0015535313705032634,0.8495893601772382,0.030539471310587922,0.40825063708981923,-0.6707220374974755,0.017728344511617786,0.26667536692440186,-0.5793264745184565,0.0386466122962285,0.6536983082549424,0.909777522069201,0.055712055832436234,0.7841907401500582,0.740167554037234,0.0,0.0,0.0,0.0
0.040614101193086206,-0.12288864613725081,0.8462897866527542,0.0026994495765400544,-0.5274237448695939,-0.0015983199634965668,0.849596581733361,0.033002889309915635,0.40798754096856915,-0.6682443088339046,0.015657483728460164,0.26580922354952363,-0.5819055708620283,0.036248639043498,0.6532315841838638,0.9144117516374339,0.061425923415192284,0.7866830162063551,0.7392514248891484,0.0,0.0,0.0,0.0
0.04075286465019036,-0.12382282374219368,0.846424220918078,0.002711193014554579,-0.5273786529083149,-0.0016132251756010455,0.8496245072934171,0.03496885934593766,0.4069520730562859,-0.665685878773656,0.01339112856990339,0.2660029504299373,-0.5816766715876297,0.03245256936645211,0.6542820797425767,0.9149535701034835,0.06627632525032565,0.7875137325205495,0.7399685000325911,0.0,0.0,0.0,0.0
0.040647235119272415,-0.12453968562372633,0.846358647365784,0.0026843017824288427,-0.5273051072268885,-0.0015995416628400102,0.8496702653870201,0.03646101177183087,0.4051375384549658,-0.6629878884103942,0.010952053318712523,0.26727890441574637,-0.5786606002985026,0.027291127166182216,0.6568272050876708,0.9113951637685624,0.07029035364200785,0.7867137536190925,0.742327240412935,0.0,0.0,0.0,0.0
0.0402851869882344,-0.1250570100592376,0.8461216540039682,0.0026219870129245066,-0.5272046167556932,-0.0015596316627982955,0.8497328902688557,0.037515317300418446,0.40239413458935086,-0.659767742247795,0.008338025194278474,0.26947187524178134,-0.5740312666005197,0.021137286905796984,0.6600447079930248,0.9055069123479259,0.07351067334279682,0.7844091844319283,0.7460594641660472,0.0,0.0,0.0,0.0
0.03964777452924506,-0.1254006507907019,0.845751779633408,0.002527843962954684,-0.5270811215288236,-0.0014975757038432171,0.8498098955647831,0.038186141376415336,0.3984849169784469,-0.6554379327532507,0.005520179440313656,0.27220950458631366,-0.5686422882727681,0.014356333701793015,0.6634539936547384,0.8983452360961481,0.07601113045836484,0.7807699551060522,0.7508058189550575,0.0,0.0,0.0,0.0
0.03871705779019642,-0.12560177588178179,0.8452850480022492,0.0024038708708259216,-0.526939056575905,-0.0014170174166207585,0.8498984904807001,0.038539910457343916,0.39315967930206774,-0.649389946828553,0.002455341389952626,0.27521917162703974,-0.5631028090733465,0.007189213513821365,0.6668073018854226,0.890473213779557,0.07791019459240096,0.7759595379792773,0.7562433404014877,0.0,0.0,0.0,0.0
0.037485854555934374,-0.12569363636283257,0.8447531009451161,0.0022505610970236594,-0.5267852863985605,-0.0013210088214944044,0.8499943834781667,0.03864894602816777,0.38621691203653646,-0.641092918625086,-0.0009065859258575244,0.2784624417285567,-0.5578958227099634,-0.00026655702459041884,0.6700227337441181,0.8821896006191781,0.07935898902431561,0.7701520969254109,0.7621031587094689,0.0,0.0,0.0,0.0
0.03597083377760684,-0.12570794449658496,0.844185204632387,0.0020671953406700702,-0.5266332909288725,-0.0012116567972510067,0.8500891926596025,0.03858355937814537,0.3775782620355944,-0.630187667821784,-0.004609065641052821,0.2821773007639178,-0.5534964905277537,-0.008078884683502055,0.673194113692982,0.8736910323031878,0.0805284222100129,0.7635836997657793,0.7681514523420273,0.0,0.0,0.0,0.0
0.034230784972379115,-0.1256702482874084,0.8436088483095787,0.0018517702954306055,-0.526509711674328,-0.0010890776327719984,0.8501664004001209,0.038401182498756535,0.36740160952163103,-0.6166434069431428,-0.008657018870937982,0.2868871978900993,-0.5505006152804041,-0.016554828924690384,0.6766761797241211,0.8651987298795792,0.08160060261140016,0.7566129384930489,0.7741939491418612,0.0,0.0,0.0,0.0
0.03239150913157669,-0.12559446184379391,0.8430405144881256,0.0016004792509545225,-0.5264623974599464,-0.0009487166668760037,0.8501963787640939,0.038131684868120415,0.35626807486326517,-0.601079063263792,-0.01295999276362039,0.2933848291484079,-0.5497814591258355,-0.026357677801694495,0.6812387244281982,0.8570634751348168,0.08277372607029633,0.7497483957332517,0.7801934011509937,0.0,0.0,0.0,0.0
0.030719023142472837,-0.12545169474648918,0.842437876509465,0.0012923909471410208,-0.5264710352600874,-0.0007671996419465691,0.8501917372937241,0.037713313052757144,0.34611444219737003,-0.5870452437522161,-0.017442836913403707,0.30238379948995125,-0.5525480893936632,-0.03869017994521103,0.6880517649624296,0.8497086268996747,0.08423684578833898,0.7433949331026539,0.7864125199906551,0.0,0.0,0.0,0.0
0.029555171096299723,-0.125237057674437,0.8418990755507408,0.0009505672947985026,-0.5266731797619574,-0.0005613267224177312,0.8500671403210206,0.03715717465078774,0.33889032794343893,-0.5767069877658436,-0.021563817904445434,0.3148863913307734,-0.5611634865064737,-0.05399501726492646,0.6980483583795063,0.8436796425218341,0.08595846842970477,0.7391022924153762,0.7922324526967818,0.0,0.0,0.0,0.0
0.029078169631606865,-0.12505758702349234,0.8415901640447172,0.0006302070114336564,-0.5271664654234948,-0.0003723681917570846,0.8497617206687718,0.0367072327725002,0.33520126490787683,-0.5698118588108679,-0.023843529890979483,0.3310643652004132,-0.5796496041480982,-0.06863234735045176,0.7096791593283498,0.8389664519647427,0.08808722568660879,0.7382017945898036,0.7965662607593471,0.0,0.0,0.0,0.0
0.029033178751709618,-0.12495102915672936,0.8415651913026505,0.0005315934227636621,-0.5271810049437622,-0.0003753291238387326,0.849752766728633,0.036601614861516786,0.33511709547922064,-0.5698185602615892,-0.023861734819060232,0.3311037793883093,-0.5796480868746071,-0.06863075530250055,0.7097135361379425,0.8389779077011201,0.08807670462697854,0.7381283372240879,0.7965393100356867,0.0,0.0,0.0,0.0
0.029033178751709618,-0.12495102915672936,0.8415651913026505,0.0005315934227636621,-0.5271810049437622,-0.0003753291238387326,0.849752766728633,0.036601614861516786,0.33511709547922064,-0.5698185602615892,-0.023861734819060232,0.3311037793883093,-0.5796480868746071,-0.06863075530250055,0.7097135361379425,0.8389779077011201,0.08807670462697854,0.7381283372240879,0.7965393100356867,0.0,0.0,0.0,0.0
0.02977277888151264,-0.12443648856741125,0.8419338419309893,0.00041441830887355494,-0.5270151508207571,-0.0002560477287756094,0.8498557486434979,0.035484978155020955,0.3414418142839201,-0.5804563518530631,-0.025064763604452225,0.33508117716534425,-0.5852346627891438,-0.07004911658600753,0.7124680569354992,0.8360117686210004,0.0868452602289664,0.7416697930981483,0.7909344595937164,0.0,0.0,0.0,0.0
0.03148710304305588,-0.12342992914270419,0.8431867661616049,0.0003538448805726505,-0.5276916867278528,-0.00021297542153289516,0.8494358793891296,0.0334390808316175,0.3518554452368187,-0.590186946529249,-0.02718104375700821,0.3413315445242412,-0.5866919744928174,-0.07540659204212966,0.7239020037032593,0.8280925895464578,0.08321728729572149,0.7538609567002154,0.7774988019060748,0.0,0.0,0.0,0.0
0.032802481369108724,-0.12262280925900576,0.8439472892731331,-0.00030772538208576316,-0.5270571553218498,0.00020944129967780386,0.8498297573417106,0.029254031678336165,0.333787218208093,-0.5662789856367756,-0.02905573485837233,0.3487711936576562,-0.5977843376577094,-0.07352812815000838,0.7278855893853795,0.8201733875360965,0.06540820376118894,0.7320888907762458,0.8030838142324512,0.0,0.0,0.0,0.0
0.03460331380527099,-0.12193101528990109,0.8447000375157818,-0.0008574212439238785,-0.5266436224304297,0.000572157860342634,0.8500855441763189,0.023335806975474938,0.3195938056805499,-0.5537049003812333,-0.030716697768399512,0.3591564289922252,-0.6128721999160602,-0.07227800613620394,0.7337186384596222,0.8125701689364268,0.04762229747631341,0.7158279036106048,0.8210588816554888,0.0,0.0,0.0,0.0
0.03648274972613523,-0.12134188188400169,0.8454618718775625,-0.0012533720233405927,-0.5265112251568399,0.0007981868030913127,0.850166878759836,0.01717307227323895,0.30950949325873833,-0.5488965045363882,-0.032052849273063164,0.3694178350511228,-0.6265467588978244,-0.07227837559859661,0.7408538320283335,0.8054034972946895,0.03310691499104085,0.7048179582690652,0.8347352569372658,0.0,0.0,0.0,0.0
0.038241938986496436,-0.1208935657220216,0.8462220590354262,-0.0015404802461607273,-0.5265577677205426,0.0009369940579828452,0.8501374396036829,0.011597731744432465,0.30239232811253275,-0.5486195291350892,-0.033027573396189,0.3786335199402433,-0.637793469015172,-0.07270840136430387,0.748429680880919,0.7983790895113949,0.02163177309051443,0.6972966465579945,0.8461142885223983,0.0,0.0,0.0,0.0
0.03975336371932482,-0.1206140219289741,0.8469489565949682,-0.0017542047408487635,-0.5266884186532431,0.0010279498517020743,0.8500559838865764,0.00686328113240455,0.2971657222885663,-0.5509934189303328,-0.033619433374949284,0.38636626900148024,-0.6464712940123051,-0.07291898697244702,0.7556675384864604,0.7914877689033818,0.012179758002412732,0.6917231042475488,0.856166987055834,0.0,0.0,0.0,0.0
0.04094887591829859,-0.12052858192012576,0.8476171491675611,-0.001916043841643112,-0.5268469815884017,0.0010920049274995424,0.8499572896872087,0.0029442451816342305,0.29299006407748734,-0.5549123518405905,-0.033792161313604165,0.392447986200835,-0.65269082798102,-0.07247253031330766,0.7620737857308388,0.7848062516275618,0.0039564908579504884,0.6870755417964731,0.8653972423356773,0.0,0.0,0.0,0.0
0.041801478859019615,-0.12066200619592457,0.8482087987195155,-0.002036033906711004,-0.5270032068942139,0.0011361608988787236,0.8498600965026873,-0.0002784493726085994,0.28926409842599854,-0.5597017018025857,-0.03349665883858254,0.3968862294981541,-0.6567085492181756,-0.07109914484937611,0.7673800803490063,0.7784156688554658,-0.0034830633023480674,0.682749281687914,0.8740795952621303,0.0,0.0,0.0,0.0
0.04230897661871087,-0.12103783395642513,0.848708867517784,-0.0021175379093896977,-0.5271417649452325,0.0011601536777130592,0.8497739285992902,-0.0029290285458564054,0.28561812756892785,-0.5649070788906986,-0.03268076858022523,0.3997879461819872,-0.6588617638257219,-0.06863994617943742,0.7714495162225418,0.7724034404767673,-0.01032243145443752,0.6784312702491643,0.8823388374699203,0.0,0.0,0.0,0.0
0.04248142515286296,-0.12167689000299177,0.8491001426030073,-0.002160822059000147,-0.5272550671366402,0.0011611864526943553,0.8497035228082724,-0.005107979938053787,0.28191694280839774,-0.5701532172931704,-0.03129790117201541,0.40130155852611193,-0.6595203728596923,-0.06500681682875303,0.7741967366216498,0.7668928929233296,-0.01657918429417208,0.6740072107892112,0.8901534010182527,0.0,0.0,0.0,0.0
0.042332282256706044,-0.12259551149895262,0.8493595320774063,-0.002164963958601258,-0.5273391018969389,0.0011363373320833709,0.8496513951492433,-0.0068943660223630895,0.27826256485117506,-0.5750304182297766,-0.029313121795589474,0.4015752582101518,-0.6590503434412094,-0.06016322512039435,0.7755313561907855,0.7620765444894365,-0.022152355184123788,0.6695158829343684,0.8973023107300812,0.0,0.0,0.0,0.0
0.04187247305305789,-0.12380345051446,0.84945649383568,-0.0021284547573895366,-0.5273916014251001,0.0010831706719693194,0.8496189705791117,-0.00835839445370067,0.2749658661958129,-0.5789860097772433,-0.026707537636862358,0.40072503266287096,-0.6577763371186653,-0.05412383994420064,0.7753274026500644,0.7582371431078613,-0.026828895320029203,0.6651588430968549,0.9032473953650489,0.0,0.0,0.0,0.0
0.04110648005962748,-0.1253014365762131,0.849356036767406,-0.0020493950112142655,-0.5274118946001882,0.0009996815275213134,0.8496066702016712,-0.009567649920861244,0.2724241466378773,-0.5812143100543018,-0.023482338826330818,0.3988037300221659,-0.6559199621927397,-0.046961577805431476,0.7734274534793031,0.7557246412638277,-0.03029557725990535,0.6613760428724494,0.9069298926688368,0.0,0.0,0.0,0.0
0.040029680192091154,-0.1270793382764749,0.8490321524040255,-0.0019271636525213787,-0.527402254884835,0.0008864289827066431,0.8496130659460849,-0.01057456148123426,0.27082138377313497,-0.580589785564721,-0.01966426617137146,0.39575936508313747,-0.6534666572090783,-0.038789366592798434,0.7697058303788379,0.7548192607465013,-0.03225254557727314,0.658952703700295,0.9065650599645697,0.0,0.0,0.0,0.0
0.03862492530363563,-0.12911883626798912,0.848483275245914,-0.0017646292335037573,-0.5273597751266929,0.0007481607367366775,0.8496399201529458,-0.011411527129310393,0.2701510348341242,-0.5771527492174201,-0.015301028554808294,0.3914130803982069,-0.6501065040460945,-0.029716143648714378,0.7641237633911819,0.7555273141255436,-0.0327438799191352,0.6578832740581076,0.9021322012718348,0.0,0.0,0.0,0.0
0.03686551802449359,-0.1313922215351449,0.8477327235459566,-0.0015682261409254489,-0.5272753710627992,0.0005936441326004744,0.8496928099754653,-0.012097157053890237,0.27021210523878647,-0.5721117296110723,-0.010464571461687621,0.38547523378139453,-0.6452620588571033,-0.019860546596356055,0.7567417552923172,0.7575711984590571,-0.03216654374140781,0.6573637272621868,0.8953644160834969,0.0,0.0,0.0,0.0
0.034724327713552015,-0.13385623463483962,0.8468152267878089,-0.0013457985090464663,-0.5271413053725461,0.00043369278145527203,0.849776467611967,-0.012653771485863781,0.27058485387541265,-0.5663552166731598,-0.005263687031311279,0.3775916582023015,-0.638178093941746,-0.009415845947146935,0.7476900136365507,0.7605775859680306,-0.03096223852977016,0.6569100842706791,0.8872694151258789,0.0,0.0,0.0,0.0
0.03218306563707764,-0.13645022724782818,0.8457658586379364,-0.0011052237967672308,-0.526951013363129,0.00027846509779506934,0.8498948937681176,-0.013132579132988731,0.2709376604296567,-0.5605102528992193,0.0001555455109709513,0.3674103884971866,-0.6280765209006719,0.0013248493096341563,0.73713010955373,0.7642107237187956,-0.02953076835302687,0.6562448500190059,0.8783524642851028,0.0,0.0,0.0,0.0
0.02924535526645541,-0.13909623351259176,0.8446174937370221,-0.0008548293709349794,-0.5267013332651724,0.000136853118007415,0.8500499726925826,-0.013615588541828729,0.2711652953112168,-0.5550321163519043,0.005612696185613268,0.35465736356822447,-0.6142775801846807,0.01198538879276763,0.725268315905156,0.7682158132120396,-0.02825586809456134,0.6552260408214962,0.8688457241924303,0.0,0.0,0.0,0.0
0.025956368224096204,-0.14170102111966162,0.8433954489019932,-0.000604294655185895,-0.5263962226088763,1.6272960232397972e-05,0.850239173048541,-0.014193732349071154,0.2714305614808824,-0.5502582215096222,0.010901292458844216,0.33926429600522345,-0.5964150028376054,0.022146523625085374,0.712365670409017,0.7724938941361782,-0.027545915283426575,0.6538705113078859,0.8588642117206037,0.0,0.0,0.0,0.0
0.022431443736795634,-0.14416272034744407,0.8420917296095964,-0.0003669670243145977,-0.526030237383602,-5.7751728289584086e-05,0.8504657849426349,-0.014946531615362154,0.2720809319952726,-0.5464625447401934,0.015769362574540105,0.3216747370941819,-0.5751247695623377,0.0315125544397408,0.6985806660914532,0.777300405930751,-0.02769118262012592,0.6524530738490556,0.8485015872964683,0.0,0.0,0.0,0.0
0.018861427566269778,-0.14639048505049695,0.8406607931882822,-0.00014367120347214183,-0.5255581820388573,-0.0001132869313044793,0.8507576410568805,-0.016118478788210776,0.2733241239479384,-0.5436686479081839,0.020097577831282028,0.30311930754947064,-0.5528427904252272,0.039577850075494546,0.68401040927896,0.7832087724840352,-0.029294956851539294,0.6513329897978388,0.837810710168426,0.0,0.0,0.0,0.0
0.015728090193041708,-0.14833778987703772,0.839151747717784,3.419448188562426e-05,-0.5250375624363721,-0.00014280527092459957,0.8510790424327604,-0.017491385618511823,0.2753790171481229,-0.541272805308151,0.02383518164003978,0.28683246570852144,-0.5345415641506011,0.0465052259931793,0.6699257361679498,0.7900987255711975,-0.03249888277878414,0.6514739864298094,0.8269578811274252,0.0,0.0,0.0,0.0
0.013253857734765975,-0.14982956811609402,0.8377409809941383,0.00016238684828053667,-0.5245542108152479,-0.00015101094628971792,0.8513770203277735,-0.01909665861023941,0.27803636824755157,-0.540050251478039,0.02666303295376425,0.2740196563040438,-0.5212092966503629,0.05169702911710834,0.6576858718153833,0.7972146941334302,-0.037688607378781824,0.6524772498629597,0.8160263350650214,0.0,0.0,0.0,0.0
0.011755779923491735,-0.15071122360029462,0.8367164547033971,0.0002295462321189646,-0.524206730537876,-0.00015076829523438692,0.8515909982123102,-0.020435846027556253,0.2804037190626187,-0.5405790601509065,0.028327828838317352,0.2664218481257078,-0.5142598265389655,0.05470130921930532,0.649402728685014,0.8028126628950009,-0.04329500318137945,0.6541970286699118,0.8056034951911555,0.0,0.0,0.0,0.0
0.01168237816851779,-0.15092450342861857,0.8366346023805232,0.00039324232675465857,-0.5242246988549573,-0.00013814120552533158,0.8515798796283934,-0.020443770749203928,0.2804445103970606,-0.5405832052398427,0.028547548050154577,0.2662132762893199,-0.5142601151279694,0.05474652942659964,0.6492268205345826,0.8027263264944964,-0.043311599726280854,0.6542487481489704,0.8056176913725709,0.0,0.0,0.0,0.0
0.011682378167404372,-0.1509245034283308,0.8366346023816675,0.0003932423223813847,-0.5242246988566823,-0.00013814120515704423,0.8515798796273336,-0.020443770749607276,0.2804445104017715,-0.5405832052423288,0.02854754805054828,0.26621327633649006,-0.51426011520084,0.0547465294208084,0.6492268205411594,0.8027263265086405,-0.043311599735983926,0.6542487481481223,0.8056176913828913,0.0,0.0,0.0,0.0
0.011682378167404372,-0.1509245034283308,0.8366346023816675,0.0003932423223813847,-0.5242246988566823,-0.00013814120515704423,0.8515798796273336,-0.020443770749607276,0.2804445104017715,-0.5405832052423288,0.02854754805054828,0.26621327633649006,-0.51426011520084,0.0547465294208084,0.6492268205411594,0.8027263265086405,-0.043311599735983926,0.6542487481481223,0.8056176913828913,0.0,0.0,0.0,0.0
0.01320050607434873,-0.15197221866397245,0.8375476672725297,0.0005042485420282322,-0.5249801147115115,-0.00015273572683374798,0.8511143293134559,-0.018417230996417275,0.28622083266015846,-0.5423260093964789,0.030590840706691744,0.2760187401725412,-0.5240921845820645,0.05913673858688013,0.6588740925067715,0.7933965319474258,-0.03974870839903214,0.6628298567366556,0.8026404402240293,0.0,0.0,0.0,0.0
0.01620219114895866,-0.15400822514397347,0.8401042219722883,0.0007429324052991626,-0.5266142464883289,-0.0006556317602988649,0.8501037898950725,-0.013497411401538331,0.2959803931987175,-0.5386116528548609,0.03552943939737188,0.2935290406001605,-0.5370882669397824,0.06578715788071515,0.6829108339622462,0.7681107524144769,-0.03483730813097226,0.683497855712484,0.7888529322013099,0.0,0.0,0.0,0.0
0.01902229487371537,-0.15615261322077537,0.8416038282852474,0.0009379266988276963,-0.5265738927059475,-0.0004866456321490346,0.850128707308512,-0.00975528811021919,0.310541503954303,-0.5569092355369935,0.03486734386042509,0.2899195990862525,-0.5335654834569737,0.058829889859567254,0.673685591467089,0.7943554499112561,-0.02549716635663006,0.6965400236128366,0.7799748610659525,0.0,0.0,0.0,0.0
0.02228063004621003,-0.15838578201962136,0.8427441487215317,0.0010943438974902557,-0.5265230914287056,-0.0004559740742761876,0.8501600018181498,-0.005470599960364725,0.32827463542518504,-0.581683377668049,0.03294592371433738,0.2855143474165282,-0.5341046017516361,0.05093542974486645,0.6677884995063009,0.8144966926415335,-0.015960374836576148,0.7085455874041978,0.7745442839882263,0.0,0.0,0.0,0.0
0.025867976019611865,-0.16056598851225606,0.8436148569533242,0.0012398704034842184,-0.5264194098833791,-0.0005184985314605149,0.8502239697742532,-0.0010409233374467416,0.348165365175004,-0.611028835930736,0.030241360252640907,0.28193706330258184,-0.5370060844943797,0.04490941828867013,0.6649118914982889,0.8304966579520617,-0.006755153190657967,0.7198044190529755,0.7711235372144778,0.0,0.0,0.0,0.0
0.029281591612419427,-0.16275447457684838,0.8444851521441339,0.0014348166870160064,-0.5264734694108582,-0.0006443307299695447,0.8501901035330153,0.003540614066487955,0.36540454177955006,-0.6345661127790441,0.027887375204833774,0.27954542146749584,-0.5411311821882161,0.04129831474470528,0.6635667465881063,0.8441292082389057,0.002228436227900121,0.731094674272952,0.7678331417126492,0.0,0.0,0.0,0.0
0.03232646236247942,-0.16493862491047462,0.8454143078875933,0.0016624140509299402,-0.5266332137097289,-0.0008071296420669467,0.8500906087818093,0.00819279257104864,0.37932253551746864,-0.6514773100918116,0.026055762692718316,0.27789326054928676,-0.5459872148128396,0.03948954837790314,0.6626990972377028,0.8562366183849214,0.011129695625002977,0.7422496185427265,0.7639134554864753,0.0,0.0,0.0,0.0
0.03491795315382204,-0.16708750410113068,0.8463693276684585,0.001895013333193949,-0.5268259154238195,-0.0009799470113992,0.8499705309398535,0.01280711470917388,0.39002239161459074,-0.6626745885733886,0.024618002207364525,0.27645864723183183,-0.5513191094276082,0.03877924845066637,0.6617772170278191,0.8672708342151677,0.02002797052343598,0.7527798809987339,0.7594941766799348,0.0,0.0,0.0,0.0
0.03704213003819262,-0.16915867131051865,0.8473040477228588,0.00211380402043588,-0.5270079200740697,-0.0011458736046539252,0.8498569708988968,0.017266839954959774,0.3978409153203591,-0.6692752539274849,0.023366684889490005,0.2748900667334424,-0.5569327038121479,0.038584395856939624,0.6606371494491596,0.877513904921207,0.028831328455768676,0.762303587103697,0.7549152784867846,0.0,0.0,0.0,0.0
0.0387253468689622,-0.1711072981408899,0.8481796337385346,0.00230765466609378,-0.5271580112824313,-0.001295231380215351,0.8497631600901311,0.02146138956225981,0.40320817212620264,-0.6723442301721207,0.022108930475524553,0.27303416589276985,-0.5626466052801472,0.03849786684962112,0.6592801235468699,0.8871318021163396,0.03735095644725004,0.7705993100119531,0.7504916771307588,0.0,0.0,0.0,0.0
0.040012967996541346,-0.17289317518613045,0.8489647673464519,0.002470370550048296,-0.5272678873661224,-0.0014226102817232738,0.8496943264502816,0.025297349349858764,0.4065768614776007,-0.6728474592277668,0.020704717581899245,0.27093197045093254,-0.5682454042854406,0.0382357988880587,0.6577873189508722,0.8961521811924775,0.04537551721880363,0.777554299920138,0.7464927467998067,0.0,0.0,0.0,0.0
0.04095528722472624,-0.17448481324781837,0.8496306741491262,0.002598347057247346,-0.5273354462213872,-0.0015247705196550936,0.8496518409477631,0.028704689836671723,0.4083778663971259,-0.6716486038012726,0.01907709465161754,0.26881753677064374,-0.5734180168926107,0.037553561207113215,0.6563081866664615,0.904397706322225,0.05272387280418073,0.7830984773657946,0.7431876494250703,0.0,0.0,0.0,0.0
0.04159834049822174,-0.17586151363528674,0.8501469466242499,0.002689026766487222,-0.5273612192459644,-0.0015993336286958845,0.849635425169174,0.03163926986496929,0.40898711143995464,-0.6694996416661118,0.01720794982139761,0.2670928944576975,-0.5776745425113443,0.03616926326061761,0.6551004981376253,0.9113620448974229,0.05927598360430392,0.7871552544446259,0.7408900404421619,0.0,0.0,0.0,0.0
0.041977815219425396,-0.1770144130781637,0.850482101372049,0.0027402953320228344,-0.5273474471793126,-0.0016442433356957742,0.8496437236858801,0.034083342668555325,0.408692566779394,-0.6669947309493294,0.01512194342805662,0.2662132853099698,-0.5802462784062081,0.0337334405811515,0.6546248602552451,0.9160031219226404,0.06498516096340391,0.7896280988752414,0.7399554224968183,0.0,0.0,0.0,0.0
0.042115007964814044,-0.1779465149996764,0.8506151545260656,0.002752024026523197,-0.5273006938534295,-0.0016596292135067044,0.8496726724193987,0.036045708281839096,0.40764688041069513,-0.6644317788925947,0.012854636089512626,0.26639820438741685,-0.5800168346744891,0.029923132377709077,0.6556668373284236,0.9165380291305292,0.06985536139938374,0.7904550610167198,0.7406610264013358,0.0,0.0,0.0,0.0
0.04201305646982261,-0.1786686199294835,0.8505499467050176,0.0027260032602532246,-0.5272254882358692,-0.0016467794509764193,0.8497194487465343,0.03754956433016865,0.40584193125968604,-0.6617503582266167,0.010428438288748933,0.2676694415113385,-0.5770067766118073,0.024770280348279817,0.6582034935931411,0.9129593437892407,0.0739133989191808,0.7896662343254619,0.743014652212006,0.0,0.0,0.0,0.0
0.04165972423499212,-0.17919820444113338,0.8503150515672706,0.0026653867712807346,-0.5271233592324628,-0.0016080183496224813,0.8497830747560406,0.03863013710830599,0.40312662743897054,-0.6585660850706422,0.007840209858251778,0.26986195464252005,-0.5723882225090319,0.018644387124201973,0.6614134715071864,0.9070431277722695,0.07720080289545425,0.787386935910159,0.7467478826530899,0.0,0.0,0.0,0.0
0.04103585122155636,-0.17956065658935066,0.8499488953128005,0.0025736970789164986,-0.5269981459468496,-0.00154734744206903,0.8498611274601413,0.03934059089311916,0.39926337369646814,-0.6542919817475727,0.0050597678048014735,0.27260285820872965,-0.567011171166077,0.011906506445609378,0.6648177627516417,0.8998508895541708,0.07978940752648724,0.7837852905865376,0.7515018411574544,0.0,0.0,0.0,0.0
0.04012319048262887,-0.17978647041131562,0.8494871999281685,0.0024528704330952977,-0.5268540323265298,-0.0014683070589269934,0.8499509727756624,0.03974563966432204,0.39400199666541946,-0.6483229759281716,0.0020421881345973765,0.27561779130413006,-0.5614790769001505,0.0047925845826067405,0.6681700837913287,0.8919502913758734,0.0817945804583483,0.7790214031167777,0.7569552377356444,0.0,0.0,0.0,0.0
0.03891409424011889,-0.1799079585827593,0.8489610395426267,0.002303360031679002,-0.5266974535619247,-0.0013738288290385395,0.8500485865750834,0.039915284398618286,0.38714173091400444,-0.6401350775385979,-0.0012651769644125522,0.27886455343478495,-0.5562662479684838,-0.0026074539113554096,0.6713896582698052,0.8836451462286873,0.08336308570517634,0.7732641316419281,0.7628422775177738,0.0,0.0,0.0,0.0
0.037424542142533275,-0.17995554708568343,0.8483987835257929,0.0021244294189416302,-0.5265412070053626,-0.001265872937346619,0.8501460119830513,0.039916747411395816,0.37860586228113063,-0.6293804287365955,-0.004909908831431907,0.28257370308593616,-0.5518342752866044,-0.010375521383938314,0.6745710288172424,0.8751388263710735,0.08466023486803717,0.7667420642025615,0.7689332537068047,0.0,0.0,0.0,0.0
0.035712323515277776,-0.1799529958895599,0.8478267493491844,0.0019140803842515807,-0.526410766729356,-0.0011443550700291727,0.8502274586363155,0.03980329618215103,0.36855533326107154,-0.6160459986412365,-0.008903919221686254,0.28725419110326356,-0.5487565621862058,-0.01884603469514274,0.6780687959889639,0.8666621269736875,0.0858612673321882,0.7598043931385121,0.7750365029835956,0.0,0.0,0.0,0.0
0.03390173652241277,-0.17991145380738735,0.847260503944388,0.0016686368562338029,-0.5263505333275721,-0.0010046805374619519,0.8502654422789627,0.03959909268380717,0.35757957654459605,-0.6007882332484652,-0.013169398502973006,0.2936661615626616,-0.5478650285627538,-0.028737936070798914,0.682648098254141,0.8585722513486527,0.08715173667156283,0.7529471756578843,0.7811021675591789,0.0,0.0,0.0,0.0
0.032235164484359424,-0.17980801965452292,0.8466632623052545,0.0013671760201575125,-0.5263439760903632,-0.000822880590123011,0.8502702350021736,0.03925212583537678,0.34742890798704906,-0.5868029124372951,-0.017597227339533148,0.3024964120408222,-0.5503806140230438,-0.04125018417137392,0.6893919091488885,0.8513184257829405,0.08875419215214392,0.7465638715159776,0.7873593298493485,0.0,0.0,0.0,0.0
0.031071222409420146,-0.17962387704630406,0.8461266029643979,0.00103421582348344,-0.5265188048545398,-0.0006160800047160498,0.8501626308992916,0.038746530151582456,0.34021813190253236,-0.5766075222124608,-0.02170165653476656,0.3146791225028337,-0.5585171383921006,-0.05697292224810067,0.6992769916731778,0.8454849467285692,0.09056668604601212,0.7421958486219838,0.7931740152740768,0.0,0.0,0.0,0.0
0.030585866223888567,-0.1794603562195692,0.8458180163150453,0.0007291533040396206,-0.5269756525536592,-0.0004273484274519562,0.8498799605382078,0.03831325058228606,0.3365327399255446,-0.5698901952274417,-0.024014989521659067,0.33034613649811795,-0.5762020894286826,-0.07222583409306667,0.7107021032197679,0.8411289385043839,0.0926849171426495,0.7411821115920175,0.7974338458538248,0.0,0.0,0.0,0.0
0.030542294356603827,-0.17935849549517208,0.8457941451722476,0.000634388741053433,-0.5269891194193222,-0.000429894230362096,0.8498716848769132,0.038212140835393815,0.3364504909505877,-0.5698968440968005,-0.024033246307356343,0.33038545466390135,-0.576200190818147,-0.07222458054112921,0.7107363650295062,0.8411404911876754,0.0926757150451856,0.7411094461467977,0.7974071950391295,0.0,0.0,0.0,0.0
0.030542294356603827,-0.17935849549517208,0.8457941451722476,0.000634388741053433,-0.5269891194193222,-0.000429894230362096,0.8498716848769132,0.038212140835393815,0.3364504909505877,-0.5698968440968005,-0.024033246307356343,0.33038545466390135,-0.576200190818147,-0.07222458054112921,0.7107363650295062,0.8411404911876754,0.0926757150451856,0.7411094461467977,0.7974071950391295,0.0,0.0,0.0,0.0
0.03128739007060675,-0.17885635817823922,0.846164487576543,0.0005051030399748166,-0.526846874774758,-0.00030766352344058917,0.8499600112676747,0.03712922877641056,0.34273132584730026,-0.5803385711146698,-0.025202584619812493,0.33435796911499527,-0.5816399324386081,-0.07352351667061292,0.7135572502702359,0.8381905658342133,0.0916092097575067,0.7447425674472166,0.7918798661470866,0.0,0.0,0.0,0.0
0.03300771461405711,-0.177872180622092,0.8474216657358323,0.00043472814763203415,-0.5275326916472463,-0.0002589631873316602,0.8495345803396802,0.03512949318447671,0.35311035626942316,-0.5899487439361681,-0.027273357341092257,0.3406401327446886,-0.5830781240672733,-0.07875480996996231,0.7250541693340561,0.8301730789919445,0.08821606995748896,0.7570258976591112,0.778451245244123,0.0,0.0,0.0,0.0
0.034328370421226065,-0.17708718699685375,0.8481886775829689,-0.00024234211489185993,-0.5269148091671119,0.0001759648894373204,0.849918051453811,0.030964231231198118,0.3350353173422344,-0.5659456908869289,-0.029107855644837134,0.348114120984184,-0.5940983761609678,-0.07660497165661881,0.7290865126493749,0.8221776019899348,0.06966407139768517,0.7351150915123273,0.8040379803039954,0.0,0.0,0.0,0.0
0.03613380662937979,-0.17641794377328215,0.8489499246671388,-0.0008070390881362653,-0.526518522125808,0.0005501929931071505,0.8501630971960825,0.025059179203589205,0.3208324131195712,-0.5532672757167116,-0.030726084345020402,0.3585384621301806,-0.609115268916722,-0.07510574398128746,0.7349904100987993,0.8144669720271245,0.051336290288126515,0.7187731618349877,0.8220131058363579,0.0,0.0,0.0,0.0
0.03801256110602618,-0.17584795468470704,0.8497226967293624,-0.0012139481871249322,-0.5264024555013039,0.0007849576241563622,0.8502343000688252,0.01890512525741822,0.3107439673350555,-0.548392861233942,-0.03202515017765666,0.3687957712800705,-0.6226477412182772,-0.07492168528029416,0.7422082591033206,0.8071675420090105,0.03652070172471172,0.7077159081239265,0.835703150198431,0.0,0.0,0.0,0.0
0.039768573423431305,-0.17541623020208763,0.8504914266850417,-0.0015077741114122504,-0.5264597615372258,0.0009295893071166697,0.8501982015760303,0.013346595263120917,0.30361834101847923,-0.5480750408529669,-0.032967190938295136,0.3780021703316365,-0.6337888655629003,-0.07521859805489195,0.7498455102267301,0.8000228212267586,0.024919105330496696,0.7001749689471215,0.8471002308695845,0.0,0.0,0.0,0.0
0.04127627827317554,-0.1751510538779797,0.8512237461717569,-0.0017250754730172388,-0.5265969445935176,0.0010240887041031595,0.8501127179978607,0.008637081444579146,0.2983852899983759,-0.5504246560853125,-0.033530386168862794,0.3857287784756253,-0.6424048905784167,-0.07533183622956348,0.7571218593553068,0.7930390805973052,0.015435598259372312,0.6946062466363152,0.8571746274082582,0.0,0.0,0.0,0.0
0.042468801107058744,-0.17507791321685326,0.851894934626601,-0.001888379916656543,-0.5267592386256403,0.0010900758737084433,0.8500117353768804,0.004747915774909612,0.29420946049513497,-0.5543312982897888,-0.03367847511767263,0.39181032888584666,-0.6485986406085741,-0.07481166663090724,0.763549460871469,0.7862926845317721,0.007223076127226738,0.689981295381529,0.8664302364036183,0.0,0.0,0.0,0.0
0.04331990003798298,-0.1752215706812728,0.8524881354820847,-0.002008504799740814,-0.5269174728513175,0.0011350905944295946,0.8499133216286193,0.0015564212796567176,0.2904905714006049,-0.5591173618376631,-0.03336264076387876,0.39625528037248475,-0.6526169613349972,-0.07338010782618049,0.768866764412756,0.7798591068902399,-0.0001920132277408804,0.6856891216538393,0.8751412120317272,0.0,0.0,0.0,0.0
0.04382774648327708,-0.17560546450910283,0.8529891887820378,-0.0020893653897654067,-0.5270571138963147,0.0011592580557642598,0.849826505449386,-0.0010646892065405648,0.2868580183527349,-0.5643262717104718,-0.03253113221856393,0.3991703875573265,-0.6547881829949644,-0.07087337444154299,0.7729427058142406,0.7738195723705398,-0.007006357746265204,0.6814116362416672,0.8834316920823782,0.0,0.0,0.0,0.0
0.04400248233864658,-0.1762502842831932,0.853381555010664,-0.002131620229092282,-0.5271711731648302,0.0011600579466819981,0.8497556499634327,-0.003218319553447407,0.28317495939482357,-0.5695809406904389,-0.0311377499310327,0.40070318060398025,-0.65547433166864,-0.06720037679056079,0.7756963027471534,0.7682923517810889,-0.013242689822781699,0.6770304274584517,0.8912792607236214,0.0,0.0,0.0,0.0
0.04385746380807941,-0.17717226074492431,0.8536425986158979,-0.0021346396219906402,-0.5272561107361801,0.001134762362319085,0.8497029771157815,-0.0049855546948110304,0.27954169606388457,-0.5744699306147383,-0.029147803151944197,0.40100062355745875,-0.6550347714999256,-0.06232254951011327,0.7770400847340556,0.7634665712127704,-0.018802008238327735,0.672580467474605,0.8984617707578415,0.0,0.0,0.0,0.0
0.04340342377196188,-0.17838113155678972,0.8537420090493516,-0.002097149915964482,-0.5273100244614157,0.0010810766318156482,0.849669683664215,-0.006438478802474535,0.2762674900022908,-0.578438712115067,-0.026542395331758204,0.4001776750542515,-0.6537895240109453,-0.05625271047809385,0.7768495809210995,0.7596234101120165,-0.0234726818008639,0.6682594445905928,0.9044392082640751,0.0,0.0,0.0,0.0
0.04264468584502041,-0.1798777798132119,0.8536447819383327,-0.0020174402074563374,-0.5273324568460068,0.0009970934952275236,0.8496560572939649,-0.007646261242824857,0.2737480768324938,-0.5806795477527642,-0.023322335984220642,0.3982871943166411,-0.6519591757138131,-0.04906163182656279,0.7749674251234928,0.7571130495512052,-0.026943328793267902,0.6645036925727449,0.9081497675585815,0.0,0.0,0.0,0.0
0.04157667084967475,-0.18165248955301075,0.8533246590407381,-0.0018949634418780781,-0.5273256108730042,0.0008834065859840509,0.8496607139463203,-0.008661831219771229,0.27216599752239823,-0.5800652213013315,-0.01951345631501454,0.39527931545945444,-0.6495342310387543,-0.04085971345892029,0.7712665938391118,0.7562171614628609,-0.0289156648862333,0.6620963127823117,0.9078044657349691,0.0,0.0,0.0,0.0
0.04018258099101053,-0.18368763276164338,0.8527797383294213,-0.0017324482139815264,-0.5272863630143724,0.0007447266253189424,0.8496855508860409,-0.009516186321353471,0.2715152567752957,-0.5766367569777266,-0.015162062007894862,0.3909793602777781,-0.6462146752615001,-0.0317532420407893,0.7657066364035696,0.7569439123815477,-0.02943302323124264,0.6610328942931945,0.9033833410307236,0.0,0.0,0.0,0.0
0.0384363077114242,-0.18595641788817147,0.852032949962551,-0.001535998026268347,-0.5272052628817673,0.000589748704280367,0.8497363730571358,-0.010224624129306062,0.2715973065451458,-0.5716058025545961,-0.010338317514727325,0.3851034598883944,-0.6414368917419062,-0.021858176605616432,0.7583460434531827,0.7590176026342296,-0.02888937481587563,0.6605137234728905,0.8966253028699368,0.0,0.0,0.0,0.0
0.03631130575252157,-0.18841660237076005,0.8511184867851536,-0.0013130522749372642,-0.5270739034259675,0.00042921337892768763,0.8498183288191145,-0.010805001379566873,0.27199464508360555,-0.5658645236677088,-0.00514902982644775,0.37730397048207076,-0.6344631077983819,-0.01136559329738274,0.7493116449705087,0.7620671561803515,-0.027723189839910678,0.6600602959170506,0.888542474099789,0.0,0.0,0.0,0.0
0.03378953464065848,-0.19100842370698456,0.8500707851324959,-0.001071073381690187,-0.5268848647596108,0.0002732179174004684,0.8499359490226468,-0.011303778690466526,0.27237716343294766,-0.5600441080603288,0.0002614943977432248,0.36723417799472025,-0.6245322385992254,-0.0005681453180932713,0.7387603304408104,0.7657594950561059,-0.026331203023982258,0.6593997268559729,0.8796427171685924,0.0,0.0,0.0,0.0
0.030874179244803773,-0.1936544276650202,0.8489221839822546,-0.0008179781791360181,-0.5266340430888674,0.00013058018759616084,0.8500917000655788,-0.011798594058712053,0.2726399825099809,-0.554605183092573,0.005713925713621965,0.35462161602202574,-0.6109759127571539,0.010155279208876173,0.7268932474461164,0.7698413515950038,-0.02509263924515778,0.658391842802169,0.8701592480876507,0.0,0.0,0.0,0.0
0.027608908730019026,-0.19626128485284985,0.8476980926378597,-0.0005630907550185502,-0.5263246783700797,8.550622484357952e-06,0.8502834914276065,-0.012377354903261237,0.2729452230323538,-0.5498919976951174,0.01100188147324257,0.3393923761338831,-0.5934239813414844,0.02037834887644606,0.7139690429960927,0.7742096249855497,-0.024406598615869315,0.6570508355317953,0.8602073120397515,0.0,0.0,0.0,0.0
0.0241062080737068,-0.19872630206853847,0.846392497223517,-0.00031979407487373436,-0.5259520911663318,-6.836424994677893e-05,0.8505141332487318,-0.013117380157221978,0.2736400031941165,-0.5461790028294801,0.01587409723455884,0.32197051782757846,-0.5724707168707741,0.02979321251530358,0.7001563621248246,0.7791011619840407,-0.0245459759929919,0.6556464251300921,0.8498789392686272,0.0,0.0,0.0,0.0
0.020545750832938987,-0.2009532630153766,0.8449641769991085,-8.922361732642927e-05,-0.5254764191750994,-0.00012577442182484206,0.8508081505902821,-0.014273536092255491,0.27495564129825006,-0.5435412984467615,0.020194971748058302,0.3034836750387703,-0.5503276312487013,0.037878156464678396,0.685561331104076,0.7850697828962487,-0.026084886911331956,0.6545128116843678,0.8392392884952687,0.0,0.0,0.0,0.0
0.01742063991905408,-0.20290135953712013,0.8434583304184841,9.498346370776923e-05,-0.524955721318457,-0.00015959235435309752,0.8511295178546215,-0.015623058597519454,0.27710738737329205,-0.5412865966595692,0.023935081295503362,0.28725775313954505,-0.5321349391805759,0.044817825806583514,0.671471535890476,0.7920103420733707,-0.029092750444513163,0.6546961944095887,0.8284645353005196,0.0,0.0,0.0,0.0
0.014953530655174914,-0.20439512755212813,0.8420528947866013,0.00022783653846250612,-0.5244785252361521,-0.00017381271016423297,0.8514236280758036,-0.017206098556056534,0.2799139577549807,-0.5402283550443433,0.026773599594097693,0.27448321690132804,-0.518831610121329,0.0500168965736229,0.6592610768134304,0.7991558336977168,-0.0339476590900195,0.6557994956588723,0.8176651850239733,0.0,0.0,0.0,0.0
0.013461417113584567,-0.20527921072184277,0.8410350016468453,0.00029614153316330337,-0.5241413402841262,-0.00017958075016697402,0.8516312203390071,-0.018529928311456126,0.2824837906612452,-0.5409973609083852,0.028453965562150088,0.2668996275331351,-0.511837605880079,0.053031901001455634,0.651031866314143,0.8047588909990635,-0.039181228635367375,0.6576298018160117,0.8074325351087674,0.0,0.0,0.0,0.0
0.013387917159091555,-0.20549250115367695,0.840953653845952,0.00046002629545872486,-0.5241594130934532,-0.00016733631718840518,0.8516200267959245,-0.01853780998628767,0.28252476916758557,-0.5410014947683109,0.02867392228269864,0.2666921493741591,-0.5118383227097182,0.05307660881762523,0.6508565032294403,0.8046731580624257,-0.039197267705530295,0.657681477206466,0.8074467068888604,0.0,0.0,0.0,0.0
0.013387917158008357,-0.2054925011534024,0.8409536538470815,0.00046002629111352916,-0.5241594130951712,-0.00016733631680325894,0.8516200267948695,-0.018537809986688813,0.28252476917219915,-0.5410014947707048,0.028673922283109006,0.2666921494205325,-0.5118383227812634,0.053076608811931554,0.6508565032360623,0.804673158076409,-0.039197267715662946,0.6576814772055842,0.8074467068992077,0.0,0.0,0.0,0.0
0.013387917158008357,-0.2054925011534024,0.8409536538470815,0.00046002629111352916,-0.5241594130951712,-0.00016733631680325894,0.8516200267948695,-0.018537809986688813,0.28252476917219915,-0.5410014947707048,0.028673922283109006,0.2666921494205325,-0.5118383227812634,0.053076608811931554,0.6508565032360623,0.804673158076409,-0.039197267715662946,0.6576814772055842,0.8074467068992077,0.0,0.0,0.0,0.0
0.014892708183110762,-0.20652282579911266,0.8418593617414601,0.000568506290146713,-0.5249089842294884,-0.00018244728908201516,0.8511581532175742,-0.016541651600827104,0.28822342898035747,-0.5426696821673329,0.0306843402348293,0.2763896527770282,-0.5215314595608949,0.05740437765057909,0.6604281203819327,0.7954268491210245,-0.035626163410711995,0.6662511432693021,0.8043794098507464,0.0,0.0,0.0,0.0
0.017865208550038363,-0.20851847738463106,0.8443750593697263,0.000809502985347723,-0.526534364767073,-0.0006886862072644425,0.8501531821592856,-0.011700435796815442,0.2978392745481871,-0.5389050788019789,0.03554131686439888,0.29367821452035775,-0.5343344232569086,0.06384343061797708,0.6841754500812004,0.770617211526086,-0.030804230734221394,0.6867323333535548,0.7906861451517313,0.0,0.0,0.0,0.0
0.020664940275573203,-0.21061622007563358,0.8458554067470382,0.0009968516953180431,-0.5265005197931554,-0.0005223887489791026,0.850174062209751,-0.00803212935364564,0.3122879141492815,-0.5570494880559461,0.03483271223564345,0.29034862784496074,-0.5314577641771189,0.05696390976340778,0.6751334111932027,0.796372267986378,-0.021536292036458363,0.6997322932361582,0.7817623479926155,0.0,0.0,0.0,0.0
0.023898392104185172,-0.21279355518475676,0.8469860175088022,0.0011488231019093028,-0.5264549369292644,-0.0004937262422664513,0.8502021146896086,-0.0038440675240702816,0.32988819710576456,-0.5816063027626684,0.03283478425485841,0.2861127812865431,-0.5323738477126588,0.04912247754065463,0.6693247309789074,0.8162411671148294,-0.012122042046956522,0.7117492223840833,0.7761429530871908,0.0,0.0,0.0,0.0
0.027456396351718752,-0.21491522133543636,0.8478457464735277,0.0012898944932281317,-0.526351026298228,-0.0005562115824404461,0.8502662076759689,0.0004789092330118594,0.34965516952840614,-0.6107901196389584,0.030042589417779784,0.2826060852903984,-0.5354824336943774,0.043086143795610175,0.6664760147021561,0.8320975071679698,-0.0030477851305271593,0.723001208274107,0.7725179516168119,0.0,0.0,0.0,0.0
0.030832823840694402,-0.21705019469913622,0.8487084637070462,0.0014825215444963418,-0.5264095852893601,-0.0006830054469650715,0.850229547915687,0.004960870004926723,0.3667030037701505,-0.6340161457156198,0.02761559800142259,0.28023393724678614,-0.5397191062943641,0.039415652422274655,0.6651206697397934,0.8456603819521299,0.005803150470359423,0.7342835867399156,0.7690306531254327,0.0,0.0,0.0,0.0
0.03383854997326687,-0.21918603442459797,0.8496288514296478,0.0017074486417842207,-0.5265710520907271,-0.0008464045578694595,0.8501289874592707,0.009520771372930704,0.380432013671313,-0.6506472800146194,0.02571480353492357,0.2785627853951885,-0.5446332385924184,0.03751704762905307,0.6642168417734955,0.8577358977674119,0.014588501375338321,0.7454013625852893,0.7649530664735517,0.0,0.0,0.0,0.0
0.036392738397032026,-0.22129181713826765,0.8505738182124968,0.0019370129744349428,-0.5267632080028047,-0.001019344068470803,0.8500092538396278,0.014050757067016462,0.39096140784320776,-0.6616174588631508,0.0242106624175413,0.2770917883517149,-0.5499892847230409,0.03670279430959211,0.6632548948224498,0.8687606801528103,0.02338755139614321,0.7558722676274425,0.7604200916852896,0.0,0.0,0.0,0.0
0.038483676067857624,-0.22332519571712872,0.8514982306824637,0.0021526666544767867,-0.5269433918805267,-0.0011850465686201192,0.8498968310591295,0.01843506659332484,0.3986337536694764,-0.6680411988042936,0.02289741671119418,0.2754832389248136,-0.5556064747918231,0.036403183210003506,0.662080636681891,0.8790085706002619,0.032107110276777956,0.7653271889813013,0.7557628955252093,0.0,0.0,0.0,0.0
0.04013886651417306,-0.22524156565840112,0.8523642281981527,0.002343545388563792,-0.527091128562294,-0.001334011004171632,0.8498044895154295,0.0225642916196368,0.40388081525768244,-0.6709760878942869,0.021584415774460897,0.27359075303251773,-0.5613126596110216,0.03621992983394517,0.6606978055913443,0.8886397526228402,0.04055801068944259,0.7735553409712896,0.751285813085001,0.0,0.0,0.0,0.0
0.04140413894621413,-0.22700099584594804,0.8531411381912622,0.0025036631640705793,-0.5271985872616264,-0.0014609878637749142,0.849737163347919,0.026346168759445357,0.4071549020002588,-0.6713806809830066,0.02013363539688455,0.27145816392900834,-0.5668988686749197,0.03587401482893146,0.6591869213808461,0.8976773509205838,0.048529555585727295,0.7804511853590592,0.747249821521744,0.0,0.0,0.0,0.0
0.042329828530769394,-0.2285722498863461,0.8538005232398145,0.00262956547476134,-0.5272639253956283,-0.00156286390971068,0.8496960608465871,0.029711625280979554,0.4088854571073826,-0.6701124286806106,0.018469662015239665,0.26932015957727856,-0.5720585083108115,0.03512325788323099,0.657695558264388,0.905940187271817,0.05584182395073622,0.7859488624807422,0.743918415342461,0.0,0.0,0.0,0.0
0.0429617590734538,-0.229934805110836,0.8543120843994046,0.002718804513906041,-0.5272877711164112,-0.0016373533941991983,0.8496808422030974,0.03261718441368648,0.40944655220374854,-0.6679186121076833,0.01657550221193975,0.267578324787835,-0.5763047532086797,0.03368745199256166,0.6564791670333413,0.9129181596697196,0.06237609198530336,0.7899737272087971,0.7416018545408545,0.0,0.0,0.0,0.0
0.04333527291224872,-0.23107987178523062,0.8546442926773219,0.0027693473906039933,-0.5272723197549143,-0.0016824607844345908,0.8496901793365688,0.03504543089164117,0.4091243243363471,-0.6653904020363305,0.014476571143921573,0.2666868535248848,-0.5788708131705621,0.03121899753806027,0.6559960490346733,0.9175648194066276,0.06808674908473011,0.792429510480161,0.7406538876018284,0.0,0.0,0.0,0.0
0.043471305318768264,-0.23201041575397766,0.8547760439755572,0.0027811106909503567,-0.5272239672598112,-0.001698335278646865,0.8497201124060978,0.03700513658352479,0.40806986625782377,-0.6628243620409748,0.012208719694493157,0.2668638524108766,-0.578641024120138,0.02739667727597504,0.6570302007868307,0.9180923305309554,0.07297838921756587,0.7932534575843329,0.7413509034114198,0.0,0.0,0.0,0.0
0.043372714796060884,-0.23273710857268193,0.8547111115657647,0.0027558771083830013,-0.5271471645240444,-0.0016862582862713017,0.8497678674841826,0.03851920246166801,0.4062735527969261,-0.6601583485824811,0.00979404770930126,0.26813059456220817,-0.5756357386843093,0.022251859907267944,0.6595583405483917,0.9144936007938587,0.07707778299329593,0.7924748207379227,0.7437003630553836,0.0,0.0,0.0,0.0
0.043027072158001736,-0.23327719706293143,0.8544780471875743,0.002696736907393601,-0.527043442022917,-0.001648518560451668,0.8498324659703489,0.03962228198261237,0.40358293751063185,-0.6570061269033112,0.007228528712103239,0.2703222879010516,-0.57102584652915,0.016150891633642323,0.6627599666398318,0.9085501754719649,0.08042573311572764,0.7902180680672547,0.7474338988352426,0.0,0.0,0.0,0.0
0.0424150260844571,-0.2336556941279618,0.8541151710204605,0.0026071268725180235,-0.5269165195560374,-0.0015890410835096636,0.8499115596677442,0.04036656397810863,0.3997596118752624,-0.6527809307350977,0.004480688592002407,0.27306572266769075,-0.5656586438664567,0.009451001489713944,0.6661575493733366,0.9013284288837716,0.08309265808243944,0.7866495697487158,0.7521932603102363,0.0,0.0,0.0,0.0
0.041518049179737206,-0.23390254145058936,0.8536579429745793,0.002488900749470803,-0.5267703224626048,-0.0015112642843632057,0.850002675775768,0.040815349552427424,0.39455312841807677,-0.646880355778751,0.0015039579921068617,0.2760852266333773,-0.5601331697639578,0.002383619698817201,0.6695060789657695,0.8934003606640225,0.08519164232849405,0.7819263441388327,0.7576587124447772,0.0,0.0,0.0,0.0
0.04032806340653179,-0.2340492773588716,0.853136960303908,0.0023424374299660772,-0.5266108672756942,-0.0014179957871824464,0.8501020507809491,0.04103671201946141,0.38776300176348616,-0.6387859434193917,-0.0017565897013640773,0.27933565340908517,-0.5549168490173131,-0.004968327392848586,0.6727255660686107,0.8850745805472537,0.08686619662541337,0.7762125719351921,0.7635670242636049,0.0,0.0,0.0,0.0
0.03886042101972488,-0.23412525675003124,0.8525798539637774,0.0021669261831506674,-0.5264503080084743,-0.0013110343957028997,0.8502021282127636,0.041095283763778925,0.3793135939090481,-0.6281592371657906,-0.005352086675963309,0.28304164174952273,-0.5504603665782087,-0.012700006109770567,0.6759108382089919,0.8765609837179318,0.0882774839293483,0.7697304672276228,0.76969162217606,0.0,0.0,0.0,0.0
0.03717204113546986,-0.23415272430040893,0.8520119992032765,0.0019602775744147006,-0.5263130471436496,-0.0011900598051472712,0.8502877850915288,0.04104077882988531,0.3693684603231832,-0.6150026959690096,-0.009300400709368216,0.28770040975395056,-0.5473188698589027,-0.021172203916669692,0.6794160861368153,0.8680999672397992,0.0895957329677891,0.7628215432427,0.7758421343074237,0.0,0.0,0.0,0.0
