zhuoxili-jackie/tripod-support-walk/examples/pcbA样数据/trajectory_trotting_acc_01.csv
root_pos_x,root_pos_y,root_pos_z,root_rot_x,root_rot_y,root_rot_z,root_rot_w,FL_hip_joint,FL_thigh_joint,FL_calf_joint,FR_hip_joint,FR_thigh_joint,FR_calf_joint,RL_hip_joint,RL_thigh_joint,RL_calf_joint,RR_hip_joint,RR_thigh_joint,RR_calf_joint,FL_foot_joint,FR_foot_joint,RL_foot_joint,RR_foot_joint
0.01,0.0,0.8259446621,0.0,-0.523845373591082,0.0,0.8518133742594206,0.0,0.27,-0.52,0.0,0.27,-0.52,0.0,0.6572093368,0.8119390607,0.0,0.6572093368,0.8119390607,0.0,0.0,0.0,0.0
0.011559564223276527,-0.000549616729205156,0.8269020768404592,0.00011375079255581171,-0.5246330551458802,-3.240171253377224e-05,0.8513284580343746,0.0010627323518120635,0.27677717405482505,-0.5233264996218274,0.0010627323518120626,0.27928153419205093,-0.528489708358909,0.0017322459353502936,0.6670699870024235,0.804114411769033,0.0017322459353502993,0.6664190784040666,0.8071315695235468,0.0,0.0,0.0,0.0
0.01444857933718922,-0.0017022932970913985,0.8289724084496539,0.00026619288817775953,-0.5262279838382624,-0.00024250217117907172,0.8503434478841834,0.0036790560636438827,0.2880458952473461,-0.5251497677277577,0.0036814632392740835,0.2955059868202425,-0.5407572821214804,0.005249761292307286,0.6874898591061617,0.786477189624268,0.005260419520968492,0.6852513330346334,0.7956507675544687,0.0,0.0,0.0,0.0
0.01720399159747197,-0.002894306930544271,0.8301836565424452,0.0005795994032355709,-0.5263089397634104,-0.000318005244122282,0.8502931628928408,0.005932873178618214,0.30406844173071723,-0.5464866399276644,0.006344840634036179,0.2918852148750512,-0.5380716537666955,0.01052913641400206,0.6783454589318606,0.8056570251126299,0.00890110169471475,0.6967753555211932,0.7870758807503075,0.0,0.0,0.0,0.0
0.020352227228792024,-0.004041018200357951,0.8311570476062325,0.0008819349578172485,-0.5263740055078185,-0.000445067102265671,0.8502525686122093,0.008241033971338664,0.3228990055099587,-0.5733471142411606,0.00982872165311109,0.2874830422111871,-0.5390620382907365,0.016852396385840376,0.6712715668076893,0.8207300378045648,0.01224283015361153,0.7079020349508391,0.7805044812423719,0.0,0.0,0.0,0.0
0.023773682381518006,-0.005011107161186108,0.8318853166979089,0.001114325727086642,-0.5263301242132203,-0.0005556818641850958,0.850279395164634,0.01026255359214046,0.343881681407292,-0.6052232418302116,0.013039169615869413,0.28375143419730103,-0.5423343367647249,0.02293439611855051,0.667047238734621,0.8332574522288528,0.01529919903138411,0.7183741673284811,0.7753367138300573,0.0,0.0,0.0,0.0
0.026948315979342514,-0.005907606560846305,0.8326273083785348,0.001354666432847628,-0.5264629166018374,-0.0006717293732711617,0.8501967484656664,0.012151957517604525,0.36174337061059936,-0.6304848517128345,0.01633164644684043,0.281131671575295,-0.546769886010606,0.028996001785096523,0.6644677040371934,0.8444295350696064,0.018020844987673017,0.7289079822541606,0.7701241554214863,0.0,0.0,0.0,0.0
0.029687950916208815,-0.006731055478162497,0.8334084340932768,0.001592243096044088,-0.5266956024456806,-0.0007909951733007684,0.850052105139997,0.013902518526165432,0.3760654340416318,-0.6489918554513506,0.019517248853530393,0.279139404638638,-0.551941914758755,0.03504854661747737,0.6623307687643095,0.854655402052586,0.02043613699953764,0.739066669258667,0.7643920789483937,0.0,0.0,0.0,0.0
0.03191664747891192,-0.007458508535237761,0.8341897793089798,0.0018125495890335946,-0.5269576319199857,-0.0009052900345236309,0.8498891394030291,0.015456395625904878,0.3870270907985025,-0.6617650721524702,0.022450539527684145,0.27728159422581244,-0.5575896471773438,0.04104747783608864,0.6600307215842518,0.8641454423820726,0.022508273080022546,0.7483119851909181,0.7583508299052947,0.0,0.0,0.0,0.0
0.03362858416085061,-0.008052376658208802,0.8349287585419517,0.002005585649833334,-0.5272077215771285,-0.001007408232737921,0.8497334764879555,0.016726496167996645,0.3950078677382543,-0.6699449824344598,0.025047631753751066,0.27522938218094656,-0.5635060592724357,0.046894012269811616,0.657359141915052,0.8730478854250805,0.024105630501858065,0.7562909098541913,0.752316394639749,0.0,0.0,0.0,0.0
0.034857008732749946,-0.008470211570490303,0.8355912169625777,0.002164967759108714,-0.527425338761195,-0.0010913406431263468,0.849597924857895,0.017617055289690438,0.4004671192458713,-0.6746101972398749,0.027266892588237862,0.2728375475299935,-0.5694975345416258,0.05247416876563791,0.6543077586679289,0.8814530438117896,0.02505420252759015,0.7628296991748215,0.7465514028360328,0.0,0.0,0.0,0.0
0.035653046718337765,-0.008671963291321645,0.8361487896720434,0.0022866614665917172,-0.5276018867015064,-0.0011523437883253394,0.8494879001093196,0.01803970399278797,0.40387871734900604,-0.6767435077807925,0.02909310868674189,0.2701472338565098,-0.5753404702359751,0.0576566681207853,0.6509742114709414,0.8893481753698399,0.02518264801363771,0.7678595858729821,0.7412750099277188,0.0,0.0,0.0,0.0
0.036072002918887125,-0.008624565755643323,0.8365736514891129,0.002367868819740891,-0.5277348223739067,-0.0011868020432886592,0.8494050517580783,0.017923464190772294,0.4056888869668727,-0.6772262619371728,0.0305302062445016,0.26739177454703733,-0.5807200998768651,0.06226130130429409,0.6475408323409328,0.8965401512977543,0.024354479166194164,0.7713450904729728,0.7367160386671064,0.0,0.0,0.0,0.0
0.036164622035065666,-0.008304920237508406,0.8368350029607831,0.002406131923669063,-0.5278245707718683,-0.0011918290839044888,0.8493491699896418,0.017220442510488307,0.40628409026359774,-0.6768239141018999,0.031599881307110764,0.2649765990469316,-0.585148085437817,0.06601709315038554,0.6443093867263439,0.9025275506956717,0.022490756706148488,0.7732363973257564,0.7331568735684063,0.0,0.0,0.0,0.0
0.035971240829704466,-0.007702241720649424,0.8369005400816197,0.0023990832570063886,-0.5278739862912387,-0.0011650462822394684,0.8493185160254563,0.0159095739709621,0.4059567877987407,-0.6761312031348152,0.03233894689540209,0.2633673538283761,-0.5878634674595136,0.06855144338131246,0.6417930575045422,0.9062936975461019,0.01958265332069312,0.7734601462769554,0.7309282720766564,0.0,0.0,0.0,0.0
0.03551752531208217,-0.0068194079925052034,0.8367485798059623,0.0023464232566977467,-0.5278910035853608,-0.0011066618125519338,0.8493081642908972,0.014000282039055723,0.40485616387817447,-0.6754272255379019,0.03278597557960359,0.26280076870095975,-0.5877650477980082,0.069504237426242,0.6408313306036988,0.9060977499783194,0.015671785816632894,0.7719758654792586,0.7302885319063057,0.0,0.0,0.0,0.0
0.03481051968424934,-0.005668838347420645,0.8363817681032115,0.0022510865751901254,-0.527881205025207,-0.001019211925304981,0.8493146220320346,0.011521680054417291,0.4029673007652383,-0.6746269932625851,0.03297623147188977,0.26331338179186226,-0.5848949937973188,0.06889690768444799,0.641446799038897,0.9019390136842683,0.01081802745761679,0.7688291151727452,0.7312334783290297,0.0,0.0,0.0,0.0
0.033841637711770234,-0.0042722238248278695,0.835827196242466,0.00211898599489622,-0.5278467562119447,-0.0009074854415919515,0.8493364988772439,0.00852284324168957,0.40013191262516673,-0.6733201453823849,0.032944061851102796,0.2647506207015978,-0.5804526317973704,0.06713718553842453,0.6428486891771189,0.8955486754303247,0.0051009533242592974,0.764158946710161,0.733488695252768,0.0,0.0,0.0,0.0
0.032595549037933366,-0.0026650088137498444,0.8351235052438163,0.001957462409687187,-0.5277930986940008,-0.0007786588295694992,0.849370359149839,0.00508546631870965,0.3960995392084422,-0.6708691509020399,0.032731050896660036,0.2667575186676296,-0.5753252566396894,0.06466546254712367,0.6445780930876862,0.8879327680792649,-0.0013453585019254813,0.7581587637220367,0.7366910407964838,0.0,0.0,0.0,0.0
0.031058484826287897,-0.0008962720543737664,0.8343099310251122,0.0017735604747255872,-0.527727594272857,-0.0006404421244294021,0.8494115790122657,0.0013228924917892825,0.39059687324455805,-0.6665751942942677,0.03240159512014182,0.2690933303041733,-0.5701721727709732,0.06186281559627399,0.6464021611087836,0.8795897308985532,-0.008315469631368122,0.7510316824124113,0.7405136901278212,0.0,0.0,0.0,0.0
0.02922771043207716,0.0009719656134079433,0.8334254917009971,0.001574867824015036,-0.5276619500726148,-0.000501952352046275,0.8494528440594795,-0.0026203445445636916,0.3833808905420742,-0.6597524550102107,0.03204407273551023,0.27177596958078637,-0.5655580013667751,0.059096887107019776,0.6482324508200408,0.8707261682684256,-0.01555207087662352,0.7430058028517103,0.7446864329675219,0.0,0.0,0.0,0.0
0.027123395188111018,0.0028654291644487984,0.8325108148820691,0.0013710906885071332,-0.5276172052529493,-0.00037532248155107845,0.8494810556830716,-0.006569089995600633,0.37429599662860097,-0.6497844061322865,0.0317622272889875,0.2751395794208291,-0.5620990142285731,0.05681706365591967,0.6500998555861388,0.8613948940861457,-0.02277717186982572,0.7343711351596356,0.7489950747981744,0.0,0.0,0.0,0.0
0.024804272638690117,0.004697763347274104,0.8316046641102196,0.001175741972694298,-0.5276318429682039,-0.00027800793290352964,0.8494722942088102,-0.010316552380776037,0.36335478823719475,-0.6362245719357288,0.03166342683741902,0.2798667424852415,-0.5606498929256339,0.055655584193721935,0.6521850486614551,0.8515835753809105,-0.029728255815726745,0.7254971460462274,0.7533524824951138,0.0,0.0,0.0,0.0
0.022388437177571625,0.006367248165407396,0.8307189573845286,0.0010029282227528972,-0.5277764933853759,-0.0002462630668499037,0.8493826620077185,-0.013588817098650917,0.3508710754446822,-0.6190286895486524,0.03189424481447083,0.287063520698515,-0.562710105925368,0.056483785283436214,0.6548983721396199,0.8413779428695146,-0.03621020985458153,0.716739723409128,0.7581243274294306,0.0,0.0,0.0,0.0
0.020401958389287468,0.007906204880250393,0.8297595671327408,0.0008654780813046108,-0.5280237398904756,-0.0002820123780549565,0.8492291219269301,-0.016475140987852067,0.34052112627803766,-0.6048231379605841,0.032156990886877665,0.2977335068070262,-0.5694270326250309,0.05989860876259996,0.659835821421442,0.8307424430631217,-0.04256518811600833,0.7086050207198274,0.764128031570147,0.0,0.0,0.0,0.0
0.019041826317394428,0.009144011778622355,0.8288495957725069,0.0007653359424087824,-0.5286057778543202,-0.0004043286475612404,0.8488669992397332,-0.018598939966531013,0.3328261678885611,-0.5927751035886433,0.0329625972177991,0.31353197386332077,-0.584848104158907,0.06706596157518917,0.667467310669805,0.8195512412741661,-0.048273040604734266,0.7024596069350995,0.7714337687420744,0.0,0.0,0.0,0.0
0.018529518251127274,0.009878393836647964,0.8281527214242793,0.0006348803088341943,-0.5296053810392374,-0.0005717522395450262,0.8482437211088887,-0.019573800285119326,0.3287452695863179,-0.5835207539350314,0.03473941135108477,0.33519367777601317,-0.6140757644480337,0.07719828134499324,0.6778073424274925,0.8073603936272269,-0.05203610331218283,0.6997869603424971,0.779372186622733,0.0,0.0,0.0,0.0
0.01844123062134647,0.010153544116128654,0.8280785074072563,0.00040549655400297537,-0.5296643086789357,-0.0005752854400881324,0.8482070647730259,-0.019874226895393105,0.32860699003330135,-0.5835547767657301,0.0347580602101003,0.335235926488822,-0.6140784396632347,0.07721552272070362,0.6778402493965308,0.8073690950425894,-0.05211882846577331,0.6996908923380425,0.7793362750534982,0.0,0.0,0.0,0.0
0.01844123062134647,0.010153544116128654,0.8280785074072563,0.00040549655400297537,-0.5296643086789357,-0.0005752854400881324,0.8482070647730259,-0.019874226895393105,0.32860699003330135,-0.5835547767657301,0.0347580602101003,0.335235926488822,-0.6140784396632347,0.07721552272070362,0.6778402493965308,0.8073690950425894,-0.05211882846577331,0.6996908923380425,0.7793362750534982,0.0,0.0,0.0,0.0
0.019213314732287108,0.011470641050236105,0.8286310293877914,0.0003353333568015498,-0.529288711979822,-0.0005109333479964265,0.8484415630256422,-0.022645009473950605,0.3365376337690326,-0.5974870228314481,0.03203852227971467,0.33869701564984667,-0.6190819506667327,0.07175209768608382,0.6809283004613629,0.8048267813661728,-0.05750440295556197,0.7040950751742748,0.7684391130197354,0.0,0.0,0.0,0.0
0.021262559490501168,0.014062062326461719,0.8311109542451943,4.27691469902996e-05,-0.5298205956284282,0.00011579327046707167,0.8481097341798738,-0.02896827275712963,0.3504325886680404,-0.6105149022051294,0.025722697412124823,0.3441879743413048,-0.6138204439296886,0.06474420425701037,0.6968459262881542,0.7894540568156565,-0.06546253330171953,0.7248213267190332,0.736891876542693,0.0,0.0,0.0,0.0
0.022659065573729965,0.01679119650609505,0.8324406992278325,-0.0002724402307154321,-0.5287407873048405,-3.5400438841943267e-05,0.8487833082497481,-0.0287624790005156,0.3288152203726049,-0.5789836779272837,0.02083195521715387,0.34983122864895266,-0.6224600790659208,0.052544121631004484,0.7037756409504202,0.7808972590133699,-0.05802744021933282,0.7029985949958842,0.773954287660282,0.0,0.0,0.0,0.0
0.024627112133612523,0.019671499691168305,0.8334741677930354,-0.0005538607038414408,-0.5280150969365786,-3.127497089956495e-06,0.849234803005385,-0.028069972407857826,0.3123065323496417,-0.5620459093930409,0.015195606261400338,0.3584772870203634,-0.6351029615587853,0.04067871626001944,0.7107573681599999,0.7764877493488566,-0.05024510153297041,0.6885600688563757,0.7997067914877121,0.0,0.0,0.0,0.0
0.02698672884615347,0.02249852296774255,0.8343707571519848,-0.000832818318262485,-0.5275639350949961,0.00014237755464589725,0.8495149089506101,-0.026863240466310955,0.3009351333695734,-0.5544053847563899,0.009393826385610964,0.36902870819672784,-0.6497719092823292,0.029603758038638538,0.7183081805803878,0.7738513110347857,-0.0447719164050975,0.6798612443855926,0.818284565199085,0.0,0.0,0.0,0.0
0.029304809380643518,0.025253652629081642,0.8353222867881862,-0.0011245746174466508,-0.527393764905082,0.00034469327390298886,0.8496201699922853,-0.0257689605611388,0.2934567836105519,-0.5524035386995615,0.00358716784710202,0.3783556746340618,-0.6605118422653653,0.019034338443098448,0.7266838198141012,0.7710350877245062,-0.04190141355548284,0.6743019938521242,0.8328687884196749,0.0,0.0,0.0,0.0
0.031439742620911725,0.02787623672927355,0.836314175184783,-0.0014064421292523592,-0.5273619113378766,0.0005616910265719006,0.8496394063917877,-0.024772162831494523,0.2884010197218423,-0.5536572682589564,-0.002015960160147199,0.38615173092472244,-0.6677856219360166,0.008877531641293075,0.7353368726707975,0.7675919123759124,-0.04079708440543245,0.6704464864420191,0.8450927319717025,0.0,0.0,0.0,0.0
0.033310578294684146,0.03032434615109016,0.8372995195840178,-0.0016624439895884951,-0.5273887075974831,0.0007673538145756868,0.8496221504567553,-0.02379858329200119,0.2846930391516435,-0.5568084985113533,-0.007276577444276726,0.3923078881897088,-0.6721306609613245,-0.0008491078398469651,0.7437203885686483,0.7637028422771015,-0.04064539945533679,0.6675001424943662,0.8558902103076008,0.0,0.0,0.0,0.0
0.034879450597434185,0.0325637985880088,0.8382363459238142,-0.0018834642266598622,-0.5274313106088927,0.0009481619252102254,0.8495950600967829,-0.022740812683735127,0.28160356588423835,-0.5610485664768337,-0.012094798094140425,0.39685505736868737,-0.674065272613605,-0.01003487462140324,0.751434493367962,0.7596536054182188,-0.0408304337553816,0.6650127951409032,0.8657970785545868,0.0,0.0,0.0,0.0
0.0361359904080117,0.034566448931396807,0.8390930391490875,-0.0020651211430915304,-0.5274682307886993,0.0010979877145708486,0.8495715362500573,-0.021490891983076247,0.27870389809370183,-0.5658483606192148,-0.0163970983583161,0.3999087229759443,-0.6740675100912699,-0.018526639396879853,0.7582172940896997,0.7557079015034369,-0.040940316205129876,0.6627369508352033,0.875096448076577,0.0,0.0,0.0,0.0
0.03708475185682272,0.036310825932258095,0.8398441147976793,-0.0022057998412441217,-0.5274892685393907,0.0012147035432791505,0.8495579618355307,-0.019966529409131364,0.2758369055770542,-0.5707884698502605,-0.020131996481641695,0.40162238979692977,-0.6725752685511468,-0.026171994795074236,0.7638895372678584,0.7521130571196116,-0.04069652262178667,0.6605668916490095,0.8838621053409311,0.0,0.0,0.0,0.0
0.03773565027850947,0.037783108202861224,0.8404643359048837,-0.0023051426124225997,-0.5274894635440169,0.0012980337299121902,0.8495574537816837,-0.01812693700755898,0.27309805587577995,-0.5754305456231454,-0.023268723196424236,0.4021499825516902,-0.6699847740858704,-0.03285051151495805,0.768297186448676,0.7491433382716355,-0.03986657987622832,0.6585230145116584,0.891929842377836,0.0,0.0,0.0,0.0
0.03809687116562594,0.038978052199308943,0.8409245444947193,-0.0023630067703263036,-0.5274659380448837,0.0013482630984970362,0.8495718230897559,-0.015977301871245457,0.2707937925796817,-0.5792002527323677,-0.025797058384943478,0.40161404596585487,-0.6666351745555279,-0.038494364236242216,0.7712699092659275,0.7471373228192699,-0.038186793806007036,0.6567767310179539,0.8987945795810565,0.0,0.0,0.0,0.0
0.03816964711129171,0.03989990726496235,0.8411923983664633,-0.002379039178274614,-0.5274169318505048,0.0013657304799505896,0.849602174520666,-0.0135584680616364,0.26931182624212785,-0.5812719248353282,-0.02772786077037721,0.4000732239585883,-0.662759247898549,-0.043098337355737676,0.7726123136301445,0.74648883141243,-0.035329796925141495,0.6557286585764411,0.9034157412196681,0.0,0.0,0.0,0.0
0.03794449557407033,0.04056274455586564,0.8412440241518582,-0.002353846693651576,-0.5273436325998729,0.0013524506142609373,0.8496477643349913,-0.010916107272916017,0.2688204916616817,-0.5804974671051893,-0.029094423497883912,0.39747712109316213,-0.6583512022817882,-0.046703327602141666,0.7721600185971789,0.7475223479106303,-0.030998263906116857,0.6561156520992197,0.9040147862675773,0.0,0.0,0.0,0.0
0.03739727560173753,0.04098715008595062,0.8410786042627717,-0.0022876528220015916,-0.5272426731107888,0.0013097603490580202,0.8497106653581464,-0.008074150460241649,0.26929716220686145,-0.5768901676824514,-0.02994125235312001,0.3936414512411963,-0.653112191836332,-0.04939096962605992,0.7698410770460162,0.750296496167643,-0.025265866472751183,0.657870701187161,0.9005578667141055,0.0,0.0,0.0,0.0
0.03649185594722469,0.041200189468684374,0.8407185360854563,-0.002179730487226633,-0.5271050261185042,0.0012380046294260432,0.849796450663423,-0.00502384581193472,0.27052668640116934,-0.5716305394443533,-0.030323949041227555,0.3882614652176032,-0.6464758632354853,-0.05128410715269601,0.7656819572889306,0.7545945147154465,-0.018559871718120548,0.6601218248743865,0.8947644216374462,0.0,0.0,0.0,0.0
0.03518919193989218,0.041237815995199885,0.840195142628181,-0.0020288050503707014,-0.5269223380738056,0.001138420247053114,0.8499102526668583,-0.0017310766232985146,0.27206786727472715,-0.5655788034969192,-0.030318492314449084,0.3809615825109859,-0.6377053276983178,-0.05255133671072869,0.7597593818084526,0.7601059591525443,-0.011306677659216731,0.6623185924690356,0.8876444005948537,0.0,0.0,0.0,0.0
0.033456950122617235,0.041142775428951256,0.8395369916688173,-0.0018320264352245817,-0.5266857075427183,0.001011464935726632,0.8500575192821075,0.0018406341808826039,0.27355011735328094,-0.5593296788817335,-0.030015855475727226,0.3713696810967011,-0.6260669945501947,-0.05341307491185124,0.7521588567795463,0.7665462477650902,-0.0038243668815147683,0.6641175011101375,0.8797213307641027,0.0,0.0,0.0,0.0
0.03128324253472875,0.04096065984864349,0.8387680076617754,-0.001586360195493736,-0.5263881020840279,0.0008573866631208986,0.8502425032505815,0.005711113296214126,0.2748020089242688,-0.5532969260782633,-0.02951408227382182,0.35919928159672787,-0.610956958315222,-0.05411098849107949,0.7429986121792121,0.7736730211932117,0.003684102219469446,0.6653192551804211,0.8712636530226326,0.0,0.0,0.0,0.0
0.028697411220922894,0.04073352977517236,0.8379066182435869,-0.0012916887185159718,-0.52602970452438,0.0006777999259129457,0.850464944654104,0.009860431930371482,0.27588962677763224,-0.5477639440253925,-0.028905421986219596,0.3443803954082843,-0.5920914424291602,-0.05485247271454614,0.7324769739649676,0.781296277363724,0.011154881816949205,0.6659148871282562,0.8624557679795404,0.0,0.0,0.0,0.0
0.02580164325963087,0.04048953592228149,0.8369551388945193,-0.0009559944298854222,-0.5256235224129691,0.0004779003071648166,0.8507166216620723,0.014207059468064963,0.2770919211408878,-0.5428590957009664,-0.028255137641590447,0.327310921231053,-0.5699466216230131,-0.05572865176297386,0.7208864016395965,0.7893909103264033,0.018795729892732982,0.66627131493667,0.85352343552288,0.0,0.0,0.0,0.0
0.022816244882544127,0.04022397984593571,0.8358579241574714,-0.0005863524380535198,-0.5251355817990587,0.0002538101498225507,0.8510183385214388,0.018689845646488897,0.27859178980916854,-0.53838451591063,-0.027552320073783974,0.30954850436161924,-0.5474756917242384,-0.05673062795522949,0.7083829797591527,0.7983175734951641,0.027298562372067,0.6671998170627974,0.8447607936779982,0.0,0.0,0.0,0.0
0.020159508111172657,0.0398800486666327,0.8346091945352871,-0.00023301222107872236,-0.5245567892117895,3.575939452801296e-05,0.8513754279507887,0.023351215745026063,0.28031390102546083,-0.5335381088340176,-0.026709061000912058,0.29431741262924543,-0.530177708783907,-0.057253156134570576,0.6957661046177903,0.8079119374915397,0.038020739917286786,0.6700103290428817,0.8365092321412698,0.0,0.0,0.0,0.0
0.018030483607596078,0.03952919610989141,0.8334213103820737,3.8754550204237526e-05,-0.5239794196831195,-0.00011646005610199937,0.8517309156556908,0.027484829834372115,0.2818679602097455,-0.5286578166969313,-0.025923268204937837,0.28263034014590277,-0.5184109070686964,-0.05709661552352112,0.6845663370151688,0.8165756042031611,0.050734281956414655,0.6743247969301754,0.8291193126522972,0.0,0.0,0.0,0.0
0.0167018798680839,0.039236699316288134,0.8325931284596576,0.00012397760610082737,-0.5234763378130477,-0.00012298127696609514,0.8520401946240557,0.030215177466748094,0.28199934053555525,-0.5240520025414158,-0.02538401238274877,0.2758601014106174,-0.5128246918867805,-0.055735658124077415,0.6767481489652135,0.8219168018739519,0.06312296666022123,0.6786952388470779,0.8230678256653172,0.0,0.0,0.0,0.0
0.016647087302433725,0.0391223924181188,0.8325469846161478,0.00023046642818527513,-0.5234761205786093,-0.00011769125983917043,0.8520403066862284,0.03024703805530401,0.282037539984867,-0.5240516494797776,-0.025277164541515428,0.27569437411223274,-0.5128161013409324,-0.055730874176194316,0.6765995014777713,0.8218491345542889,0.0631202313049206,0.6787441298715271,0.8230838970169856,0.0,0.0,0.0,0.0
0.016647087302432154,0.039122392418119316,0.8325469846161495,0.00023046642817930164,-0.5234761205786124,-0.0001176912598391163,0.8520403066862265,0.030247038055303467,0.28203753998487446,-0.5240516494797823,-0.025277164541513002,0.27569437411230224,-0.512816101341038,-0.055730874176196384,0.6765995014777803,0.8218491345543062,0.06312023130491305,0.678744129871533,0.8230838970169917,0.0,0.0,0.0,0.0
0.016647087302432154,0.039122392418119316,0.8325469846161495,0.00023046642817930164,-0.5234761205786124,-0.0001176912598391163,0.8520403066862265,0.030247038055303467,0.28203753998487446,-0.5240516494797823,-0.025277164541513002,0.27569437411230224,-0.512816101341038,-0.055730874176196384,0.6765995014777803,0.8218491345543062,0.06312023130491305,0.678744129871533,0.8230838970169917,0.0,0.0,0.0,0.0
0.018047070801775852,0.038715439217940385,0.8333634228839766,0.0003297614966618518,-0.5242009285155321,-0.00016855505962974317,0.8515945334430002,0.031093602276924853,0.2880586121080245,-0.526963139261942,-0.024480361899439754,0.2837167046061203,-0.5199350938433551,-0.05515612869609908,0.6854759915085694,0.8153902338523802,0.06489533423403651,0.6871248951603698,0.8186652099550975,0.0,0.0,0.0,0.0
0.02064649597216673,0.03808858407074286,0.8350334061962615,0.00046583055985448073,-0.5256692113424956,-0.000316025529919258,0.8506888757802776,0.032556420147515815,0.2988290186148674,-0.530436291519844,-0.023083581191876455,0.2976156360253424,-0.5301301051304982,-0.05469012296118821,0.7030818143824672,0.8024537604074167,0.06771131755467678,0.7038581032668944,0.8087314869014592,0.0,0.0,0.0,0.0
0.02318111006688427,0.03752756894733582,0.8360950011332597,0.0008205282381775924,-0.5257973065294935,-0.0005161551765988678,0.8506093420387374,0.0338346642941096,0.31408289745226636,-0.5506863005559243,-0.01924147770561278,0.2949344605665458,-0.5300738473894308,-0.040945887676790145,0.6932348799018568,0.8178509616258887,0.0682512295878963,0.7144753192548856,0.7996799933575913,0.0,0.0,0.0,0.0
0.026073351086537966,0.037108587736828604,0.8369897718262975,0.0011801160669051127,-0.5259022814816844,-0.0007412332460683197,0.8505438543847711,0.034905983869084986,0.3320423279391083,-0.5761195760952804,-0.014075164333632963,0.29104728749980935,-0.5326578080377289,-0.02652037716660606,0.6850500485375218,0.8303962660731101,0.06803701738033724,0.7250467491172008,0.7916524951725846,0.0,0.0,0.0,0.0
0.029087342556104272,0.0368689043224441,0.8376892859208198,0.0014524265390546346,-0.5259384170534597,-0.0008989491880872426,0.8505209367292536,0.03559301874187729,0.3510473243826371,-0.6044226334095647,-0.009021092737311658,0.28743883763337413,-0.5369036906197125,-0.014646114899538888,0.6796731686543082,0.8413395130505285,0.06775289613890513,0.7350453126566413,0.7847052549925796,0.0,0.0,0.0,0.0
0.031854774390206085,0.03671979548449865,0.8383818478903593,0.0017026292091245746,-0.5261187460660348,-0.0010307419580014628,0.8504087862097236,0.03604610815069928,0.36740022508425224,-0.6273551163851694,-0.004199209858563882,0.2846484383800411,-0.5419274617476159,-0.004871215428058842,0.6761707250134855,0.8515186949097736,0.06726115459731181,0.7449509595292312,0.7778675248364727,0.0,0.0,0.0,0.0
0.03420531387014296,0.036643522910180616,0.8390824490049531,0.0019274683923275306,-0.5263762189838161,-0.0011440876163578563,0.8502488177101009,0.0363073023330451,0.38057287628116254,-0.644494347264138,0.000184041664193591,0.2823430832978803,-0.5474550616724938,0.0036256305801127126,0.6732981632418841,0.8611260444383042,0.06653363790772815,0.7542768609642919,0.7708681628821946,0.0,0.0,0.0,0.0
0.036071531455965214,0.03665205186105191,0.8397632173836788,0.0021224895233888995,-0.5266532613669976,-0.0012404597966805223,0.8500766427735917,0.03635671224013931,0.3906483443568162,-0.6565282562639811,0.00406684945137765,0.28013328107878427,-0.5533049483878627,0.011397536364999496,0.6703829785486404,0.8702276478325883,0.06547297984362178,0.7625603549899624,0.7638707269210239,0.0,0.0,0.0,0.0
0.03745086138618602,0.03677522648906626,0.8403937111136883,0.0022844331428291766,-0.5269159644228,-0.0013184980436774373,0.8499132952039963,0.03613490311631023,0.397950695294491,-0.664384570478375,0.00746802472580617,0.27774020603743677,-0.5593271702533332,0.018721212700726096,0.6671498765425588,0.8788792216822912,0.06393251946569863,0.7695296311471098,0.7570950564731111,0.0,0.0,0.0,0.0
0.038376767321575106,0.03705027504049372,0.8409481204058044,0.0024109699487714718,-0.5271472560994099,-0.0013754034602660502,0.8497694192403553,0.03556545379617176,0.4029035285971432,-0.6690125206421527,0.010433491440516099,0.2750349073628029,-0.5653679821811137,0.02568782482767505,0.6635474563755793,0.88710838160358,0.061751887367350544,0.7750691794242651,0.7507238344797621,0.0,0.0,0.0,0.0
0.03889885931611283,0.037514308363205996,0.841402542882268,0.0025003721946719295,-0.527339769274365,-0.0014081506433818222,0.8496496530878556,0.034572418516383305,0.4059540232702405,-0.6713158082284293,0.01300993445494907,0.2720591982167133,-0.571231128234652,0.032266400976184384,0.6596515670709446,0.8948589139623696,0.05878438833784364,0.7791442948784063,0.7449234664647265,0.0,0.0,0.0,0.0
0.03906999698966525,0.03819943443686023,0.8417307918354228,0.0025511436317161643,-0.5274910191097475,-0.0014140956676103704,0.849555599568488,0.03309153718134762,0.4075264087219201,-0.6721262896531784,0.015239133284847236,0.2690419097502724,-0.5766205296983063,0.03832277821102133,0.655634890002524,0.9019062842863654,0.054917457721666334,0.7817348890468441,0.7398921571692865,0.0,0.0,0.0,0.0
0.038938109891883566,0.0391293420426734,0.8419019101173807,0.0025615788968043254,-0.5276008842377153,-0.001390970104734176,0.8494873809935637,0.03107714914851595,0.40798834175430393,-0.6721779734472404,0.017162826219608386,0.26638327472617535,-0.5810610618670163,0.04360903627062242,0.6517942867092312,0.9077241253380527,0.05009006023786674,0.7827937788654398,0.7358964482688202,0.0,0.0,0.0,0.0
0.03854081901085367,0.0403163809909715,0.8418824293411409,0.0025297489030428836,-0.5276713818823365,-0.0013368223175330045,0.8494437744894975,0.028507241071009198,0.40761619018923306,-0.6720454825869961,0.018826662917225026,0.2645443940506554,-0.5838016933421177,0.04776810249495693,0.6486403189577903,0.9112730921334637,0.04430480336863208,0.7822426460731228,0.7332601166682367,0.0,0.0,0.0,0.0
0.03790161626214038,0.04175944161439039,0.8416492337756968,0.002455556563280913,-0.5277096248991452,-0.001252133298665072,0.8494203636556933,0.025388633192128744,0.4065450131566636,-0.6719926036524443,0.020271987328226278,0.263758912711015,-0.5837486563371197,0.050450299874782605,0.6470154857346518,0.9107916970967349,0.037610855599037964,0.7800338281021916,0.7322384904828231,0.0,0.0,0.0,0.0
0.037026040824610196,0.043446868338254924,0.8412042007784803,0.002342080056576313,-0.5277207762230984,-0.0011397151779116569,0.8494139144450202,0.021749071278750913,0.4047452277957305,-0.6719131038483491,0.02153426126539851,0.26406368401626545,-0.58094710949861,0.05167036477248653,0.646954573955344,0.9062821171233542,0.030073836871809784,0.7762082676298105,0.7328233553240471,0.0,0.0,0.0,0.0
0.035904687272920496,0.04535651280211815,0.840574321815518,0.002195457084712567,-0.5277068955177024,-0.0010046872879141573,0.8494231001066025,0.017638411548130953,0.402044536486884,-0.671371718015661,0.022649133558562556,0.2653067566603243,-0.5765943546581399,0.05181858599879053,0.647685860204506,0.8994965121562619,0.02178015461167587,0.7709039515179223,0.7347347535904114,0.0,0.0,0.0,0.0
0.034521955387544045,0.04745154078136432,0.8397982273273978,0.002023409574375146,-0.5276732663831031,-0.0008545534269033294,0.8494445829462459,0.013140996951893894,0.3981816526405088,-0.6697111038481568,0.02366440213524568,0.2671355100640758,-0.5715724922880003,0.05132672565942477,0.6487704156579358,0.8914552317184756,0.01287481946394955,0.7643145916738712,0.7376060565699424,0.0,0.0,0.0,0.0
0.03286392386689699,0.04968012707090666,0.8389151396941377,0.0018336920986192049,-0.5276269646668438,-0.0006974559768320239,0.8494739179544603,0.008375935124902027,0.39287383743361076,-0.6662153148122455,0.024656188826774297,0.2693108894800834,-0.5665326479117547,0.05058138895856737,0.6499917042188829,0.8826629577440785,0.003578998197247137,0.7566429506784743,0.741111652875404,0.0,0.0,0.0,0.0
0.030927361992045786,0.05197558557753835,0.8379639816491481,0.0016350453887847092,-0.5275792889108779,-0.0005432086703443391,0.8495040467609377,0.003498001207292085,0.38586672551947554,-0.6601784415862065,0.025725608435959797,0.2718515380228793,-0.5620277218310954,0.04997071151569659,0.6512712373214421,0.873325051380966,-0.005829214331427402,0.7481138226193406,0.7449905628234763,0.0,0.0,0.0,0.0
0.0287309804217906,0.054256497313455374,0.8369846957296034,0.0014388938453609478,-0.5275506569916634,-0.0004051548069980478,0.8495222597093901,-0.0013014996194324622,0.37698732089600645,-0.6509557477913581,0.026978996255986307,0.27508905713998366,-0.5586576601997988,0.049979682972329756,0.6526396062862636,0.8634837194791198,-0.015046593560698549,0.7390056055692656,0.7490529744449133,0.0,0.0,0.0,0.0
0.026330041842806576,0.056426311164585775,0.8360132507907075,0.0012613242742623117,-0.5275781106656533,-0.00030316257978311225,0.8495055351791329,-0.005791581562705731,0.366219273727736,-0.6380626221841887,0.028497863597443676,0.2796916772516578,-0.5572551839482727,0.05128704239282651,0.6542590134192313,0.8531005334487176,-0.023784473684382277,0.729654428635598,0.7532663983319959,0.0,0.0,0.0,0.0
0.02383506900393939,0.058370016996772446,0.8350528733459999,0.0011191798194030908,-0.5277229671413085,-0.00028658850686418685,0.8494157611294559,-0.009645908062256443,0.3538426310675678,-0.6214572485305322,0.030370701228680567,0.2867209903724362,-0.559346432172178,0.05475717691595715,0.6564734529188191,0.842231904490003,-0.031862448870356386,0.7203092322098636,0.7580882797227619,0.0,0.0,0.0,0.0
0.02177571150889455,0.06012347866186171,0.8340221244846164,0.0010293840566868778,-0.5279721418852011,-0.0003445017834470297,0.8492609958547125,-0.012988085733583031,0.34350512820490686,-0.6076021820903792,0.032295257032412386,0.2971425035561684,-0.565952468300058,0.061089803399915876,0.6608938569913985,0.8307786120127826,-0.039606401143335176,0.7116019864944687,0.7642423623475745,0.0,0.0,0.0,0.0
0.020352073566544497,0.06151030192979701,0.8330345976249701,0.0009947084428354913,-0.5285478950885089,-0.0005034754717811805,0.8489027504167186,-0.015417925779058109,0.33576623410098283,-0.5958038797236642,0.034580254082660876,0.31251290662253556,-0.5810338296883071,0.07123339234541785,0.6680081627014728,0.8185532552841771,-0.04652094949841416,0.7048197725039486,0.771873956662972,0.0,0.0,0.0,0.0
0.01978985604005803,0.06232626135492106,0.8322650260603179,0.0009393437264084777,-0.5295369904523615,-0.0007115846522731326,0.8482860290157453,-0.01655925416160308,0.3315881265008537,-0.5866589948325227,0.037299119063569725,0.33353020184979054,-0.6095357713120946,0.08368338826327722,0.678033734625686,0.8051120793163541,-0.05122713464470581,0.7015417913908614,0.7802247648862888,0.0,0.0,0.0,0.0
0.019695111558718646,0.06262060914545481,0.8321855926886347,0.0006964888742464503,-0.5296023892555819,-0.0007141110018112194,0.8482454327867048,-0.016885556226000444,0.33144483781578915,-0.5866972668247075,0.03732515402690158,0.33357235679504005,-0.6095382343284563,0.08370191215067604,0.6780665380137821,0.8051203176429734,-0.05131706971342168,0.7014423725604282,0.7801874848705528,0.0,0.0,0.0,0.0
0.019695111558718646,0.06262060914545481,0.8321855926886347,0.0006964888742464503,-0.5296023892555819,-0.0007141110018112194,0.8482454327867048,-0.016885556226000444,0.33144483781578915,-0.5866972668247075,0.03732515402690158,0.33357235679504005,-0.6095382343284563,0.08370191215067604,0.6780665380137821,0.8051203176429734,-0.05131706971342168,0.7014423725604282,0.7801874848705528,0.0,0.0,0.0,0.0
0.020477226370404125,0.06398891173227583,0.8327611099895991,0.0005779606311477739,-0.5292408581363239,-0.0006226908064535807,0.8484712088791203,-0.019761246027489562,0.3394844650882968,-0.6007421139585157,0.03449953944204426,0.336965882737196,-0.6141849274088008,0.07839680392283534,0.6812064907160795,0.8025668535873426,-0.05658490393428996,0.7061081120733204,0.7689693788744432,0.0,0.0,0.0,0.0
0.022549071322362273,0.06666448060905203,0.8352933644645041,0.00027759847598872586,-0.5297550800790093,-1.417062934880147e-06,0.8481506222762325,-0.02624020593448234,0.3536582191183786,-0.6141664789645193,0.02803640902940871,0.34246011256940506,-0.6088057806835198,0.07106951620688554,0.6973612713801008,0.7869223744646078,-0.06493852056577606,0.7271500711635115,0.7365253866733402,0.0,0.0,0.0,0.0
0.02394966734491895,0.06948072535816127,0.8366618156571007,-8.131870683301369e-05,-0.5286771918191858,-0.0001314193776386429,0.8488229514842273,-0.026176819229351764,0.3314096782145485,-0.5813657897049277,0.022978787400585947,0.3479678345521973,-0.6169813815790088,0.05878226120741456,0.704406320659262,0.7782909707352781,-0.05767532566470972,0.7051496320124063,0.7739173540055273,0.0,0.0,0.0,0.0
0.025923575780853112,0.07246431292421623,0.83771384243789,-0.00039559918033591624,-0.5279615785300786,-8.608537959238588e-05,0.8492681600570126,-0.025686120628163566,0.31444599672119916,-0.5635937187671749,0.01715049729612667,0.3565005874659185,-0.6292513268730439,0.046699578858897146,0.7114228569915532,0.7740913599798476,-0.05009669236033022,0.6906116736548832,0.7998152884892119,0.0,0.0,0.0,0.0
0.028286659398123613,0.07539940455539766,0.838627945596796,-0.0006991920324697433,-0.527525704678822,6.711466214199702e-05,0.8495387792968818,-0.024689334180167163,0.3027916082162699,-0.5554174746450599,0.011149513326386546,0.3669169725819296,-0.6435014683643567,0.03532950666345326,0.7190209111439825,0.7716969753231804,-0.04481717753664628,0.6818580269866636,0.8184335472359202,0.0,0.0,0.0,0.0
0.030612828008472086,0.07825603274016985,0.8395936125841198,-0.0010051597236603435,-0.5273623614778563,0.000271623468776008,0.8496398387382267,-0.02377018346869289,0.29515275959142595,-0.5531200841463113,0.005156009865479701,0.3761596742409926,-0.6539792055104543,0.024407370240246216,0.7274446741600461,0.7690967336458425,-0.042142281419106475,0.6762497619548632,0.833008178959321,0.0,0.0,0.0,0.0
0.032760748142520446,0.08096871238335761,0.8405956051402954,-0.001295797240044736,-0.5273323224994151,0.0004888354779188333,0.8496579921337533,-0.022910484272542227,0.29001689373175504,-0.5542210148666741,-0.0006139710721120087,0.3839161640321437,-0.6611127972875434,0.01389904605122087,0.7361435165044168,0.7658463508085993,-0.041223641990324605,0.6723679639336773,0.8452027488667683,0.0,0.0,0.0,0.0
0.0346485838558318,0.08349323576057924,0.841587424382846,-0.0015578043716302145,-0.5273584820301771,0.0006944830775286445,0.8496411727132944,-0.022040270309228737,0.2862813461470789,-0.5573047068834273,-0.0060175480767827635,0.3900696158859299,-0.6654077063078128,0.003855267897539078,0.7445700271049168,0.7621277816116311,-0.04124148145749024,0.669421314276532,0.8559673284969894,0.0,0.0,0.0,0.0
0.036236942741307274,0.08579476872913647,0.8425278197779288,-0.0017832797750217224,-0.527399432495986,0.0008756032283173332,0.8496151433650077,-0.021057678999103928,0.28319624146341105,-0.5615275794781458,-0.01095320506830198,0.3946421859249518,-0.6673566006483876,-0.005598257851997536,0.7523240079108371,0.7582261756930373,-0.041575079483679236,0.666954583663423,0.8658455263787103,0.0,0.0,0.0,0.0
0.03751371500610201,0.08784548703140752,0.8433859188865254,-0.0019683083069975795,-0.5274344292485215,0.0010260764922026104,0.8495928411731865,-0.01985968574616112,0.28031749069153905,-0.566338606527971,-0.015347392986099195,0.397740171978616,-0.6674161810038449,-0.014303782722434386,0.7591427803678324,0.7544046708010744,-0.041808355656778214,0.6647122531490901,0.8751237428781539,0.0,0.0,0.0,0.0
0.038481797170958,0.08962475077554388,0.8441369342599467,-0.0021114143949415988,-0.5274537033413116,0.0011435779878273958,0.8495803817121569,-0.018368036212630678,0.27747694886765384,-0.5713038766516713,-0.019149564369479066,0.39950816244499227,-0.6660057582055395,-0.0221096345069057,0.7648463619273606,0.7509102950384593,-0.04165976245779594,0.6625804678299044,0.8838768739070832,0.0,0.0,0.0,0.0
0.03914972317298729,0.09111975194165622,0.844756279868568,-0.0022122930130424098,-0.5274526437310034,0.0012276130043987075,0.8495806655916264,-0.016545462080598438,0.27476276640544056,-0.5759746604534882,-0.022330304880588882,0.4000921692258925,-0.6635051885585699,-0.02889817335392713,0.7692806104299623,0.7480170281251473,-0.04089510385594156,0.6605726701518329,0.8919408099853475,0.0,0.0,0.0,0.0
0.039524708940823695,0.09232620919873602,0.8452153526805657,-0.0022708748654994286,-0.5274287437484918,0.0012783016929428803,0.8495952738451495,-0.014400514145721662,0.27247709494869193,-0.5797685700992602,-0.02488074475009368,0.3996086765638113,-0.6602402687155291,-0.03460452346855197,0.7722758106554958,0.7460634493545543,-0.03924986371763219,0.6588551426591275,0.8988101221634047,0.0,0.0,0.0,0.0
0.03960754617496486,0.09324910662407984,0.8454821080595265,-0.002286905931097451,-0.5273805960479888,0.0012958609099151311,0.8496250924483295,-0.011977008960479991,0.2710056377411497,-0.5818536030485012,-0.026812726731525308,0.3981132607783951,-0.6564361365304265,-0.03922585198977015,0.7736372306189764,0.7454449549106359,-0.036396276170888725,0.6578257257146517,0.9034436370474082,0.0,0.0,0.0,0.0
0.039388948074373265,0.09390285418632241,0.8455324646839799,-0.0022609834979424592,-0.5273093679300673,0.0012821751494742103,0.8496693912773962,-0.009321989519718344,0.27051607832117036,-0.5810783594955619,-0.028159919187600416,0.39555709386857607,-0.6520907206708279,-0.04280501435786097,0.7731994964097885,0.7464903611991115,-0.032037197640080416,0.658220526109054,0.9040621620368264,0.0,0.0,0.0,0.0
0.03884566171866247,0.09430783154065363,0.8453648892934031,-0.002193294754958681,-0.527211316289168,0.0012386467466185796,0.8497304767919048,-0.0064580347037316195,0.2709875161746055,-0.57745884317605,-0.02896666243028107,0.39176256679653965,-0.6469206881923147,-0.04542319071145549,0.7708878304060531,0.7492650377796424,-0.026248020555453038,0.6599749620161257,0.9006329741526469,0.0,0.0,0.0,0.0
0.03794294309680667,0.09449050576186106,0.8450005790278241,-0.002083054624691913,-0.5270766640870718,0.0011658939319058171,0.8498143866454687,-0.0033722090310383443,0.2722086034043386,-0.5721841071393728,-0.029288186463454362,0.3864356775802894,-0.6403853641914372,-0.04720100875510848,0.7667236401566353,0.7535615779016124,-0.01945883431195418,0.6622225139068944,0.8948783113980782,0.0,0.0,0.0,0.0
0.03664317742955749,0.09448631796245183,0.8444692044374236,-0.0019288154284506011,-0.5268958662390264,0.0010654253393894925,0.8499269913822687,-2.4440687085579976e-05,0.2737423092617347,-0.5661257785814454,-0.02920050996900121,0.37921308142807003,-0.6317801667153916,-0.048306741210642996,0.7607756768872207,0.7590823464762086,-0.012098380544436576,0.6644193393711016,0.8878101947933547,0.0,0.0,0.0,0.0
0.03491493743591511,0.09433813569507565,0.8437975305234088,-0.0017274929806342088,-0.5266586311115337,0.0009379462970918541,0.8500745980797633,0.003627731157689942,0.2752223282035847,-0.5598921850109394,-0.028796002744404126,0.3697323296586765,-0.6204015232372591,-0.04896477978789446,0.7531194510047096,0.7655579200811607,-0.004486114618368575,0.6662275693968098,0.8799524261298746,0.0,0.0,0.0,0.0
0.03274606854840474,0.09409291042182015,0.8430079608259509,-0.0014756812374980893,-0.5263563697056307,0.0007838037391641171,0.8502624183667611,0.007608128565281693,0.2764809986221487,-0.5539141545230105,-0.0281764400037708,0.357709422550674,-0.6056640726515276,-0.04942845005602178,0.7438623151199418,0.7727602339169599,0.003173735893567165,0.6674476706682165,0.8715706059815896,0.0,0.0,0.0,0.0
0.03016378596056033,0.09379594774388315,0.8421185055621541,-0.0011727074547539336,-0.52598783583217,0.0006043858966289512,0.8504910675789038,0.011895330434145219,0.27758787959737735,-0.54849715507183,-0.027440990149895546,0.3430630080888681,-0.5872754009530908,-0.04992732883845562,0.7331944248295833,0.7805061389698916,0.010813024791008947,0.6680578152164862,0.8628420401391724,0.0,0.0,0.0,0.0
0.027265793737315497,0.09348111128210862,0.841133720708536,-0.0008261272756452379,-0.525566395637455,0.0004043949052234667,0.8507520894803251,0.01639430765281023,0.2788307032127227,-0.5437984584942346,-0.026665650682073543,0.3261539871671811,-0.5656401083461172,-0.0505838286139719,0.7214127116619179,0.7887596299967801,0.018625698478065694,0.6683953301866048,0.8539837866538733,0.0,0.0,0.0,0.0
0.024265993847469008,0.09315240956451068,0.8400051676772408,-0.0004460163416339573,-0.5250704772545094,0.00018146379790355086,0.8510586125855462,0.021002572037276613,0.2804349039524905,-0.5396504571563323,-0.025855297253162803,0.30844126494973817,-0.5434444099528845,-0.05140597024198261,0.7087192791608115,0.7978625716470307,0.027287175199821444,0.6692654038276356,0.8452945844359805,0.0,0.0,0.0,0.0
0.021593074030607062,0.09275482194691673,0.8387189322320916,-8.52051354418246e-05,-0.5244921970631561,-3.617141366490748e-05,0.8514152492477317,0.02575596774714444,0.2823292290681398,-0.5351831792060504,-0.024917770662966184,0.2932311533587567,-0.5263496970993099,-0.05178514261390919,0.6958980382475748,0.8077329576949476,0.03822162922377173,0.6720664144878491,0.8371108497067115,0.0,0.0,0.0,0.0
0.019449452941414203,0.09236646798996416,0.8374898193594142,0.0001929747903442322,-0.5239291636667802,-0.00019211054740745102,0.8517617961106826,0.029930946906034903,0.28418551841732725,-0.530844993185468,-0.02405881326226628,0.2815205108356228,-0.514651586490865,-0.051574217477563036,0.6845145651550664,0.8167798117081867,0.051167733625767244,0.6764303506905948,0.8298009692816147,0.0,0.0,0.0,0.0
0.018114155849144723,0.09205776303627529,0.8366245898890703,0.0002871987019523942,-0.5234537352094052,-0.00021128735440053924,0.8520540240911262,0.03265680067341821,0.2848029346743818,-0.5270852919749779,-0.023471292747746907,0.27470680669385783,-0.5090214031992136,-0.05030329311454342,0.6765902139039204,0.8225472189943811,0.063701580362204,0.6808977050223601,0.8238541126412542,0.0,0.0,0.0,0.0
0.018058037857307276,0.09193997147015,0.8365770802685534,0.0003964790655986441,-0.5234544110567195,-0.00020597304507371408,0.852053566347045,0.03268858577367,0.2848419692380796,-0.5270851652983661,-0.023360759535533872,0.27453924281356673,-0.5090138561840983,-0.050297674764460495,0.6764398963762847,0.8224790647351333,0.0636988942503681,0.6809467643939443,0.8238700672922894,0.0,0.0,0.0,0.0
0.018058037857305,0.09193997147015072,0.8365770802685554,0.00039647906559067274,-0.523454411056723,-0.0002059730450730087,0.8520535663470428,0.032688585773668885,0.28484196923808847,-0.5270851652983729,-0.023360759535531333,0.27453924281365377,-0.5090138561842312,-0.05029767476446752,0.6764398963762939,0.8224790647351602,0.06369889425034644,0.6809467643939446,0.8238700672923058,0.0,0.0,0.0,0.0
0.018058037857305,0.09193997147015072,0.8365770802685554,0.00039647906559067274,-0.523454411056723,-0.0002059730450730087,0.8520535663470428,0.032688585773668885,0.28484196923808847,-0.5270851652983729,-0.023360759535531333,0.27453924281365377,-0.5090138561842312,-0.05029767476446752,0.6764398963762939,0.8224790647351602,0.06369889425034644,0.6809467643939446,0.8238700672923058,0.0,0.0,0.0,0.0
0.01944436618342457,0.09157048121096081,0.8373875100284214,0.0004923263003582994,-0.524174277524509,-0.00025682210164817737,0.8516108374362559,0.033463428827100614,0.29084199163808744,-0.5300242643491494,-0.022636173049073803,0.2824009677212553,-0.5158828176604952,-0.04982289544848218,0.6852349050598586,0.8161255687800751,0.06532447210288067,0.6892924911870321,0.8193553842086634,0.0,0.0,0.0,0.0
0.02201811236818589,0.0910080884591677,0.8390378115008739,0.0006207444113893525,-0.5256330023326238,-0.0003991816233749864,0.8507111155904801,0.03479344989708778,0.30158615452037124,-0.5336148133802261,-0.02137312923504058,0.2960257959021142,-0.5256870853214335,-0.04948914535149224,0.7026328996873742,0.8034671159557364,0.06790777327651581,0.7059185170632339,0.809345108428992,0.0,0.0,0.0,0.0
0.02454317598689904,0.09051418870645721,0.8400984452201219,0.0009529078135961283,-0.5257720917010755,-0.0005877098151305751,0.8506247434398718,0.03594143866078314,0.3168211741201765,-0.5538190583690399,-0.017599316828417963,0.2939849662500169,-0.5268292764700474,-0.036389538503635,0.6930445896589846,0.8187375219725742,0.06830127166445106,0.7166064404645689,0.8001221712644364,0.0,0.0,0.0,0.0
0.027417918232703647,0.09016391389625472,0.8409868337975103,0.0012912928379189646,-0.5258776150433395,-0.0008006214050448228,0.850558890121373,0.036877670927172056,0.33473712899399244,-0.5792370469115795,-0.012542339789397032,0.2904909258300488,-0.530152348513318,-0.022547393099324742,0.6850013437228398,0.8312204822846568,0.06791636357151092,0.727186040689664,0.7919270694160472,0.0,0.0,0.0,0.0
0.030379595796526698,0.08997726792565494,0.8416859945355993,0.00155021633630107,-0.5259241987140595,-0.0009498105661629101,0.8505295008970433,0.03745748230335894,0.3533756378034933,-0.6068834961846963,-0.007549248334631469,0.2871009505351766,-0.5348493765533899,-0.011013449133105672,0.6796076448174764,0.8421219750169366,0.06746859058367434,0.7371534554227999,0.7848216486596984,0.0,0.0,0.0,0.0
0.03309661389284056,0.08987757611184359,0.842373333422781,0.0017895573022371307,-0.5261063302197189,-0.0010754233244274645,0.8504162335304256,0.03781121808718033,0.36945331788236757,-0.6293905175611839,-0.002803533939368566,0.28440575607423474,-0.5401295407130366,-0.0014557575936724916,0.6760368061262948,0.852265401592606,0.06679704500354923,0.7469757663710801,0.7778645236400964,0.0,0.0,0.0,0.0
0.0354016270820318,0.08984572853412788,0.8430657374737339,0.0020057885612383016,-0.5263626445041961,-0.0011840482387254938,0.850256985453554,0.03798224173232195,0.3824109870605421,-0.6462370454257016,0.0015032742380950512,0.2821314682192727,-0.5457925623910501,0.006903948173276357,0.6730872773545603,0.8618482813189879,0.06589034840957632,0.7561939874283385,0.7707925118626197,0.0,0.0,0.0,0.0
0.037228386183598534,0.0898928892592013,0.8437376731618567,0.002194059908681418,-0.5266376410097167,-0.0012767192519939085,0.8500860845589636,0.03795215917541753,0.39231575293118987,-0.6580596706293064,0.005318109136431083,0.27992091122174834,-0.5517037909181913,0.014585609977696663,0.6701019227904914,0.870934253939403,0.0646623125945109,0.764366224625437,0.763753879493406,0.0,0.0,0.0,0.0
0.038574617567917156,0.09004842269010639,0.8443601818415585,0.00235074790476804,-0.5268982686056493,-0.0013517813920402866,0.8499240326121655,0.03766267136407809,0.39948257668595016,-0.6657583600756178,0.00866363278123812,0.2775129619100092,-0.5577434878819073,0.02184717164256564,0.6668089707098344,0.8795758609258005,0.06297443653366337,0.7712332829121422,0.7569547789359258,0.0,0.0,0.0,0.0
0.03947366994551677,0.090349377997396,0.8449081560258421,0.002473252746032412,-0.5271277747334387,-0.0014062798442571404,0.8497812745068151,0.03703802602969491,0.4043294714159957,-0.6702674102629645,0.011586477195794549,0.27478822606760206,-0.5637774814243401,0.02877056378224373,0.6631564020113698,0.8877979365171154,0.06067109559266542,0.7766859779521483,0.750569141105422,0.0,0.0,0.0,0.0
0.0399748748978583,0.09083293644759695,0.8453579070312066,0.002559657246379202,-0.5273188759260483,-0.0014371179936186309,0.849662395271641,0.03600245976729727,0.4073000688827822,-0.6724827125312642,0.0141323491062679,0.27179363657856676,-0.5696221983622122,0.0353206423472773,0.6592187279881099,0.8955422624381117,0.05760741653264102,0.7806920080011335,0.7447585807878887,0.0,0.0,0.0,0.0
0.04013076598205276,0.0915314500495173,0.8456832012684248,0.00260831974563819,-0.5274690584036265,-0.0014416103085361464,0.849569014768438,0.03449148738362618,0.4088164110401566,-0.6732325814490394,0.016341342794328338,0.26876068504289796,-0.5749899573298359,0.041361161525266435,0.655167784192615,0.9025830525716575,0.053670689481270004,0.7832314668593635,0.7397190923148536,0.0,0.0,0.0,0.0
0.039988943170764554,0.09246894518721249,0.8458529257735586,0.002617411095897943,-0.52757812189944,-0.0014174431192501419,0.8495013038878859,0.03245893991534745,0.4092448387582986,-0.6732499221596194,0.01825341797867393,0.26609080736433477,-0.5794113076870048,0.04664234845475375,0.6513004149324861,0.9083932154563155,0.04879867527971932,0.7842562468387484,0.735716531050188,0.0,0.0,0.0,0.0
0.03958670316296661,0.09365813444881285,0.8458334455352146,0.002584892509509692,-0.527647985219397,-0.0013626015946311947,0.8494581009923441,0.029882129998526255,0.40886087204576227,-0.6731094141100956,0.01991274407351562,0.2642453776109812,-0.5821388975667375,0.05080447138677708,0.6481279445403277,0.9119329222003543,0.04299240005781997,0.7836866882359317,0.7330747467698381,0.0,0.0,0.0,0.0
0.038947227153423414,0.09509825885224128,0.845601532828838,0.002510594575601554,-0.5276856566788657,-0.0012774882103830292,0.8494350550066458,0.026767068692944953,0.4077989760658805,-0.6730753111401973,0.021359703692304298,0.2634576532714343,-0.5820805064693915,0.05349444966390162,0.6464939543908349,0.9114402551851576,0.03629921432140861,0.7814737712021258,0.7320492421210202,0.0,0.0,0.0,0.0
0.03807580524096929,0.09677805969206976,0.8451590166172407,0.00239758582710023,-0.5276963057775631,-0.001164870480564916,0.8494289278848924,0.023140494915662214,0.4060293245449807,-0.6730416917710172,0.022629191375096922,0.26376393430698664,-0.5792801940470486,0.054725823574636956,0.6464331917855196,0.9069177667978282,0.028782197968229974,0.7776573708070964,0.7326321584285334,0.0,0.0,0.0,0.0
0.036962856694925696,0.0986758554595742,0.8445328681245466,0.0022520528764902684,-0.5276820812575981,-0.0010298492857522973,0.8494383372487609,0.019051017271508715,0.40337991949559415,-0.6725740482632384,0.02375657354910008,0.26501154020349477,-0.5749314951328147,0.05488992557024361,0.6471728172334767,0.900118673516424,0.020524513433844305,0.772374558971305,0.734544159477572,0.0,0.0,0.0,0.0
0.03559264347045516,0.10075532802325905,0.8437616573291631,0.002081810613690695,-0.5276482870514682,-0.000879890260669317,0.8494599325626544,0.014581493680236379,0.3995904377233357,-0.6710175357371159,0.0247896358656845,0.2668463241411267,-0.5699103408644473,0.05441899558239628,0.6482732264908995,0.8920643222289141,0.01166760644663198,0.765817740057864,0.7374195920539646,0.0,0.0,0.0,0.0
0.03395112575723728,0.10296527262095291,0.8428843994184883,0.0018947590675630905,-0.5276019155233669,-0.0007230840040698452,0.8494893205765879,0.009849238908156463,0.3943799653249781,-0.6676613704098767,0.025804414507125183,0.2690262828475777,-0.5648590095923154,0.053699726864236685,0.6495179999739856,0.883260532871389,0.0024284980305848327,0.7581873978346902,0.7409348682702558,0.0,0.0,0.0,0.0
0.032034930211151044,0.10523979394984266,0.8419395571085392,0.0016998871820207543,-0.527554036932117,-0.0005692051605013406,0.8495195845333292,0.005006809030518021,0.387496888630216,-0.6618081586849022,0.026901337308810877,0.2715644295350637,-0.5603175086275035,0.05312137318577209,0.6508291147428453,0.873914120581576,-0.006920147734150178,0.7497043818345113,0.7448325326831149,0.0,0.0,0.0,0.0
0.02986247645993014,0.10749849279182346,0.8409662770469087,0.0015090578041624851,-0.5275246246946527,-0.0004316131085114682,0.849538290364498,0.00024276037776511418,0.3787715310630024,-0.652825044917736,0.028184658086784466,0.2747817265873487,-0.5568662405039723,0.05317352500662042,0.652236432906629,0.8640690052162645,-0.016082705868168408,0.7406407039599656,0.7489277243375072,0.0,0.0,0.0,0.0
0.027488312306039146,0.10964612665483248,0.8399994232480403,0.0013391239277830208,-0.5275498736818225,-0.00033030683629430165,0.8495229416694955,-0.004215291380149884,0.3681902192870564,-0.6402413261597586,0.029731165175247695,0.27932642408659697,-0.5553069399150953,0.05454627822727736,0.6538966885397154,0.8536880967120444,-0.024781411319684983,0.7313230232745779,0.7531924525996069,0.0,0.0,0.0,0.0
0.02502120661909767,0.11156948005943407,0.839041299933394,0.0012083606894347058,-0.5276886330727116,-0.0003150139102737917,0.8494369589066241,-0.008045378257847555,0.3560331353689696,-0.6240316617853202,0.03161935589039666,0.2862196277684195,-0.5571111238412239,0.058121385698771226,0.6561364578158854,0.8428219369993104,-0.032853173543805216,0.7219867679713485,0.7580772786677571,0.0,0.0,0.0,0.0
0.0229689197549542,0.11329963533331383,0.8380142252987188,0.001135032270114264,-0.5279311716388895,-0.0003751185377321487,0.8492863174453111,-0.011359908168568932,0.34577069894006096,-0.6103217800683456,0.033567659889132455,0.29638764964744657,-0.5632919105956985,0.06467548499692657,0.6604721338506551,0.8313736722748938,-0.04060817519590675,0.7132476817699535,0.7642798213121161,0.0,0.0,0.0,0.0
0.021545792187547007,0.11466975893544981,0.8370242098865556,0.0011252701644798894,-0.5284911962515026,-0.000538001790635268,0.8489378656920575,-0.013780016835828959,0.33808776293608744,-0.5986965968412071,0.03583220405754622,0.3112994319622666,-0.5776255778991354,0.07510999251431277,0.6674130492809935,0.8191655675886039,-0.047615259497776674,0.7063699382518998,0.771955458635402,0.0,0.0,0.0,0.0
0.02097379794642651,0.1154789464113404,0.8362478233809924,0.001106132419232071,-0.5294581546595647,-0.0007508302542881811,0.8483350017472395,-0.014940495747959822,0.3339082265277486,-0.5896650678230002,0.03846802560813882,0.3315960761925675,-0.6049060160468229,0.08778865946012654,0.6771776054992467,0.8057981295285547,-0.05251652111238034,0.7029442774086221,0.7803182921737999,0.0,0.0,0.0,0.0
0.02087947704369546,0.11577014917251734,0.8361693567264905,0.0008661611801764512,-0.529523494206015,-0.0007530142403135581,0.8482944959259232,-0.015264672135561496,0.33376724445936196,-0.5897039212107279,0.038494330134138235,0.3316382897223209,-0.6049080292041823,0.0878073170437964,0.6772101834533829,0.8058064379488731,-0.05260602747764242,0.7028460543656962,0.7802815777394996,0.0,0.0,0.0,0.0
0.02087947704369546,0.11577014917251734,0.8361693567264905,0.0008661611801764512,-0.529523494206015,-0.0007530142403135581,0.8482944959259232,-0.015264672135561496,0.33376724445936196,-0.5897039212107279,0.038494330134138235,0.3316382897223209,-0.6049080292041823,0.0878073170437964,0.6772101834533829,0.8058064379488731,-0.05260602747764242,0.7028460543656962,0.7802815777394996,0.0,0.0,0.0,0.0
0.021673882811634005,0.11714229349646943,0.8367520112437739,0.0007171563134974394,-0.5291743845020455,-0.0006523924075067597,0.8485125401889179,-0.018133932246477254,0.3418640319777966,-0.6037858996218481,0.03567747850469382,0.3350756658417338,-0.6095070092118593,0.08270005007955714,0.6803834803472769,0.8032539641312283,-0.05770782043075371,0.7076412966211758,0.7690138947677168,0.0,0.0,0.0,0.0
0.023768748019708068,0.11983782217878619,0.8393081138448807,0.00041636794534015767,-0.5296780084021218,-4.354824738684011e-05,0.8481986985114078,-0.024630668711015845,0.35621689723335936,-0.6174628044359798,0.02920634560387378,0.3406813321792689,-0.6042966633790131,0.07526034926918537,0.6966735168338015,0.7874749579663883,-0.0662423279597257,0.7288304624529375,0.7361614653358564,0.0,0.0,0.0,0.0
0.025179217606932005,0.12267260968924108,0.8406981377777709,3.370792038780352e-05,-0.5286022547088134,-0.0001686340404854001,0.8488696170455715,-0.024553636596322103,0.33345700123809996,-0.5835548903503668,0.02413258002272768,0.34622174197403804,-0.612415547432305,0.06302341669429538,0.7038133541123401,0.7787495354530465,-0.05877911803226035,0.7067753875449514,0.7738290512626305,0.0,0.0,0.0,0.0
0.027166896473830703,0.1256852137844638,0.8417605108077467,-0.0002974323183630581,-0.5278964097510681,-0.0001228390291112507,0.8493087053695618,-0.02409888410203961,0.3161485210675027,-0.5650419853599954,0.018270527940314373,0.3548143912214087,-0.6246892816131505,0.050914228719851774,0.7108977042587217,0.7746191034149141,-0.051085749358399546,0.6922354736180378,0.7998874944915577,0.0,0.0,0.0,0.0
0.029539986475639532,0.12865595275466618,0.8426836140240903,-0.0006129776191105735,-0.5274747342524087,2.8638139794870737e-05,0.8495704962883576,-0.023161782790984537,0.3042856422773874,-0.5563960857285383,0.012221654203651563,0.36525218589327396,-0.638865741283758,0.03946090368892444,0.7185648020064321,0.7723313129442323,-0.04576954806192458,0.683487438051266,0.8185885922609187,0.0,0.0,0.0,0.0
0.03187809565555688,0.1315476935391573,0.8436559855166977,-0.0009247455374292391,-0.527319779451819,0.0002293148568185543,0.8496663712653764,-0.02229242413826845,0.2965286509152424,-0.5538308428736096,0.006178542709648342,0.3745338673262704,-0.6493430188062309,0.028412091457624744,0.7270502911534497,0.7698326402728954,-0.043112203870066146,0.6778765008443902,0.833200040514917,0.0,0.0,0.0,0.0
0.03403960577462271,0.13429220765333758,0.8446628787674583,-0.001218184499911134,-0.527294301874898,0.0004425985871932316,0.8496817282625764,-0.021468705503579915,0.2913325033164297,-0.554784653278463,0.0003615577257897913,0.38234135185723067,-0.6565228935030913,0.017767882609179716,0.7358042899034467,0.7666726430571642,-0.042236917449239825,0.6739981189216893,0.8454078253660602,0.0,0.0,0.0,0.0
0.035942077579892304,0.13684385790412285,0.8456582500560391,-0.001481661284127436,-0.5273227457836426,0.0006451183004567043,0.8496635276869411,-0.020621729655214912,0.287573852542374,-0.557793340278337,-0.00508370121838941,0.3885535696997361,-0.6608919858090577,0.007598277083926847,0.7442803408579723,0.7630311351658703,-0.04230692662279112,0.6710661131837007,0.8561751461048266,0.0,0.0,0.0,0.0
0.03754532473337373,0.13916720571603428,0.8466011624076076,-0.0017080176525083924,-0.5273646577351205,0.000824088248476474,0.8496369350058744,-0.01965186743647601,0.2844882528616145,-0.5619839317427031,-0.010054001759731184,0.3931888423686059,-0.6629303091239824,-0.001962034065565858,0.7520784188381517,0.7591931639722937,-0.042691450012675915,0.6686242159218156,0.8660526524324312,0.0,0.0,0.0,0.0
0.03883640364962726,0.14123430343752133,0.8474609654246006,-0.0018936053574628562,-0.5273998557770431,0.0009732499463800937,0.849614535639337,-0.018458227763294848,0.28162104548905476,-0.5667872775371744,-0.014474843749589015,0.3963497824684869,-0.6630853855316866,-0.010751982745856979,0.758935519357452,0.7554225547844172,-0.042968225633743674,0.66641310527615,0.8753304143928761,0.0,0.0,0.0,0.0
0.03981744557672872,0.1430246479777628,0.8482130489890546,-0.002037008536630028,-0.527418950088673,0.001090036628109015,0.8496022089800219,-0.016964357090357547,0.27879654668411025,-0.5717578272312792,-0.018295245986792056,0.398177507663996,-0.6617690865515244,-0.018619398182462405,0.7646713317101069,0.7519672368639094,-0.04285199543745278,0.6643143734674893,0.8840852738924496,0.0,0.0,0.0,0.0
0.04049635896800394,0.14452568344783726,0.8488329695912108,-0.00213792509063727,-0.527417660501942,0.0011737166203644315,0.849602650099598,-0.015134678211610665,0.2760977547619572,-0.5764388683630893,-0.021485662464056567,0.3988149853793211,-0.6593548586822264,-0.025447270155968465,0.7691316733796679,0.7491021764632626,-0.04210646113626863,0.6623371497199917,0.8921541869559471,0.0,0.0,0.0,0.0
0.040879935080037524,0.14573338994822813,0.8492922030135189,-0.0021963025113976055,-0.5273938304140354,0.0012242156281087513,0.8496172227495072,-0.012979539698210998,0.27382356833890253,-0.5802420566362069,-0.024037190813022517,0.3983764622105621,-0.6561633711489073,-0.031171577984593926,0.7721471324870114,0.747167278873203,-0.040465914861252804,0.6606442275778774,0.8990322806397374,0.0,0.0,0.0,0.0
0.040968817770178044,0.14665291673750142,0.8495586632954641,-0.0022119188740528655,-0.5273463781509897,0.001241592431578112,0.849646610841332,-0.010544464228665671,0.27235788267166317,-0.5823307053826192,-0.025961530674348355,0.3969168285473251,-0.6524175861507555,-0.03579017629288918,0.7735233905682578,0.7465599184350702,-0.03760165786294106,0.6596313021987571,0.9036784613681199,0.0,0.0,0.0,0.0
0.040753955036463105,0.1472985995476197,0.849608050859309,-0.0021853324691579875,-0.5272765263570379,0.0012275757297581936,0.8496900506259225,-0.007877130200578572,0.271867591595587,-0.5815505762260107,-0.027291869305551768,0.39438939810953505,-0.6481199189908627,-0.03934637096540513,0.7730949744860436,0.7476112766100674,-0.033215688861398945,0.6600338237078412,0.9043130835056279,0.0,0.0,0.0,0.0
0.04021279957776022,0.14769034811496012,0.8494384674831523,-0.002116694531848882,-0.5271803399679851,0.001183598514294952,0.8497499678435154,-0.004998737695658375,0.2723329409778368,-0.5779189699757344,-0.028071733203278687,0.39062216848208264,-0.6429987552945706,-0.0419196480534053,0.7707863806607648,0.7503891635907082,-0.02738351061360244,0.6617889876051782,0.9009041564902894,0.0,0.0,0.0,0.0
0.03931167071155393,0.1478538555757003,0.8490706220172679,-0.0020051915276924075,-0.5270475986525222,0.0011105024121205642,0.8498326745577272,-0.0018928583018723417,0.2735454309602076,-0.5726301682630219,-0.028355399601244023,0.3853295696901496,-0.6365312981627675,-0.04362719878239239,0.7666174848453025,0.7546887756555503,-0.020536050965512496,0.6640344992593656,0.8951757777630082,0.0,0.0,0.0,0.0
0.03801405156265016,0.14782383733924073,0.8485335990973957,-0.0018492743472732017,-0.5268680091392062,0.001010023404860388,0.8499445046488621,0.0014853537826544543,0.27507115450436875,-0.5665625885902648,-0.02821818973155267,0.3781575954469269,-0.628034405879202,-0.044635030466073575,0.7606544792723158,0.7602155193719429,-0.013102386640583753,0.666231928425093,0.8881408166422774,0.0,0.0,0.0,0.0
0.03628926134211138,0.14764285905013652,0.8478536310289002,-0.0016457183600947444,-0.5266303988976851,0.0008830752078295196,0.8500923095441586,0.005183205805663555,0.2765468486715522,-0.5603326549606922,-0.02775266447235753,0.36875120863398203,-0.6168234750964893,-0.045168164147088186,0.7529697260897513,0.766703170527712,-0.005401818366532924,0.6680484997967447,0.8803223152171957,0.0,0.0,0.0,0.0
0.03412511066171918,0.14735837888779876,0.8470529375410318,-0.0013908765635701485,-0.5263251732955564,0.0007301017280646594,0.8502819205235721,0.009228211808774872,0.2778073023302838,-0.5543816868012799,-0.027062289142918375,0.35682875770882133,-0.6023234863074912,-0.045485720378501744,0.7436676425176849,0.7739247714183761,0.0023611601662870694,0.6692861487760501,0.871982640647101,0.0,0.0,0.0,0.0
0.03154752944486773,0.14701743196955297,0.8461502801279084,-0.0010836663158789086,-0.5259501101065205,0.0005523205186505699,0.8505145514853343,0.01359933990153657,0.2789241373099306,-0.5490294306107321,-0.026249923892419924,0.3423015797089571,-0.5842331231678064,-0.045830374357448064,0.7329382440171728,0.7816912763218616,0.010114968271590318,0.6699161063021742,0.8632925919469302,0.0,0.0,0.0,0.0
0.02865130866465152,0.14665723120711435,0.8451529928137043,-0.000731178154755326,-0.5255186752875178,0.0003539326515742848,0.8507816770677636,0.018194403776204987,0.280191011751913,-0.5444531768557855,-0.02539760092205908,0.3255052301244331,-0.5629044014779268,-0.046344805760375536,0.7210881433371614,0.7899459626925692,0.018041002108872356,0.6702565326042972,0.8544613849347944,0.0,0.0,0.0,0.0
0.025646012462885406,0.14628717589679807,0.8440191536613555,-0.00034502930040357637,-0.5250175894194495,0.0001331376508812115,0.8510912959426492,0.02288493507200433,0.2818651859156926,-0.5405095451926469,-0.02451943196885466,0.30782866332659087,-0.5408326574570257,-0.047050015935281096,0.7083599419334797,0.7990005696495961,0.026795025460055,0.6711070070839528,0.8457902429252403,0.0,0.0,0.0,0.0
0.022968584585716705,0.1458524104853678,0.8427305928562479,2.0229986179451227e-05,-0.5244402132160734,-8.358689996470058e-05,0.8514472710425803,0.02770596867249525,0.28388243932536245,-0.5362719195628887,-0.02351732333714138,0.29264119069800665,-0.5237955727737866,-0.04733038021633723,0.6955373177621792,0.8088161147396536,0.037847110350227656,0.6739363767849267,0.8376095761764993,0.0,0.0,0.0,0.0
0.020823402636475787,0.1454352507881569,0.8415033833242623,0.00030327260371111934,-0.5238873874070052,-0.00024287127712247698,0.851787446699664,0.031923426326284844,0.2859629295400566,-0.5322632552033784,-0.02260098627358294,0.2809308859349589,-0.5120552966683011,-0.047078923822050936,0.6842051265127495,0.8178146452807677,0.05091776687200001,0.6783880738994593,0.8302905630332188,0.0,0.0,0.0,0.0
0.019491673658637375,0.14511094305713043,0.840642446969473,0.00040530965751720016,-0.5234308232733531,-0.0002728692229938776,0.8520680339702039,0.03466530947420241,0.2869384270895094,-0.5290317984255046,-0.021968690637287593,0.2741083518530252,-0.506321436359391,-0.04586893396888484,0.6763799111776319,0.8235731936355691,0.06352443404335482,0.6829988097301709,0.8243089035951864,0.0,0.0,0.0,0.0
0.019434862215200282,0.14499099715715452,0.8405945172981413,0.000516271388866828,-0.5234319095695318,-0.0002675873539274702,0.8520673083185709,0.03469709815572358,0.28697785906891166,-0.5290318756346454,-0.02185584245717012,0.2739401174077712,-0.50631434132934,-0.04586285234199916,0.6762288725883167,0.8235048002029174,0.0635217163142671,0.683047921519376,0.8243247672245815,0.0,0.0,0.0,0.0
0.01943486221520022,0.14499099715715455,0.8405945172981415,0.0005162713888667207,-0.5234319095695319,-0.0002675873539274291,0.8520673083185708,0.034697098155723465,0.2869778590689119,-0.5290318756346456,-0.02185584245717017,0.2739401174077726,-0.506314341329342,-0.045862852341999494,0.6762288725883169,0.8235048002029178,0.06352171631426641,0.6830479215193759,0.8243247672245819,0.0,0.0,0.0,0.0
0.01943486221520022,0.14499099715715455,0.8405945172981415,0.0005162713888667207,-0.5234319095695319,-0.0002675873539274291,0.8520673083185708,0.034697098155723465,0.2869778590689119,-0.5290318756346456,-0.02185584245717017,0.2739401174077726,-0.506314341329342,-0.045862852341999494,0.6762288725883169,0.8235048002029178,0.06352171631426641,0.6830479215193759,0.8243247672245819,0.0,0.0,0.0,0.0
0.02081101101551017,0.14464918796559773,0.8414012074397081,0.0006100082062128895,-0.5241484132392823,-0.00031866693074348603,0.8516266595405043,0.035418995409708484,0.29295773288410804,-0.531978294772039,-0.02118445504533867,0.2816777201359023,-0.5129845593949404,-0.04546164217072439,0.6849670288965841,0.817225606259403,0.06502761580052308,0.6913735504268252,0.819724638369112,0.0,0.0,0.0,0.0
0.023364531566464,0.14413412140096282,0.8430344476380044,0.0007322710812415794,-0.5255988210062869,-0.00045640851907554817,0.8507321169599326,0.0366505012809757,0.30367782579294417,-0.5356655106407587,-0.020020648405357465,0.2950939028728584,-0.5225027570041564,-0.045209825046341516,0.7021905834707483,0.8047925296504413,0.06743512144237405,0.7079088878667986,0.8096624688319353,0.0,0.0,0.0,0.0
0.025880609138904154,0.14368901395038286,0.8440895960964573,0.0010476231860556038,-0.5257455317197377,-0.0006365355737365856,0.8506410131100273,0.037704917715153496,0.31889554366792655,-0.5558512299138512,-0.016300261789669895,0.2934876980798142,-0.5244820033971587,-0.03260811739441957,0.6928629601371082,0.8198250071600514,0.06771731020225669,0.7186234682532254,0.8003473314796494,0.0,0.0,0.0,0.0
0.028740195649966053,0.14338872826901833,0.8449676513420736,0.001369394707174897,-0.5258494454328763,-0.0008399734831180051,0.8505761458803204,0.03854380486212237,0.3367813276369248,-0.5812951186914436,-0.011327943042046977,0.2902535837778231,-0.5283275365209654,-0.0192151510136942,0.684963076339211,0.8321766195690609,0.06720800771763805,0.7291767068187338,0.7920662298653628,0.0,0.0,0.0,0.0
0.031660401394060615,0.1432400251696218,0.8456635233857448,0.0016188526990613282,-0.5259049137638694,-0.0009830534766312948,0.8505412597874473,0.039047329080538214,0.35513271144399194,-0.6084338711196627,-0.006377805494874693,0.28700547216798206,-0.5333314318887253,-0.00794725575532714,0.6795841324280177,0.8430000740040009,0.06663367523693743,0.7391048610273757,0.7848684629085747,0.0,0.0,0.0,0.0
0.03433643830088854,0.14317507216729944,0.8463453893305903,0.0018506550373533744,-0.5260898293916593,-0.00110431436675555,0.8504262736865359,0.039331518440985196,0.37098030716113256,-0.6305794698132954,-0.001682930947372388,0.2843675954485482,-0.5387835768800432,0.0014463820255528718,0.6759725894082586,0.8530907961015448,0.06582512185171446,0.7488544839496125,0.7778365094820633,0.0,0.0,0.0,0.0
0.036603979281769436,0.14317413795524866,0.8470305583671546,0.002060791496939273,-0.5263460520584886,-0.0012095752857307642,0.8502670895362686,0.0394400459067697,0.383753396040493,-0.6471670985778463,0.0025728589442356124,0.2821065657593116,-0.5445370347423967,0.009707413465061047,0.6729657739974673,0.8626400903738514,0.06478443911103261,0.7579820024244832,0.7707197928866469,0.0,0.0,0.0,0.0
0.038398116061492876,0.1432480325816087,0.8476949289617056,0.0022441747510024454,-0.5266197162700254,-0.0012995732556384098,0.8500970234183379,0.03935514368750387,0.3935100829178749,-0.6588003189286891,0.006341919021835035,0.2798881700324482,-0.5504887650271771,0.017327513245099194,0.6699242333445848,0.8717050216759,0.06343282413314533,0.7660604360654972,0.7636584784704147,0.0,0.0,0.0,0.0
0.03971700567840506,0.14342587545531385,0.8483106027219868,0.002396982895835072,-0.5268786195952173,-0.0013724667395464281,0.8499360511364865,0.039019116834562814,0.4005592068086116,-0.6663582627417529,0.009649669460345726,0.2774639896588959,-0.5565393512627954,0.024549011366036447,0.6665819376092132,0.8803333684204929,0.06163696147847668,0.772840639530821,0.7568492672860584,0.0,0.0,0.0,0.0
0.040593958443843246,0.1437445988965302,0.8488530267799057,0.002516473019987588,-0.5271064326992356,-0.0014252081611776587,0.849794354389533,0.03835666550774464,0.4053144143809331,-0.6707624773634896,0.012543548451125621,0.2747213131764007,-0.5625678134074311,0.031446328611127214,0.6628875928784718,0.888546516915775,0.05924414881526477,0.7782188566302232,0.7504594096336571,0.0,0.0,0.0,0.0
0.04107805445826143,0.14424139788491303,0.8492987095996555,0.002600627617368943,-0.5272960708132525,-0.0014546626789838947,0.8496763939273537,0.037292237583713854,0.4082161625000681,-0.6729012126835544,0.015068887207026928,0.271710445897481,-0.568399139206496,0.03798098322154227,0.6589149901948949,0.8962838826725164,0.05611052664569337,0.7821650568637294,0.7446466236410635,0.0,0.0,0.0,0.0
0.041221505399122865,0.14494874613701264,0.8496213977969272,0.0026477110363544907,-0.5274450626553151,-0.0014581166259819349,0.849583762440587,0.03576131133674462,0.4096843750165142,-0.6735989451163986,0.01726477957382516,0.2686644661646468,-0.5737514962673098,0.044015127004944955,0.6548351964013993,0.9033181538439801,0.05212320646889591,0.7846596278020593,0.7396050204125063,0.0,0.0,0.0,0.0
0.04107157702848162,0.14589085528404053,0.8497898680553606,0.002655807729357525,-0.5275531821172932,-0.0014332212979671628,0.8495166464525188,0.033717485171671085,0.41008395213790216,-0.6735868349357608,0.019170039287602466,0.26598539803868443,-0.578159395701479,0.049297528754558534,0.6509449145778624,0.9091212244093791,0.0472191159742364,0.785653792566057,0.7355998031803761,0.0,0.0,0.0,0.0
0.040665239317238235,0.1470806432615318,0.8497703638980005,0.0026227997824406313,-0.527622287149999,-0.0013779094232324908,0.8494739221362398,0.03113770530304012,0.4096893526368973,-0.6734388565213603,0.020827867054173735,0.2641346006289349,-0.5808780016378368,0.05346627441218038,0.6477560560043525,0.9126524352299056,0.04139826744345514,0.7850668497337417,0.7329548085230332,0.0,0.0,0.0,0.0
0.040025372321069744,0.14851755626023436,0.8495395748099576,0.002548463441279867,-0.5276593010642575,-0.0012925161468847995,0.8494512915620752,0.02802748431683933,0.4086342040605793,-0.6734190181227332,0.022278022340236847,0.26334486544836,-0.5808159861093367,0.0561654448974823,0.646113195437801,0.9121490364515423,0.034706875633156005,0.7828486740484248,0.7319256657421268,0.0,0.0,0.0,0.0
0.03915705220214824,0.15019060684141267,0.8490992786490328,0.00243585507815196,-0.527669375322318,-0.0011797734746287851,0.84944552803081,0.024412856708188144,0.4068883211574873,-0.6734215136535431,0.023554964837853853,0.26365205458644364,-0.5780166572976445,0.05740777170869063,0.6460510627099655,0.9076138490014932,0.027206282577618902,0.7790381511210958,0.7325049728896708,0.0,0.0,0.0,0.0
0.03805057550119663,0.15207846575147635,0.8484764077732427,0.0022911944231874715,-0.5276547043372799,-0.0010447751450314824,0.849455220634819,0.02034149053522514,0.4042798939513426,-0.6730125117593619,0.024693777350586907,0.26490306779082673,-0.5736710455610342,0.05758580977443243,0.6467958509423293,0.9008013380823737,0.018977291448793513,0.7737714417443821,0.7344142142421499,0.0,0.0,0.0,0.0
0.03669011492429528,0.1541452089754552,0.8477094676587587,0.0021223619114164424,-0.5276205748581244,-0.0008949588020664504,0.8494770294805163,0.01589509217646322,0.400549247133731,-0.6715391214535129,0.025742187877352305,0.266742757382835,-0.5686507249153698,0.05713253028570079,0.6479073677380037,0.8927339760026459,0.010158807717485266,0.7672397495470613,0.7372888022451982,0.0,0.0,0.0,0.0
0.03506155106375636,0.1563401047042092,0.8468373047386957,0.0019373602351648411,-0.5275738746946717,-0.0007383707279549163,0.8495066263329781,0.011189577446317739,0.3954166982074666,-0.6682944405393236,0.026776175160901097,0.2689271020907648,-0.5635916091672426,0.0564350430498796,0.6491691517202708,0.8839187769420626,0.0009649419896278089,0.7596416585530439,0.7408069301153543,0.0,0.0,0.0,0.0
0.033161400929391925,0.15859785960078956,0.8458980323506894,0.0017453569758669298,-0.5275254519006354,-0.0005847452888219986,0.8495372324972017,0.00637576957007909,0.38863249427420726,-0.6625873889024997,0.02789570657655903,0.2714651442503125,-0.5590243361278437,0.05588396380434838,0.6505031629855241,0.8745640723257562,-0.008335520840427216,0.7511949138264311,0.7447138850719094,0.0,0.0,0.0,0.0
0.031007852632938607,0.16083885747251342,0.8449302082410368,0.0015585351209481007,-0.5274948793360298,-0.0004474374596132428,0.8495566626436779,0.0016400672836137256,0.3800292036778577,-0.6537939258661205,0.0292035283385872,0.27467018153483835,-0.5555150626216243,0.055973346994740374,0.651937830869614,0.8647157586707657,-0.017452581973174196,0.7421666575450276,0.7488282955016842,0.0,0.0,0.0,0.0
0.028654895080475196,0.1629688788476197,0.8439679005559382,0.0013943152202054018,-0.5275176209812049,-0.00034652506759119076,0.849542874350538,-0.0027925861205847216,0.36959493863137793,-0.6414537805729708,0.03077285039046526,0.2791758170031856,-0.5538428543246544,0.05740372957069715,0.6536239877604518,0.8543389760522094,-0.02611688388411349,0.7328764936578114,0.7531246863702804,0.0,0.0,0.0,0.0
0.026209944042709973,0.16487615361980706,0.843012804763393,0.001272053027404672,-0.5276504170569755,-0.00033202765735704964,0.8494605988616128,-0.006603694929695024,0.3576101612647697,-0.6255552282908631,0.032674375634088065,0.28597268752569927,-0.555438971922092,0.061072593000013116,0.6558718015077909,0.8434816164243937,-0.034179380576628934,0.7235496877060802,0.7580460277433623,0.0,0.0,0.0,0.0
0.02416251788358852,0.16658764259445558,0.8419905556665064,0.0012110745650765566,-0.5278866300277838,-0.00039350184635173564,0.849313890321243,-0.009896193140094971,0.34739966535266814,-0.6119457333829169,0.03464521949742684,0.2959589998208814,-0.5613159236255157,0.06782348167633752,0.6601170406194893,0.8320529885251868,-0.04193694337176257,0.7147903794066138,0.7642668494541288,0.0,0.0,0.0,0.0
0.02273950931717428,0.1679445758603188,0.8410006097580597,0.001219971334357525,-0.5284326355640271,-0.0005589393720939174,0.8489741744762191,-0.012308895420987368,0.33975818702336075,-0.6004535089953755,0.03689759209753133,0.3105378043290296,-0.5751116820567937,0.07852109776167603,0.6668844758099999,0.8198910691823507,-0.049011822508012885,0.7078438551063234,0.771951877556633,0.0,0.0,0.0,0.0
0.02216004487299342,0.1687485214399809,0.8402204021068885,0.001227823688601336,-0.5293801859756114,-0.0007746759564912801,0.8483834693242078,-0.013484943602263695,0.3355808910858715,-0.5915227882812706,0.0394725097212579,0.33030925640039943,-0.6015134456832987,0.09142171732934633,0.6763914019213597,0.8066425510810648,-0.05406036924154295,0.7043078978436283,0.780300661734467,0.0,0.0,0.0,0.0
0.022065957645655204,0.16903726738261013,0.8401427088946707,0.0009901288683562687,-0.5294454434199816,-0.0007765558572078923,0.8483430550476875,-0.013807501289645942,0.3354415547771948,-0.5915621237316302,0.03949902892776673,0.33035151476176283,-0.601515118701343,0.09144051286514294,0.676423802704692,0.8066509290775833,-0.054149394492965776,0.7042103779170674,0.7802642352649994,0.0,0.0,0.0,0.0
0.022065957645655204,0.16903726738261013,0.8401427088946707,0.0009901288683562687,-0.5294454434199816,-0.0007765558572078923,0.8483430550476875,-0.013807501289645942,0.3354415547771948,-0.5915621237316302,0.03949902892776673,0.33035151476176283,-0.601515118701343,0.09144051286514294,0.676423802704692,0.8066509290775833,-0.054149394492965776,0.7042103779170674,0.7802642352649994,0.0,0.0,0.0,0.0
0.022869551486351575,0.17041270567225208,0.8407314781112778,0.0008184273720073207,-0.5291074486174024,-0.0006693159472248156,0.8485541762376652,-0.016671717731799065,0.3435816040615886,-0.6056611672237446,0.0366884427013163,0.3338153798903288,-0.6060552655362936,0.08647868205759589,0.6796293947013203,0.8041016754854216,-0.05913297825128523,0.7091112610998297,0.7689489226721842,0.0,0.0,0.0,0.0
0.024983146489962,0.17312550755484798,0.8433106953203858,0.0005176561722545779,-0.5296062103783407,-7.028484904372443e-05,0.8482434727251487,-0.023184883209987378,0.3580720379838606,-0.6194978866793707,0.0302073782621955,0.33949695113409506,-0.6009219191476903,0.07894525977221646,0.6960536698614778,0.788196626837989,-0.06782783982247916,0.7304514733259847,0.7357179879675225,0.0,0.0,0.0,0.0
0.026402343242531087,0.1759761812893461,0.8447236482398082,0.00011834370683496159,-0.5285328454682543,-0.00019241886182051068,0.8489128225153505,-0.023114031182534703,0.3350025244812717,-0.5848709483313368,0.025118047111224222,0.3450570542726635,-0.6089604875602568,0.06672250784769064,0.7033056910200034,0.7793505245612525,-0.060144447067339776,0.7083357189422784,0.7736833362819698,0.0,0.0,0.0,0.0
0.028400668475940666,0.1790130210392499,0.8457981200484244,-0.0002241271873105278,-0.527835648203129,-0.00014747249158147531,0.8493464878981078,-0.022699277412113944,0.3174849856738268,-0.5658733233096789,0.019227169751120737,0.3536856141644738,-0.621199436437487,0.05456848043190375,0.710470500917193,0.7752446407335151,-0.05231202050612179,0.6937819456137435,0.799917234589981,0.0,0.0,0.0,0.0
0.03078052751778393,0.18201325040306363,0.8467305808988215,-0.0005473882856317314,-0.5274257367623642,1.5043608542479067e-06,0.8496009607836369,-0.02181590150370749,0.3054965020942428,-0.5569220542682014,0.013138493778552373,0.3641261653729382,-0.6352836241194524,0.04302798922124604,0.71820773131091,0.7730247137402693,-0.046943011507586355,0.6850256799439823,0.8187086994888298,0.0,0.0,0.0,0.0
0.033126983955834764,0.18493371493945837,0.8477097096877151,-0.0008627001061166157,-0.527278056838591,0.00019840948083810984,0.8496923367659169,-0.02098877807153944,0.29766981000432274,-0.5541827301469902,0.007054887929016168,0.3734269430753483,-0.6457327569258128,0.031864892188222166,0.7267525566651424,0.770596539386037,-0.04428853035018051,0.6794054108995276,0.8333605129569632,0.0,0.0,0.0,0.0
0.035298313663228165,0.1877040494550911,0.8487216732348815,-0.0011577669496582782,-0.5272568345592021,0.00040815282150336306,0.8497050802470083,-0.020194478909248807,0.2924409658670889,-0.555040988143698,0.001199971673251506,0.38126520815628057,-0.6529257902903525,0.021104183906395055,0.7355587280475578,0.7674997671055789,-0.043443628048339476,0.6755265493467429,0.8455829992872448,0.0,0.0,0.0,0.0
0.03721162061174766,0.19027757758143926,0.8497209620222628,-0.0014220941385684593,-0.5272876570581618,0.0006079663831517424,0.8496854328157287,-0.019366013536870907,0.2886738500899096,-0.5580011056954735,-0.004278683615586595,0.3875162376120668,-0.6573338063396574,0.010829213965440905,0.7440815939076887,0.7639109432363927,-0.04355451191014887,0.6726055937919908,0.8563531570216174,0.0,0.0,0.0,0.0
0.0388260968922048,0.19261846757257622,0.8506669240938824,-0.001649003576332734,-0.5273307966196119,0.0007851377020038933,0.8496581049354615,-0.01840610841343368,0.2855945302024265,-0.5621711053176582,-0.009276655156389254,0.3921951161932757,-0.6594265167733352,0.0011805652240015549,0.7519215798858618,0.7601148728556488,-0.04398033533382623,0.67018448635335,0.8662290411286043,0.0,0.0,0.0,0.0
0.04012815963665439,0.1946987368976684,0.8515290778140725,-0.001834990630850977,-0.5273665229410746,0.0009332493193980948,0.8496353996486572,-0.017215810215573234,0.28274125354775564,-0.5669701278886404,-0.01371880522790596,0.3954015071277528,-0.6596441415234475,-0.007678883480989541,0.7588155708736254,0.7563762032436668,-0.044292948546886896,0.6680002908818369,0.8755046820129829,0.0,0.0,0.0,0.0
0.0411193666934005,0.19649803405946378,0.8522829317625955,-0.001978647585881027,-0.5273857596785442,0.0010495127427622942,0.84962300108049,-0.015720158898194173,0.27993316360809295,-0.5719450611657921,-0.017553890960886238,0.39727389858976087,-0.6583928771351926,-0.015597071435259468,0.7645830699834689,0.7529439386988827,-0.04420373827479367,0.6659306436660511,0.8842591179963167,0.0,0.0,0.0,0.0
0.04180716264298486,0.19800404141451794,0.8529041149392551,-0.0020796505455198608,-0.5273844975986927,0.0011329878382683072,0.8496234360496074,-0.013884924056478787,0.27724963435562866,-0.5766339450593293,-0.02075233633756353,0.397953034765614,-0.6560415149450434,-0.022457869063718675,0.7690698058392987,0.750094349829082,-0.04347463765716088,0.663981027310898,0.8923305920997908,0.0,0.0,0.0,0.0
0.042198016890067344,0.19921299508318777,0.8533640996414452,-0.0021379419706173976,-0.5273608556813445,0.0011834281840506,0.8496378973403338,-0.011721916672688598,0.274987158269191,-0.5804444474223189,-0.02330530729747148,0.3975515452027815,-0.6529071911606428,-0.028198348145573784,0.7721063434843601,0.7481691971321539,-0.04183903349794525,0.6623112363396075,0.8992149838582525,0.0,0.0,0.0,0.0
0.04229244120971379,0.20013024287298783,0.8536306877292478,-0.002153311555797106,-0.527314002125313,0.0012007474626016664,0.8496669139241919,-0.00927813314993282,0.2735281424044023,-0.5825366269924845,-0.02522451233535707,0.39612377858402825,-0.6492115166954907,-0.03281742402263646,0.7734982680745366,0.7475684341364358,-0.038967518878836656,0.6613149726450513,0.9038714640825233,0.0,0.0,0.0,0.0
0.042081523388026836,0.20077014063283197,0.8536793596819954,-0.002126284602657836,-0.5272451986314127,0.0011865366286252484,0.8497096984057199,-0.006601967196919927,0.2730386646301159,-0.5817540834778464,-0.026542895750978287,0.39362449585421677,-0.6449602763535741,-0.03635924943408558,0.7730796810102232,0.748625854093559,-0.034561260679016374,0.6617268840490876,0.9045200541183498,0.0,0.0,0.0,0.0
0.04154321024584459,0.20115229200913695,0.8535079588446217,-0.002056997740590942,-0.5271503807464653,0.0011422590087089017,0.8497687568294735,-0.003713744505521725,0.27349980677221186,-0.5781149719689281,-0.027303466004217576,0.3898856155988885,-0.6398900475830107,-0.038902211134811744,0.7707745229490947,0.7514111839200674,-0.0286958990056309,0.6634853672717781,0.9011292551842481,0.0,0.0,0.0,0.0
0.040644588327949836,0.20130182324209606,0.8531369115177733,-0.0019446465809601465,-0.5270190290706978,0.0010689604039002625,0.8498505860859948,-0.0005944888909609983,0.27470539515532705,-0.572817288428547,-0.02755984514230051,0.3846275162039656,-0.6334902980766968,-0.040560720487748635,0.7666018416695887,0.7557209388591533,-0.02180327156885513,0.6657313779921743,0.8954244622587871,0.0,0.0,0.0,0.0
0.03934992994211294,0.20125291049441954,0.8525949627429124,-0.001787646384638113,-0.5268403219421899,0.0009685918340115608,0.8499618469826232,0.0028041394661090764,0.27622401220895665,-0.5667440366152807,-0.027386875317333553,0.377502782957697,-0.6250926951939886,-0.041498775612626035,0.7606262759467513,0.7612620137448644,-0.014312781358863928,0.6679308093929651,0.8884189271083232,0.0,0.0,0.0,0.0
0.03762907878460956,0.20104789736245673,0.8519080073572532,-0.0015827159672647541,-0.5266024626049524,0.0008422712967948268,0.8501097764216273,0.006532992761985178,0.2776947155200078,-0.5605169936110963,-0.026877301019754374,0.36816157176156933,-0.6140257853074905,-0.04194153924090376,0.7529179883212079,0.7677702327170948,-0.0065436191338312044,0.6697551589710143,0.8806347747479992,0.0,0.0,0.0,0.0
0.03546979372231895,0.20073461918231125,0.8510981199960589,-0.001326085064962522,-0.5262951373628751,0.0006905705458682032,0.8503006485937277,0.010622387835921815,0.27895398113781733,-0.554584459745583,-0.02613588762368113,0.35632378451030805,-0.5997217364265875,-0.04215207247161826,0.7435790105021481,0.7750198225109042,0.0012994464591603713,0.6710082127772072,0.8723314439988442,0.0,0.0,0.0,0.0
0.03289702854194792,0.20036139605235884,0.8501845215226329,-0.0010164126825226855,-0.5259154083558624,0.000514622959779868,0.8505361164126745,0.015051968706777222,0.28007449415220625,-0.5492759278924886,-0.025268268554588393,0.3418953107223005,-0.5818728605795968,-0.04238254097188903,0.7327986217576797,0.7828185373060014,0.00914165952695779,0.671657029252106,0.8636739685577237,0.0,0.0,0.0,0.0
0.030003362149484774,0.19996794668348128,0.8491764138028133,-0.0006604300279204499,-0.5254767368233653,0.00031824553775533255,0.850807652533417,0.019715140739489594,0.2813532775461346,-0.5447831325197622,-0.024360985216793266,0.3251930096452637,-0.5607935153960146,-0.042790966051193244,0.720889464537283,0.7910960032001377,0.01715273055522154,0.6720060057477136,0.854864033487833,0.0,0.0,0.0,0.0
0.026994977744864992,0.19956778060636277,0.8480365672496212,-0.000270703268973966,-0.5249719427304943,9.991153505772612e-05,0.8511194840227756,0.02446522592203145,0.28307078917538436,-0.5409827069687806,-0.023435136412515226,0.3075529520329197,-0.5388367974541424,-0.04340983747572293,0.7081236249530614,0.8001425741338052,0.025966895193341843,0.6728491982804872,0.8462024770696991,0.0,0.0,0.0,0.0
0.024315088481677495,0.19910613370826172,0.8467433670842749,9.701370406315552e-05,-0.524395323320578,-0.00011542840919159056,0.8514749098735265,0.02933813648939243,0.2851664156530713,-0.5369014571192738,-0.022387670774789797,0.2923937220757779,-0.5218722583774908,-0.04361827709328596,0.6952845276080978,0.80995209644579,0.03708241742033474,0.6757107744552274,0.8380101688925181,0.0,0.0,0.0,0.0
0.022169458746202478,0.1986684438080243,0.845514291123929,0.00038310537177073124,-0.523850299764279,-0.0002769394277134768,0.8518102135873358,0.0335921380880296,0.28739575735962763,-0.5331134367892806,-0.021430868947002562,0.28069444901974083,-0.5101307351162366,-0.04334093213952846,0.6839745446975484,0.818952095396852,0.05020436069041116,0.6802453241693898,0.830652099342846,0.0,0.0,0.0,0.0
0.020840774724755425,0.1983334225739981,0.8446539437576158,0.0004908924516376908,-0.5234081574133712,-0.0003153339911622932,0.8520818976731136,0.036352617770936034,0.28861403772539673,-0.5302333449566455,-0.020766568162216316,0.2738717019830155,-0.5043395324513428,-0.04218370819459978,0.6762118527037979,0.8247340382957815,0.06281694075225991,0.6849895117721329,0.8245851614655368,0.0,0.0,0.0,0.0
0.02078349025755618,0.1982119982935173,0.8446056949329228,0.0006029994608763525,-0.5234095845301417,-0.0003100960748584864,0.8520809509982363,0.036384386539571933,0.28865375885606903,-0.5302335316849106,-0.020652116898530918,0.2737031531496039,-0.5043328551870011,-0.04217730308229122,0.676060401523187,0.8246655488450315,0.06281416043318581,0.6850386531167135,0.8246009438654364,0.0,0.0,0.0,0.0
0.0207834902575548,0.19821199829351774,0.8446056949329241,0.0006029994608704232,-0.5234095845301451,-0.0003100960748586082,0.8520809509982344,0.03638438653957288,0.2886537588560745,-0.5302335316849129,-0.02065211689852764,0.27370315314966603,-0.5043328551870957,-0.04217730308229001,0.6760604015231952,0.8246655488450458,0.06281416043317971,0.6850386531167182,0.8246009438654432,0.0,0.0,0.0,0.0
0.0207834902575548,0.19821199829351774,0.8446056949329241,0.0006029994608704231,-0.5234095845301451,-0.00031009607485860813,0.8520809509982344,0.03638438653957288,0.2886537588560745,-0.5302335316849129,-0.02065211689852764,0.27370315314966603,-0.5043328551870957,-0.04217730308229001,0.6760604015231952,0.8246655488450458,0.06281416043317971,0.6850386531167182,0.8246009438654432,0.0,0.0,0.0,0.0
0.022150284943367633,0.19789012334072736,0.8454088518336508,0.0006952392212011394,-0.524122792713239,-0.0003615175980153867,0.851642345181313,0.03706853867446107,0.29460553756950286,-0.5331691169481563,-0.020018597398234843,0.2813376269647625,-0.5108434986254614,-0.04182480940846697,0.6847477950820438,0.8184424730819507,0.06422697068038921,0.6933421872752398,0.8199350847617204,0.0,0.0,0.0,0.0
0.024685117200041892,0.1974085103983324,0.847027283387824,0.0008124876914681117,-0.5255652094679619,-0.0004951214040763999,0.8507527874273723,0.03822942556993988,0.3052821958224872,-0.5369024764834348,-0.018925850981163242,0.2945792576723385,-0.5201314175737507,-0.0416119453562299,0.7018185077172533,0.8061833699054632,0.0665059230849235,0.7097934232171362,0.8098377993482571,0.0,0.0,0.0,0.0
0.027190224215847845,0.1969976963188259,0.8480758935719558,0.0011158309718720429,-0.5257187634282454,-0.0006693952866423115,0.8506574449275507,0.039218804601014685,0.3204526094512704,-0.5570168551029805,-0.015239090563721431,0.29327807498251623,-0.5227125314429052,-0.029405407436925775,0.6927341364534122,0.8209423571735099,0.0667039474642199,0.7205109200527506,0.8004753111475201,0.0,0.0,0.0,0.0
0.030033145333144957,0.196732380511645,0.8489428041993441,0.0014252242442416932,-0.52582217025265,-0.0008654700426654429,0.850592890264345,0.0399895788681772,0.33828131007134027,-0.5824311907075496,-0.01032170171341292,0.2902217936308222,-0.526937313650356,-0.016363907068240667,0.6849670180407048,0.8331404173095555,0.06610630107795201,0.7310205388215293,0.7921601782978629,0.0,0.0,0.0,0.0
0.032927057631377515,0.19661366194826124,0.8496319089361788,0.0016671044109569796,-0.5258825670611229,-0.001003896937680002,0.8505549591972438,0.04043440501244676,0.3564758173723755,-0.6093170666140996,-0.005415124514245057,0.28707084254531656,-0.5321576292501082,-0.005318684425121329,0.6796294012769831,0.8438793451649234,0.06542569180639976,0.7409084478701455,0.7849149403458991,0.0,0.0,0.0,0.0
0.035573636685977635,0.19657454274355027,0.8503072630581275,0.0018931449762555922,-0.5260699014083272,-0.001121835719294955,0.8504384847353457,0.0406676470224662,0.37216322250435374,-0.6312197010282067,-0.0007608189685903424,0.28447124066190504,-0.5377345677955307,0.003948907898179909,0.6759967685089676,0.8539183328158303,0.06450898097644561,0.7505982697952062,0.7778410064260419,0.0,0.0,0.0,0.0
0.03781225196010404,0.19659567979770684,0.8509857112044295,0.002098756471890081,-0.526326534949403,-0.001224614095996827,0.8502790566336104,0.040732072049640605,0.3847911256242383,-0.6476033499584021,0.003458201743276685,0.28221527583238837,-0.5435546961529801,0.01213897713233709,0.6729452666775853,0.8634344035665373,0.06336536973591747,0.7596526927468029,0.77069797190356,0.0,0.0,0.0,0.0
0.0395800058947877,0.1966881046459965,0.851643688829355,0.0022785490074621337,-0.52659951056172,-0.0013126790416888088,0.8501094285821744,0.040609484708031676,0.3944220549712379,-0.6590703093607851,0.007195887241064859,0.27998633645189375,-0.5495367753079369,0.019717649205477444,0.6698555281903601,0.8724777725997467,0.06192089872521057,0.767654762629091,0.7636237837479456,0.0,0.0,0.0,0.0
0.040876036305908435,0.19688105985649965,0.8522538132783892,0.002428515830833499,-0.5268572300388518,-0.0013840244486939969,0.8499492019779613,0.04024206758883911,0.4013656954605404,-0.6664945600920646,0.010478549915032387,0.27754602961006253,-0.5555957801710819,0.026914131858067313,0.666469427398882,0.8810918118061509,0.06004522896412498,0.7743629454987958,0.7568100268037761,0.0,0.0,0.0,0.0
0.04173403296038024,0.19721156684343513,0.8527918122329159,0.002545797238333063,-0.5270837128045848,-0.0014355232055121465,0.84980834185461,0.039554536019599275,0.40603529647591585,-0.6707931615247439,0.013353733376990716,0.27478682468786486,-0.5616203208247401,0.03379687391458874,0.6627376542935964,0.8892948463965241,0.05758705489446599,0.7796780059158006,0.7504196182424697,0.0,0.0,0.0,0.0
0.04220312178015601,0.19771691430813557,0.8532342772998209,0.002628295594697448,-0.527272061545737,-0.001464004962908493,0.849691192060412,0.038471357249537305,0.40887049481422455,-0.6728511882088899,0.01586631777872985,0.2717614808809535,-0.567441820686536,0.04032485720884584,0.6587337405598768,0.8970242178359479,0.05440275424025216,0.7835720783836648,0.7446074376286266,0.0,0.0,0.0,0.0
0.04233538526633049,0.198429684868449,0.8535549223859226,0.00267421212217949,-0.5274198961447253,-0.001466734480707439,0.8495992881530539,0.0369279695737303,0.4102903193789966,-0.6734910851656951,0.018054666269630915,0.268704083669628,-0.5727828045496778,0.04635896320135943,0.654628070153943,0.9040512440774777,0.05037897684320176,0.7860262246898974,0.7395660217074115,0.0,0.0,0.0,0.0
0.04217787303431516,0.19937420621396734,0.8537224430291243,0.0026815741946137075,-0.527527022747113,-0.0014413365626863347,0.8495327962947156,0.03487786132959912,0.4106588094305129,-0.6734427675258499,0.019956824376829486,0.26601690155302926,-0.5771807267660437,0.05164672758157307,0.6507170337601371,0.9098468471328991,0.045451919998478536,0.7869915136742661,0.7355598746322437,0.0,0.0,0.0,0.0
0.04176729908748003,0.20056350559244576,0.8537029987615697,0.00264820965509462,-0.5275952852453367,-0.0013857012615518108,0.8494906013632688,0.03229780260316337,0.4102495816475025,-0.6732794130237675,0.021615373566127107,0.2641611014582822,-0.5798925818584232,0.055824348340110984,0.6475128674035247,0.9133694708045058,0.03962092353568204,0.7863866741910323,0.7329126649164829,0.0,0.0,0.0,0.0
0.04112628717570293,0.20199713229870345,0.853473222171394,0.002573852288247572,-0.5276315413703667,-0.0013001063949251027,0.8494684464763191,0.02919303215588397,0.409195452560198,-0.6732645380304894,0.023069694648118325,0.2633689506138156,-0.5798276416840459,0.05853345821473721,0.6458608892275571,0.9128553882592041,0.03293157021326287,0.7841607971612022,0.7318800284760867,0.0,0.0,0.0,0.0
0.04025973305968843,0.20366426879805802,0.8530348577403142,0.0024615548501052444,-0.5276409345426739,-0.0011872599048944252,0.8494631100622155,0.025589116104956997,0.4074657279411208,-0.6732919552463872,0.024353960506854164,0.26367596256372783,-0.5770286832628461,0.05978620453547223,0.6457957931771658,0.9083076345654881,0.025444033660490382,0.7803520108842614,0.7324549707153893,0.0,0.0,0.0,0.0
0.03915783883028036,0.20554383795244538,0.8524148101912273,0.002317567520453672,-0.527625697594271,-0.001052261023913547,0.8494731572366984,0.0215330359619268,0.4048885228749412,-0.672927909789228,0.025503038099238894,0.26492884354542867,-0.5726850392046644,0.05997644335675618,0.646542937002689,0.9014819686921857,0.01723741662008487,0.7750957157705395,0.734359781857041,0.0,0.0,0.0,0.0
0.03780470878614543,0.20760020482860356,0.851651532770816,0.0021498200137274374,-0.5275910817997024,-0.0009025299801773518,0.8494952702157694,0.01710562400321528,0.4012044200355707,-0.6715206872897703,0.02656461147580078,0.26677181521453674,-0.567665163341137,0.059538040570075605,0.6476616301724143,0.8934019725345426,0.008448869719356645,0.7685820482759329,0.7372309068126786,0.0,0.0,0.0,0.0
0.03618615628680289,0.2097829875207207,0.8507837369850003,0.0019663895887699428,-0.5275438587226479,-0.0007460759444384574,0.8495251931559706,0.012421716946244313,0.3961344152053539,-0.6683660900263136,0.02761464626333062,0.2689594762233161,-0.562600292003898,0.058858758579082265,0.6489353273777735,0.8845757635759881,-0.000709457153224069,0.7610079598841559,0.7407481352254003,0.0,0.0,0.0,0.0
0.03429860081353658,0.21202734277928365,0.8498492609029619,0.0017765729488571436,-0.5274946577928361,-0.0005925936509897957,0.8495562833746455,0.007630792076676137,0.38942989542998957,-0.6627776564297486,0.028752813966270815,0.2714980283170874,-0.5580141054183346,0.058330745406741116,0.6502857595725655,0.8752130533804325,-0.009971471901083457,0.7525886285929341,0.7446590349992789,0.0,0.0,0.0,0.0
0.03216003115282172,0.21425424805270837,0.84888620499327,0.0015927889257809419,-0.5274626842735842,-0.00045542061725630634,0.849576584137301,0.0029175595271037176,0.38092485138341026,-0.6541379326641241,0.03008075118633643,0.27469511774389654,-0.5544621147580082,0.05845237044025722,0.6517396564447803,0.865361607402494,-0.01905129650611121,0.7435872912828421,0.7487849181523071,0.0,0.0,0.0,0.0
0.029823978547054722,0.21637027572871767,0.8479280300688853,0.001432884182619387,-0.5274827596828056,-0.0003546784532805188,0.8495644526953359,-0.0014951504482085811,0.37060850698623204,-0.641994629933419,0.031668879236114784,0.2791733029617774,-0.5527063611687448,0.05993382712906283,0.6534420203299931,0.8549889147120757,-0.02768607495275726,0.7343180221684189,0.7531018484178664,0.0,0.0,0.0,0.0
