zhuoxili-jackie/tripod-support-walk/examples/pcbA样数据/trajectory_trotting_acc_f015.csv
root_pos_x,root_pos_y,root_pos_z,root_rot_x,root_rot_y,root_rot_z,root_rot_w,FL_hip_joint,FL_thigh_joint,FL_calf_joint,FR_hip_joint,FR_thigh_joint,FR_calf_joint,RL_hip_joint,RL_thigh_joint,RL_calf_joint,RR_hip_joint,RR_thigh_joint,RR_calf_joint,FL_foot_joint,FR_foot_joint,RL_foot_joint,RR_foot_joint
0.01,0.0,0.8259446621,0.0,-0.523845373591082,0.0,0.8518133742594206,0.0,0.27,-0.52,0.0,0.27,-0.52,0.0,0.6572093368,0.8119390607,0.0,0.6572093368,0.8119390607,0.0,0.0,0.0,0.0
0.011606430135444608,-0.00078795288688946,0.8269192537673248,9.419213302576734e-05,-0.5246401562685677,8.66020054859381e-06,0.8513240848721102,0.0014809888425575239,0.2766183938484644,-0.5229070149847777,0.0014809888425575239,0.2800709906198233,-0.529788669795557,0.003074812493925311,0.6672689819211699,0.8032920467522414,0.0030748124939253153,0.6666090285513038,0.8076915545101042,0.0,0.0,0.0,0.0
0.014680425949456198,-0.00247914466774595,0.8294423121768484,0.0003367164681311947,-0.5262614129194746,-0.00043622525733534205,0.8503226573492813,0.005584861079639053,0.28726545196810704,-0.5210860370509924,0.00558951587022054,0.298009406806399,-0.5437122838435481,0.00754096336234441,0.6910438627095018,0.7798997452898595,0.007564713232843687,0.6876466935212421,0.7931200323202163,0.0,0.0,0.0,0.0
0.017570703824721493,-0.004338261842933282,0.8307976553857688,0.0006166785069555579,-0.5262808705602499,-0.0003804427975612809,0.8503104846191433,0.00895804778604548,0.3028782869269421,-0.5413567528447676,0.005453782338277706,0.2935003080093207,-0.5388516225644062,0.0071302256175242405,0.6818331814727872,0.8026333974350127,0.015115716348522178,0.7001612674895593,0.7847022317180956,0.0,0.0,0.0,0.0
0.02089436643541364,-0.006290996524027485,0.8318220700257295,0.0008709856661966819,-0.5262678598864888,-0.00044875984815662096,0.8503182813800154,0.012854887519996997,0.3215907516496992,-0.5679634917358264,0.004529441506500139,0.28843202560355136,-0.5384879134194416,0.005560862890752975,0.6755304569110403,0.8203992023097552,0.022913560078283386,0.7117497686188653,0.779464126350707,0.0,0.0,0.0,0.0
0.024538295026630554,-0.008184597692984385,0.8326091382402059,0.0010859943096118035,-0.526181774153223,-0.0005642650063173967,0.850371238207366,0.0168305713016228,0.3423945555845241,-0.5990748391309717,0.00290965888196636,0.2844052054175994,-0.5407501855460147,0.0038201323922967046,0.6724698431570638,0.8349574559805393,0.030703679771656417,0.7227938974031933,0.7759112246051374,0.0,0.0,0.0,0.0
0.027975802295944183,-0.010101171914566729,0.8334280449842965,0.001329889850712196,-0.5262614367997854,-0.0007222229469575036,0.8503214744579989,0.020949896459664958,0.36010237333576356,-0.6234597718994395,0.0015974887156158767,0.2817388844824948,-0.5445030160814947,0.002848076531488036,0.6710985771986153,0.8477475459688252,0.038519799041238784,0.734029715794178,0.77226034590594,0.0,0.0,0.0,0.0
0.03101802856285197,-0.012026181046314036,0.8343151997607572,0.0015864280335258596,-0.5264380453819835,-0.0009018750523633773,0.8502115349969566,0.025134771556183697,0.3742686503916452,-0.640881171642418,0.0006453176733262928,0.27988746965950523,-0.5491906436420755,0.002686831329052135,0.6702207811007065,0.8593382174810278,0.046424376157569266,0.7451271256712713,0.7679133027839545,0.0,0.0,0.0,0.0
0.033587377788763195,-0.013924895177814632,0.8352285839531972,0.0018337123643608199,-0.5266398663122701,-0.0010816872613376184,0.8500858301737699,0.02927614163028357,0.38509383282478915,-0.652445562009524,-8.517805871013245e-05,0.2782953612865874,-0.5544833207104602,0.00311299250837964,0.6692549648766253,0.8700307335120506,0.05439817812905211,0.755544002615311,0.7630835355231103,0.0,0.0,0.0,0.0
0.03567551218380252,-0.015751476298766012,0.8361198857798222,0.0020578988714575848,-0.5268261902332501,-0.0012484513753745607,0.8499696298725723,0.0332560190088435,0.3929675172330257,-0.6593480207395875,-0.0007617426518972366,0.27659653770835685,-0.5601325605900993,0.003828394488983162,0.6680204140445021,0.8800262562275933,0.0622801908497998,0.7648924852037933,0.7581361360646163,0.0,0.0,0.0,0.0
0.03731256487832875,-0.017458727077200174,0.8369506508301683,0.0022512462254311387,-0.5269781551870358,-0.001394587892790669,0.8498747031008219,0.036963060787712096,0.398350619728826,-0.6626883676625668,-0.001525641383533307,0.27462798646833253,-0.5659200964614133,0.0045724073763567154,0.6665177713265847,0.8894454083251161,0.06984398948473391,0.7729609797410917,0.7533870822280356,0.0,0.0,0.0,0.0
0.03854605224603413,-0.01900495301484369,0.8376905489164149,0.0024097172926958754,-0.5270890316748098,-0.0015158008792160358,0.8498053002296321,0.04030384584392281,0.4017127626915484,-0.6634470828646837,-0.0024712375071754386,0.2724227079079662,-0.5716059867641803,0.00512721198639692,0.6648332836049639,0.8982885415577112,0.07686313714764718,0.7796492846993556,0.7490997294356386,0.0,0.0,0.0,0.0
0.03942715977128908,-0.020357701038317168,0.8383117168193803,0.002531145202971322,-0.5271577731716224,-0.0016095291314725784,0.8497621343085797,0.04320880854521444,0.40349199219207554,-0.6624897474817608,-0.0036412629939223846,0.27020839350437104,-0.5768624342347441,0.005275758895640569,0.6631206996652643,0.9063599082286624,0.08315365819123961,0.784897858848061,0.7455363169430275,0.0,0.0,0.0,0.0
0.04000200420286093,-0.021495471929310225,0.8387843176866459,0.002613985318814719,-0.5271855391178878,-0.0016739251428909638,0.8497445336101614,0.04563422803383695,0.4040654527813546,-0.6605641119085166,-0.005030747894600874,0.26838279547172395,-0.5811885506575033,0.004751943660023754,0.6616377213751606,0.9131385800629384,0.08859755937882918,0.7886369495791099,0.7430044921033169,0.0,0.0,0.0,0.0
0.040306027377144824,-0.02240856150516654,0.839076989289395,0.0026568589179519183,-0.5271748455205831,-0.0017074527105511964,0.8497509681996724,0.04756237916992968,0.40371967613649246,-0.6582590778481596,-0.006601156816553379,0.267399102483806,-0.5838097637390565,0.0032243752219317436,0.6608407076545243,0.9175690334021624,0.09315067609660042,0.79077301093218,0.7418554639976535,0.0,0.0,0.0,0.0
0.040360403864074766,-0.023099270749218453,0.8391684617116184,0.002660068695589264,-0.5271323458167988,-0.001710763867000444,0.8497773163101054,0.049001938978351305,0.402604838447151,-0.6558675341752573,-0.008310832902435724,0.2674772757584904,-0.5836100359231836,0.0003909075344824082,0.6615119739390007,0.9178566414415846,0.09682000260411089,0.7912447130040954,0.7423646558774336,0.0,0.0,0.0,0.0
0.0401683612208315,-0.023579097264811385,0.8390623939040673,0.0026254361125839206,-0.5270623002837719,-0.0016853822025925617,0.8498209212484881,0.04997799788833747,0.4007076049453547,-0.6533201521742347,-0.010138309130494134,0.26864109711925527,-0.5806147646158554,-0.0037175063545262137,0.6636357200827182,0.9139970298521944,0.09964149737034667,0.7900828226012397,0.7445376750992485,0.0,0.0,0.0,0.0
0.03971800847085838,-0.023867638182047065,0.8387873169598354,0.0025557740207741366,-0.5269655899167709,-0.0016335424146968695,0.8498812073472408,0.050529895956570606,0.3978695733623899,-0.6502208658163102,-0.012092692299876567,0.27072848283921486,-0.5760050751874537,-0.008751915267716692,0.6664067167779504,0.9077803546387094,0.10167314622255041,0.7874141859944839,0.7481029359380594,0.0,0.0,0.0,0.0
0.03899076886348274,-0.023992805755675903,0.8383814943687458,0.002454070005866464,-0.526845338806624,-0.001559097988507675,0.849956196360496,0.05071573708310857,0.393845676777656,-0.645971009530808,-0.014211505300259077,0.27337141223267813,-0.5706453534604398,-0.014365432818882674,0.6693605788661744,0.9002782004367196,0.10300678241392704,0.7834090259564451,0.7526989872435514,0.0,0.0,0.0,0.0
0.03796894227006821,-0.02398814042576415,0.8378806842742241,0.00232159253733108,-0.5267049651939089,-0.0014653568848704956,0.8500437298029871,0.05060645291133065,0.38837658222992666,-0.6399502504176341,-0.01654554728646943,0.27630294596783556,-0.565158199726686,-0.0203302219527602,0.6722596976798797,0.892063047671775,0.10378234844356791,0.7782310189762582,0.7580003414572447,0.0,0.0,0.0,0.0
0.03664528381397903,-0.023889874931761423,0.837316604281398,0.002157795144033783,-0.5265501172424556,-0.0013547616160918988,0.8501402722921885,0.05028022220297429,0.3812490090958783,-0.6316116747597256,-0.019150762912498388,0.2794926649594262,-0.5600440444169351,-0.02657097182972581,0.6750266124095378,0.8834393658211181,0.10418025679587775,0.7720562068875632,0.7637332723343226,0.0,0.0,0.0,0.0
0.0350362398180893,-0.023733477030353892,0.8367192331854874,0.0019602106268085044,-0.52639283784169,-0.0012282167046720749,0.8502383367779867,0.049814769048910384,0.3723708903582805,-0.6205768948319064,-0.022076020471339726,0.2831906069663918,-0.5558023042609342,-0.033213061297419175,0.6777587781055897,0.8746088069312292,0.1044143778909234,0.7651267872361012,0.769654928014919,0.0,0.0,0.0,0.0
0.033200864396005995,-0.023548805838385194,0.8361176498806145,0.001723783993779556,-0.5262582565939319,-0.0010835673738349247,0.8503223517097528,0.04927588114977874,0.3618896373389673,-0.6068015238201663,-0.025334378932552554,0.28794021032964195,-0.5530649807814947,-0.04069738652820529,0.6808253127762403,0.8658021704759205,0.10473000202473771,0.7578159004480276,0.7755564635548043,0.0,0.0,0.0,0.0
0.03126728799166521,-0.023353995375343512,0.8355307198168032,0.0014395381450984504,-0.5261950684310776,-0.0009119962394023247,0.8503621851608888,0.04870065755343121,0.35038864036280004,-0.5909039021223533,-0.028850671383084007,0.2945769762615965,-0.5527653380893801,-0.04994817138219589,0.685046101353362,0.8574040362824634,0.10542027283237314,0.7506657591538655,0.7813895740929708,0.0,0.0,0.0,0.0
0.029541323510384996,-0.023105383123380334,0.8349112767043637,0.0010785569380295078,-0.5261705828194098,-0.0006831903591946166,0.8503780851723234,0.048001806690866955,0.34018156162020613,-0.577183312103163,-0.032675783396664125,0.3038375203497966,-0.5560666490506415,-0.06275828991705021,0.6918218421145275,0.849859418899028,0.10670542016431868,0.7441368560433883,0.7873961220960126,0.0,0.0,0.0,0.0
0.02833950484547486,-0.022814603152498128,0.8343774895326102,0.0006582460636804312,-0.5263339425466587,-0.0004113039211784946,0.8502775890640036,0.04722335372356894,0.3329911238392993,-0.567303539587969,-0.03626862226222656,0.316813987792591,-0.5655644817557011,-0.07979398628440776,0.7020497172506263,0.843755482938799,0.10872581772842772,0.7398598286010015,0.7928513176770733,0.0,0.0,0.0,0.0
0.02784984230426109,-0.022593311535143906,0.8340976974508594,0.00023792025127449215,-0.5267862992937655,-0.00014603208895760486,0.8499977158469088,0.04663119683950346,0.3294532852760032,-0.5610141036440973,-0.038232744101073315,0.3337566173382429,-0.5854804057154482,-0.09692225910053084,0.7141111002773458,0.8390680528713318,0.1116197136554323,0.7391925946266419,0.7966701946933087,0.0,0.0,0.0,0.0
0.02780073949585489,-0.02248287541501194,0.8340729182233574,0.00013489680917153584,-0.5268010452553081,-0.0001488239364470792,0.8499885989660106,0.046522013798022184,0.32936333350886743,-0.5610203022734976,-0.038252009649618716,0.3337956641189413,-0.5854794447247745,-0.09692262919874332,0.7141461297201938,0.8390793389861188,0.11161224944912644,0.7391121561092964,0.7966398771702095,0.0,0.0,0.0,0.0
0.02780073949585489,-0.02248287541501194,0.8340729182233574,0.00013489680917153584,-0.5268010452553081,-0.0001488239364470792,0.8499885989660106,0.046522013798022184,0.32936333350886743,-0.5610203022734976,-0.038252009649618716,0.3337956641189413,-0.5854794447247745,-0.09692262919874332,0.7141461297201938,0.8390793389861188,0.11161224944912644,0.7391121561092964,0.7966398771702095,0.0,0.0,0.0,0.0
0.028500479658278566,-0.022107624558912877,0.8343750427287192,7.4674845884228e-05,-0.5267077621912124,-4.9190535305628276e-05,0.8500464253506886,0.04567730793819257,0.3350301326204789,-0.5702958391599486,-0.039204560354768665,0.3376470397124165,-0.5908601718296036,-0.09814780567604478,0.7167734535176568,0.8366041247482405,0.11076796335475347,0.7422869541687167,0.7923329224955586,0.0,0.0,0.0,0.0
0.030138303545114414,-0.021506614888849487,0.8355355976332249,0.0001223044814092882,-0.5274749317439744,-0.00020613884944523211,0.8495705614780199,0.04476041403937526,0.34392064748506385,-0.5767804106915246,-0.04020064237977153,0.3440938125188066,-0.5931301357473862,-0.10351641978473744,0.7283106150164136,0.8289073534817472,0.10787366263267949,0.7536162726312113,0.7811857393591074,0.0,0.0,0.0,0.0
0.03139783213582573,-0.021140062381012664,0.8362467154951251,-0.0005565570589465825,-0.5268871712938041,0.0003310733282950429,0.8499349912556282,0.03906573699592584,0.3281299790830979,-0.5577349199188181,-0.041419105113738315,0.3518541382348488,-0.6046721006669551,-0.09858928368913657,0.7318892436031115,0.8205040354775768,0.08503319218369318,0.7315763648306655,0.8050525971160764,0.0,0.0,0.0,0.0
0.03310157535147569,-0.02092556094438181,0.8369567355642566,-0.001119464048161992,-0.526513012445828,0.0007698921751674034,0.8501659848473725,0.031231775309935532,0.31551007502205514,-0.5484589550669298,-0.04227178338566736,0.36235137406242995,-0.619959065848571,-0.09443353444457149,0.7373180691442748,0.8122747241627117,0.06192988105972387,0.7146853353977555,0.8218350712782151,0.0,0.0,0.0,0.0
0.03486168830328511,-0.020838029512984697,0.8376764047607024,-0.0015057763370034546,-0.5264379674833951,0.001003281699736493,0.8502116162787978,0.023181260393964762,0.30643903249648147,-0.5456601164160876,-0.04262010107699195,0.372633158005202,-0.6337506543210627,-0.09196254804745606,0.7441693294816287,0.8045116911204536,0.04302899999895997,0.70314516012281,0.834716482612365,0.0,0.0,0.0,0.0
0.03648510788783693,-0.02090873194731761,0.8383832538073398,-0.001768431435017898,-0.5265400676867266,0.0011149343912978643,0.8501477440374822,0.015911177756579513,0.2999158024729248,-0.5466143124754577,-0.042504493015353355,0.3818698580896855,-0.6452695161341369,-0.0900820474873545,0.7514189322893268,0.7969859392125908,0.028181991951059197,0.695192885256297,0.8455422904748405,0.0,0.0,0.0,0.0
0.037844537733523975,-0.021160417540367817,0.8390462283232578,-0.0019534709900244376,-0.5267196724516212,0.0011678757614013993,0.8500360031608979,0.009698215912591466,0.2949844686484484,-0.5497439280283538,-0.041952997593160804,0.38961129272462375,-0.654319586358604,-0.08794761596854576,0.7582297794190872,0.7896737910330202,0.016089452934512777,0.6892131041536369,0.8551777110342965,0.0,0.0,0.0,0.0
0.038872082347239684,-0.021615506766046025,0.8396434856155273,-0.002087978350906512,-0.5269200085230001,0.0011945975864172502,0.8499114765086622,0.004482330443683096,0.2908980372415859,-0.5541251527082612,-0.04095454705864644,0.3956721735682059,-0.6609427347209033,-0.0850349414727082,0.7641030815591868,0.7826142790812954,0.005675424532244822,0.6841184078546464,0.86406043399482,0.0,0.0,0.0,0.0
0.039541954664668234,-0.022297756083059058,0.8401599090382134,-0.0021837983670979803,-0.5271115057081617,0.0012059976904975403,0.8497924671026079,9.450825539692159e-05,0.2871208721290496,-0.5591932360905685,-0.03946987802851726,0.4000535937528688,-0.665359130587614,-0.0810576297650521,0.7687855092415782,0.7758564629389664,-0.0036990440234032527,0.6792712052934402,0.8724257083044018,0.0,0.0,0.0,0.0
0.03985386051274868,-0.023231065060963958,0.8405814136718462,-0.0022439920046779535,-0.5272797311203272,0.001201795059841641,0.8496879458590622,-0.003634059607521142,0.28332788755473914,-0.5645613877098632,-0.03744827811587846,0.40286451405439433,-0.6678984737536464,-0.0758774161638526,0.7721592531557724,0.7694687987934783,-0.012332182474035596,0.6743529305360031,0.8803765439998839,0.0,0.0,0.0,0.0
0.03981999718880159,-0.02443755930723174,0.8408902226459316,-0.002267845225594321,-0.5274174545160488,0.0011780310994367528,0.8496024351380904,-0.006835438928611084,0.2794124086169569,-0.5698976122245544,-0.03484108315125077,0.40426003446040143,-0.6689419206871988,-0.06943704351790826,0.7741535900307046,0.7635654143986318,-0.02030097381330012,0.6692591157260223,0.8878806593113046,0.0,0.0,0.0,0.0
0.03945593189990276,-0.02593528516800353,0.8410617905781209,-0.0022534044526815165,-0.5275204546747897,0.0011306364533708953,0.8495385887228938,-0.009606338284496231,0.2754943926580598,-0.574821650135297,-0.03161039220811368,0.4043960708846013,-0.6688745905985877,-0.061730075519714746,0.7746872934745589,0.7583347732788733,-0.027531085704282098,0.6640454902946362,0.8947136435684833,0.0,0.0,0.0,0.0
0.03877451551764852,-0.027735476553808595,0.8410638996927967,-0.0021982498922593044,-0.5275860157323587,0.0010563251616151207,0.8494981152882091,-0.012023465238142315,0.2718968649052173,-0.5788028289813627,-0.02773502514259954,0.4033940786903365,-0.6680377273647056,-0.05279926170859472,0.7736406147227811,0.7540568569146975,-0.03381793033940902,0.6589338657069549,0.9003395869620646,0.0,0.0,0.0,0.0
0.03778179204354951,-0.02983937657971245,0.8408603113632752,-0.002099707248072388,-0.527613355729074,0.000952436219828481,0.8494815071271564,-0.014154746539418096,0.26902743704384996,-0.5810535390173421,-0.023215788383055738,0.4013063272024328,-0.6666552318828101,-0.04274675837078214,0.77086347713003,0.7510774366472587,-0.03884797487182701,0.6543857855990527,0.903707744242176,0.0,0.0,0.0,0.0
0.0364739668021011,-0.03223567994138742,0.8404247681260243,-0.001956844533755048,-0.5276054954805167,0.0008192138893089152,0.8494868691079531,-0.01605374763666543,0.26707995189237144,-0.5804619437094648,-0.018082446477338247,0.3980702692975791,-0.6646885693588133,-0.031716058129593896,0.7662415607508343,0.7496687040271776,-0.042319233440582686,0.6512059546007798,0.9030466051612731,0.0,0.0,0.0,0.0
0.03483363391841809,-0.034903072954512684,0.8397565521241808,-0.0017738817703204608,-0.5275602568340454,0.0006626284572966347,0.8495155029051492,-0.017762229595075618,0.2660502218585862,-0.5770718582971245,-0.01239093916471401,0.3934868354624553,-0.661779503896449,-0.019835813351727096,0.7597473892445463,0.7498202109867378,-0.044272642326972984,0.6494014011181831,0.898336501486563,0.0,0.0,0.0,0.0
0.03283298957961137,-0.037808860257623526,0.838880775147932,-0.0015602202155619539,-0.5274694772616006,0.000493927796510776,0.8495724055697575,-0.019319926886030632,0.2657323023822487,-0.5720848621255068,-0.006226983796066618,0.38723866181551764,-0.6572816399076818,-0.007239531385195876,0.7514545388297909,0.7512314225351084,-0.045107727502856985,0.6481726919979099,0.8912946488831325,0.0,0.0,0.0,0.0
0.030443667074625296,-0.0409022006506553,0.8378348844919762,-0.0013271482038722938,-0.5273277101277283,0.00032626202592568886,0.8496608843310265,-0.02078153650560273,0.26570292623009617,-0.5663790144470633,0.0002813573675308073,0.37893820050384247,-0.6503499843959837,0.005853311116066875,0.741514021412096,0.7535089124271466,-0.04528214709576768,0.6470359588180433,0.8829122376885421,0.0,0.0,0.0,0.0
0.02764671072249887,-0.04411203377379033,0.8366573642574484,-0.0010861309153772309,-0.5271317748330392,0.00017170260357597463,0.8497828444957104,-0.022239400977672533,0.2656306139145546,-0.5605704122466735,0.006963020647887732,0.36819804427059066,-0.6401039915155299,0.019113231878146685,0.7301135194443702,0.7563063554542199,-0.045229181516592186,0.645712197274283,0.8736775329727686,0.0,0.0,0.0,0.0
0.02444606797884805,-0.047346946415439975,0.8353843999630222,-0.0008490551090932368,-0.5268823697377548,4.067408761198825e-05,0.8499377894355375,-0.023819771189753144,0.2654149200178875,-0.5551042770345302,0.013606727557130466,0.3547087835089277,-0.6257576949150031,0.03212265371701803,0.7174825452694048,0.7593798308373826,-0.04539739533555122,0.6440535528288986,0.8638008203283556,0.0,0.0,0.0,0.0
0.02088822280639176,-0.05049664284139729,0.8340419480058449,-0.0006286096565498807,-0.526586452928598,-5.8032491957844995e-05,0.8501213496167516,-0.02565012388465154,0.2652280567236418,-0.5503179864051609,0.019968231264086176,0.3383676970453475,-0.6068522250676197,0.044418394575407916,0.7038810054810811,0.7626929463881565,-0.046323386996498905,0.6420536864326046,0.8533619061954313,0.0,0.0,0.0,0.0
0.017089936620289462,-0.05343653881163967,0.8326126890129067,-0.00043833563527806424,-0.5262386959878813,-8.973608637688027e-05,0.8503367771972937,-0.027849530016118288,0.26545511566043833,-0.5465988568373885,0.025729881419381838,0.3195843807074577,-0.5839753041419345,0.055673091014013694,0.6893817467270094,0.7666882719806801,-0.04852114301658577,0.6399084580629616,0.842448566599322,0.0,0.0,0.0,0.0
0.013389877062475854,-0.05611155024044209,0.8310215198645942,-0.0002801179868408107,-0.525769560820981,-9.736262342784447e-05,0.8506269928520642,-0.030491863165103605,0.2662154781633967,-0.5434560886896417,0.03089140963226051,0.3007748302864426,-0.5618429088006083,0.0655555895800096,0.6741772512381652,0.7721308930374756,-0.052810599843105835,0.6383356873288487,0.8310320154557083,0.0,0.0,0.0,0.0
0.010144361343935225,-0.05840267245103893,0.8293450362181253,-0.0001657944981733504,-0.5252544623289184,-7.72723412953142e-05,0.8509451899768448,-0.03350638024389693,0.26775853592517773,-0.5408765837981917,0.03524878415670986,0.28418400552674267,-0.5435879042547246,0.0738530773378163,0.6593914825450221,0.7789871480030863,-0.06003023788596497,0.637689386108498,0.8191312958489136,0.0,0.0,0.0,0.0
0.007579837512916948,-0.06011670182589387,0.8277506414535077,-8.588267516190429e-05,-0.5247725099424869,-4.508166136512434e-05,0.8512425056354226,-0.03667504306852684,0.2697658634673593,-0.5395000627204878,0.038461587135929266,0.2710880768298116,-0.5304129063687117,0.07987614524432958,0.6463047765811514,0.786708275784902,-0.070494389620735,0.6376306647896642,0.8066062305333145,0.0,0.0,0.0,0.0
0.0060239937302691785,-0.06109337344527248,0.8265532130380192,-2.693128839382128e-05,-0.5244352381530356,-3.371298075714302e-05,0.8514503386114245,-0.03909213833229593,0.27141113109883636,-0.5396686760616983,0.04028714943827649,0.2632832905501505,-0.5237047084888146,0.08305361712031863,0.637220607392743,0.7934312897553958,-0.08133289422379131,0.6385064219554636,0.7940401455178647,0.0,0.0,0.0,0.0
0.005948634789163441,-0.06132777301926959,0.8264583631276643,0.0001475840840362578,-0.524457542472227,-1.8676055718364007e-05,0.8514365883694072,-0.03911147001559382,0.2714523034369533,-0.5396729747957413,0.04053190182906885,0.263060403754087,-0.5237074219952869,0.08311079744572773,0.6370355129950438,0.7933379290298798,-0.08135439496179693,0.6385586517558064,0.7940535515043812,0.0,0.0,0.0,0.0
0.005948634788972277,-0.06132777301921658,0.82645836312783,0.00014758408321111926,-0.5244575424725662,-1.867605578460888e-05,0.8514365883691983,-0.03911147001522238,0.2714523034378034,-0.5396729747958449,0.040531901829513474,0.263060403762568,-0.5237074220085475,0.08311079744573543,0.6370355129958755,0.7933379290321256,-0.08135439496188591,0.6385586517559215,0.7940535515058532,0.0,0.0,0.0,0.0
0.005948634788972277,-0.06132777301921658,0.82645836312783,0.00014758408321111926,-0.5244575424725662,-1.867605578460888e-05,0.8514365883691983,-0.03911147001522238,0.2714523034378034,-0.5396729747958449,0.040531901829513474,0.263060403762568,-0.5237074220085475,0.08311079744573543,0.6370355129958755,0.7933379290321256,-0.08135439496188591,0.6385586517559215,0.7940535515058532,0.0,0.0,0.0,0.0
0.007533074556811532,-0.06261112136490218,0.8273786214557586,0.0002735529230674714,-0.5252438031252924,-2.5225278377089876e-05,0.850951744701756,-0.0366543832159762,0.27749007937676,-0.5416369372035579,0.04303587984205712,0.273604934670914,-0.5347054237477766,0.08859037459807712,0.6469685307854883,0.7832642062759753,-0.07738586932332714,0.6469365582851968,0.7923379199995617,0.0,0.0,0.0,0.0
0.010703213432948108,-0.06514164417517186,0.830184641899167,0.0005024458946600125,-0.5269417172073401,-0.0005874464456902074,0.8499010701966294,-0.030597402103956985,0.28770899395849087,-0.5372793934576074,0.0491378460568039,0.29252196846556416,-0.5489936845907613,0.09752533156766473,0.6730213721389644,0.75409497807045,-0.07146590875101091,0.6685460198654494,0.7785773633134389,0.0,0.0,0.0,0.0
0.013714028523535239,-0.06772085129199276,0.832104938321514,0.0007161716582515693,-0.5268463295432638,-0.0003407235210093801,0.8499601849807018,-0.026223493301362984,0.30285435329149857,-0.5552652695244809,0.04725562877584975,0.2880279758563709,-0.5417454187360674,0.08661670234418756,0.6637541105731991,0.7840679789726644,-0.060621052098896774,0.6836781304397922,0.7673638077290509,0.0,0.0,0.0,0.0
0.01714804090230899,-0.07054900660726098,0.833383706895454,0.0008505820789442072,-0.5267723614779621,-0.00024064882968467,0.8500059398505394,-0.020932850649246385,0.32115042560076806,-0.5806020577294104,0.04388700088655204,0.2828837199980121,-0.5402552595470235,0.07380716630028485,0.6585286678995071,0.8064389907842362,-0.0487550653205986,0.696219975416962,0.7630222283159399,0.0,0.0,0.0,0.0
0.02093314651796936,-0.0734001258470854,0.8343323204491115,0.0009868510398779353,-0.5266729687043985,-0.00028023745681845017,0.85006736887619,-0.015256622971001332,0.34154694321937384,-0.610394031038089,0.03967207946146468,0.27897255311792984,-0.5420584274951976,0.06356007858506407,0.6564229729659093,0.8238174117059235,-0.037068340051449114,0.7076805907981978,0.761559002216421,0.0,0.0,0.0,0.0
0.0245960197193289,-0.07627641944592153,0.8352483581395599,0.0011748665821607154,-0.5266938701685041,-0.00040397221801275894,0.8500541298187334,-0.00932610818585297,0.3596542141486951,-0.6352318155270826,0.035786770167349304,0.2765180689267933,-0.5455958393026138,0.05674082306078477,0.655780565499618,0.8383575308304798,-0.025496685457816578,0.719063219520329,0.7603548583553703,0.0,0.0,0.0,0.0
0.027916774879157835,-0.07915124923251965,0.836242198995828,0.0014097627151193053,-0.5268322293520136,-0.0005778249578634443,0.8499679292793302,-0.0032756675048943047,0.3744143419590766,-0.6531701592355486,0.032590913414223786,0.2750472200213943,-0.5501011802867202,0.052557801376560465,0.6556207446092862,0.8511273259383345,-0.013973955544301708,0.7305527611041407,0.75821690801354,0.0,0.0,0.0,0.0
0.03079211979564566,-0.08198704465858848,0.8372850549980639,0.001659720470101124,-0.5270122302923083,-0.0007694231730868071,0.8498557303673777,0.002758811524998869,0.3858615553682284,-0.6650329966713647,0.029989136060403692,0.27391867781848067,-0.5552320075755327,0.05000650754267305,0.6553861901074679,0.8626733772080016,-0.0023918463646776453,0.7416593336003947,0.755194513030148,0.0,0.0,0.0,0.0
0.03319618679253799,-0.08473694339004802,0.8383222930072566,0.0019015411325579794,-0.527184807907137,-0.0009580460731094488,0.849747988877266,0.008640858031790646,0.39431084245657966,-0.6719861567316284,0.02773405124273826,0.27269597015284874,-0.5607388082861361,0.04824940487128766,0.6549167499018483,0.8733249842329621,0.009172191117851874,0.7519226460745411,0.7516940830725696,0.0,0.0,0.0,0.0
0.035148536276087536,-0.08735250202432401,0.839305975996637,0.0021209149490540205,-0.5273252615959234,-0.0011318118852877445,0.849660102161109,0.01424515625565137,0.400187294542042,-0.675157070052874,0.025571348864894795,0.27118252456348424,-0.5664035462021108,0.046710462640038176,0.6542244632562524,0.8832811705616144,0.02052222002326528,0.7610436660127443,0.7481205515326805,0.0,0.0,0.0,0.0
0.036691134217025405,-0.08979081624540704,0.8401983100990923,0.00230967270654047,-0.5274235036206171,-0.0012841944892934619,0.8495984134195729,0.019467879805796194,0.403947381028249,-0.6755642642194445,0.023305078672588492,0.2694024764358143,-0.5719852200683948,0.045011422080065075,0.6533971962724627,0.8925950970139094,0.03142619266847995,0.7688517940930547,0.7448180368909382,0.0,0.0,0.0,0.0
0.03787291021561493,-0.09201887245939681,0.8409669037368008,0.002463126025966497,-0.5274767852077858,-0.001411448498203178,0.849564701414893,0.02423261540803967,0.40602952312206375,-0.6741092501484706,0.02081847011058588,0.2675859132717987,-0.5771536005290294,0.04286213380245303,0.6525859380697882,0.901108803164695,0.04167773787710975,0.775239636983141,0.7421084547869856,0.0,0.0,0.0,0.0
0.0387396468070208,-0.09401559496442691,0.8415798925832753,0.002578160260689226,-0.5274855807411729,-0.001510955763198985,0.8495587279361558,0.02849229771101849,0.4068182484696604,-0.6715695263724785,0.01807049541453408,0.2661356639729858,-0.5814039719125718,0.039962387050583484,0.6520459780600548,0.9083303404178583,0.051133606652544614,0.7801092879142848,0.7403394576153548,0.0,0.0,0.0,0.0
0.03932728266211203,-0.09577258268617399,0.8420056802885911,0.002652389287386064,-0.5274523181791466,-0.0015805203333943687,0.8495790244785874,0.0322288023203913,0.406609969715471,-0.6685563640007041,0.015075989016731595,0.26550854132811497,-0.5839560628476903,0.035958465285186904,0.6522319969711521,0.9132284051015946,0.05972850816549077,0.7833537156843133,0.7398870024162859,0.0,0.0,0.0,0.0
0.03965744494928935,-0.09729367906842691,0.842223797320325,0.0026855539527029255,-0.5273838196656907,-0.0016201605005703044,0.8496213683957964,0.035451948453235044,0.40556526571927204,-0.6653802095051846,0.011868465227425448,0.26592475620332173,-0.5836850629032119,0.03053112899052485,0.6539197960113532,0.9140275978691401,0.06745246948943504,0.7849067160513256,0.7410403572820111,0.0,0.0,0.0,0.0
0.0397333997966195,-0.09859057083310227,0.8422386554346752,0.0026791626002881544,-0.5272845495444161,-0.0016308032471316761,0.8496829799285569,0.03818604075529417,0.4036834698902453,-0.6619938247123891,0.008470663873965634,0.2674040644168379,-0.5806064664457882,0.023720929755094388,0.6570735888413829,0.9107171148351608,0.07432462666349836,0.7847965352455255,0.7438147991690778,0.0,0.0,0.0,0.0
0.03954271497731216,-0.0996814693127088,0.8420793565767033,0.0026357812787545683,-0.5271556845670656,-0.0016140918690672817,0.8497631032194308,0.040466686830710294,0.4008192307943753,-0.658025163538141,0.004877080484904951,0.2697776177141829,-0.5758913133327789,0.015904076221630765,0.6608581295491868,0.905064042720799,0.0803826342092794,0.783147065149407,0.7479463710034177,0.0,0.0,0.0,0.0
0.03906576056657579,-0.1005918001967036,0.8417848856810056,0.0025580353182062814,-0.5270007617155396,-0.0015731737157343333,0.8498595052895579,0.04234556003364734,0.3967381652201157,-0.6528953228515766,0.0010480852258374104,0.2726688832879009,-0.5703917241036449,0.007439218602164469,0.6647807340367018,0.8981260635525774,0.08569247190111824,0.7801251307588246,0.7530772412335872,0.0,0.0,0.0,0.0
0.03828367661740103,-0.10135073886314921,0.8413914925694297,0.002446488539011525,-0.5268236559108876,-0.0015104244972383618,0.8499697458641415,0.04388250977409617,0.3911921922446296,-0.6460064870142114,-0.0030803422535463,0.2757997713047284,-0.5647144548938468,-0.001457194476800633,0.6685829749899886,0.89047292948629,0.09036005632753025,0.775889836308254,0.758882554656114,0.0,0.0,0.0,0.0
0.03718833480736739,-0.10198720393600055,0.8409307035607919,0.0022994942373962294,-0.5266303631657452,-0.0014270013642286097,0.8500900755715679,0.04513769534985281,0.383985166166827,-0.6368490363684026,-0.007589442114774491,0.27912406376939425,-0.5593363452706631,-0.010745982649592412,0.6721770393674549,0.8824172547955625,0.09451995157056767,0.7706105033106994,0.7650869055234785,0.0,0.0,0.0,0.0
0.03579602008684958,-0.10252527794023364,0.8404313301282955,0.0021131173248424,-0.5264329643898453,-0.0013219696612145053,0.8502129857483395,0.04616147143052875,0.3750548582631678,-0.6251111700974713,-0.012560759836325229,0.282868276568444,-0.5547175213509203,-0.020617056346927908,0.6756644628258826,0.8741814031247446,0.09832581516769542,0.7645208409350343,0.7714423871353484,0.0,0.0,0.0,0.0
0.03416695002430957,-0.1029781808843874,0.8399202896835875,0.0018805864978295524,-0.5262557228737229,-0.0011904809766230796,0.8503234445151585,0.04698027099134901,0.3646012538309055,-0.6108657718769457,-0.018035987893911143,0.2875382028029231,-0.5514193671992496,-0.031611583588585124,0.6794380337447523,0.8660329755043833,0.10194705336546972,0.757985598686838,0.7777265084685403,0.0,0.0,0.0,0.0
0.032432290918529554,-0.10334030239071564,0.8394139314261431,0.0015915257240631862,-0.5261402577658548,-0.001020488949103465,0.8503957048376093,0.04757712654877038,0.3533071795329381,-0.5949653835177988,-0.023947861021455814,0.2938889767857363,-0.5502351022978275,-0.044805659363200565,0.6843566443540758,0.8583918682807661,0.10557216181421926,0.7515322806836741,0.7838396871747599,0.0,0.0,0.0,0.0
0.030844241256332845,-0.10356416118458908,0.8388761091635041,0.0012151215821308693,-0.5260581376430293,-0.0007759469830826525,0.8504473865004041,0.04784180112896861,0.34310645653009475,-0.5810238945047339,-0.030158876151389073,0.3025726522673331,-0.5522994901527026,-0.06188566108368477,0.6916258618359208,0.8517832357940357,0.10943521943077163,0.7455808868185979,0.789921459407306,0.0,0.0,0.0,0.0
0.029743404205729945,-0.10361545815720283,0.8384171083419564,0.0007747939603693692,-0.5261424058852029,-0.0004702349651486083,0.8503959944065629,0.047722758026514114,0.33602084022887274,-0.571331857889897,-0.035978202224869416,0.31452191027044224,-0.5598218668662056,-0.0835406496178856,0.7021651273495536,0.846901317266608,0.11343701516957849,0.7417524922862562,0.7951547086123372,0.0,0.0,0.0,0.0
0.029299764710014498,-0.10357740932383133,0.8381991287664766,0.00035104136269926354,-0.5265026804671875,-0.00016624877636039974,0.8501733803126116,0.04743312188619691,0.33259265981551456,-0.565434141627971,-0.03956383031830602,0.32987907803214983,-0.5767603910847339,-0.10475940167587046,0.7140650828064867,0.8438474121637161,0.11742307265239266,0.7413286602516688,0.798475660048046,0.0,0.0,0.0,0.0
0.02926416000007538,-0.10350185364167065,0.8381801823312155,0.0002752532187205549,-0.5265087712068585,-0.00016901275969411782,0.8501696357272451,0.047364310321199796,0.3325149435906701,-0.5654363013116263,-0.039590265106162065,0.3299179781903992,-0.5767582399733788,-0.10476204748034543,0.7140991576793791,0.8438591655977916,0.11742686499151153,0.7412529622803319,0.7984466060671958,0.0,0.0,0.0,0.0
0.02926416000007538,-0.10350185364167065,0.8381801823312155,0.0002752532187205549,-0.5265087712068585,-0.00016901275969411782,0.8501696357272451,0.047364310321199796,0.3325149435906701,-0.5654363013116263,-0.039590265106162065,0.3299179781903992,-0.5767582399733788,-0.10476204748034543,0.7140991576793791,0.8438591655977916,0.11742686499151153,0.7412529622803319,0.7984466060671958,0.0,0.0,0.0,0.0
0.02998592175902512,-0.10322684019183088,0.8384773676232151,0.00019979920999377897,-0.5264532883579929,-8.279268446810699e-05,0.850204027514986,0.046765885065950266,0.33800509638475756,-0.5741674860203156,-0.040293353778833356,0.33406342169428416,-0.5825243147115113,-0.10552301094324859,0.7168608330695225,0.8413236872940585,0.11716198457080645,0.744529275263881,0.7945191500521588,0.0,0.0,0.0,0.0
0.03164243980331266,-0.10275197873559225,0.8396086034355087,0.00023871970972681944,-0.5272281438064325,-0.0002455593028140486,0.8497237004414745,0.04612903122907318,0.34675769691600744,-0.5804135533527409,-0.04101206194828998,0.34092181342566513,-0.5856372461677115,-0.11036268838219533,0.7283459469713622,0.8336418492164871,0.11501299750476894,0.7557774948794274,0.7839666316061504,0.0,0.0,0.0,0.0
0.03291505233684459,-0.10250522171066496,0.8402806551480013,-0.00046259862202292665,-0.5266657511329781,0.0003028190625269015,0.8500722798013509,0.040728088121912816,0.33040401997992674,-0.5601522585894565,-0.041982509103771555,0.34905913305349967,-0.5978753069389925,-0.10461976051458947,0.7317774452073428,0.8254553247727943,0.09129917801811463,0.7338942603344907,0.8073555452929768,0.0,0.0,0.0,0.0
0.034636720688782895,-0.10240383647156073,0.8409575953296878,-0.001045318932986146,-0.5263193786737046,0.000749557917627876,0.8502859854800513,0.03312252635040254,0.31742509064998464,-0.5500221921548052,-0.04259698289095463,0.3599444594487451,-0.613847220337623,-0.09975182975802453,0.7371194149510455,0.8174007556590592,0.06752233527551271,0.7171847413543636,0.8238925624667212,0.0,0.0,0.0,0.0
0.03640791222020115,-0.10241457996626749,0.8416576603782079,-0.0014449220420917513,-0.5262718917224157,0.0009888969137821708,0.8503145478386783,0.025241295020295554,0.30814761087821163,-0.5467023622489751,-0.042739157993173515,0.3704987389646756,-0.6280741477737012,-0.09670621591006406,0.7439462805217992,0.8097048159841552,0.048278514688788694,0.7057921933220214,0.8367031163756586,0.0,0.0,0.0,0.0
0.03803646046197277,-0.10256893179505258,0.8423522951312755,-0.0017147090934721602,-0.5263942803443324,0.0011036726943419945,0.8502381450511856,0.018110201050797824,0.30149397225115626,-0.5473419140283882,-0.04244789055611974,0.3799344555004744,-0.6399123701924075,-0.09436680667271342,0.7511856923333214,0.8021827139859489,0.03333667061084518,0.6979533664717658,0.8475411558617578,0.0,0.0,0.0,0.0
0.03939733707435487,-0.10289038728103111,0.8430070944473402,-0.0019023741735443792,-0.5265878239261264,0.0011574339157920594,0.8501178183122509,0.012018222258698325,0.29648006692372986,-0.5502850204771021,-0.04174961335988454,0.3878234206647627,-0.649209767485612,-0.09186692661238068,0.7579858321612591,0.7948497799604585,0.021285190845524646,0.6920654513760828,0.857228695260309,0.0,0.0,0.0,0.0
0.0404249772102915,-0.10340253467721187,0.8435986165226095,-0.0020365963617938647,-0.5267972511763716,0.0011835039165430587,0.8499877103504246,0.006910258180567791,0.29234513342320273,-0.5545605209461737,-0.040631321554197436,0.3939977314826669,-0.656034005191643,-0.08866242981764738,0.7638446042429851,0.7877651073691446,0.010968343329682507,0.687050059852556,0.8661825258089982,0.0,0.0,0.0,0.0
0.0410953546487177,-0.10413021573015137,0.844111118836029,-0.0021304112383528848,-0.5269945058315639,0.00119338213998737,0.8498651822556147,0.0026180650598904096,0.28854521553284335,-0.5595738471599919,-0.03905177405068752,0.39847023015519234,-0.6606183141638707,-0.08445321511611259,0.7685108522315542,0.7809867417338987,0.001700666777302122,0.6822759458737484,0.8746272529733459,0.0,0.0,0.0,0.0
0.04140915975340586,-0.1050982207735756,0.8445303768757024,-0.0021878448046209705,-0.527166320791621,0.0011874021244146658,0.8497584795895429,-0.0010288350951849112,0.28474835384553127,-0.564919246201189,-0.036958784254896904,0.4013564163642725,-0.6632967575297642,-0.07908955643211217,0.7718695958086711,0.7745856886996058,-0.006837536202549666,0.6774275521263382,0.8826599372520962,0.0,0.0,0.0,0.0
0.04137892279027435,-0.10632934317290763,0.8448387332070206,-0.00220885810764577,-0.5273065182282093,0.0011619994225241792,0.8496714697677248,-0.004165036818844139,0.280842452298458,-0.5702521390700266,-0.034302389394083255,0.40281354396765223,-0.6644477202883574,-0.07250629672961366,0.7738533956612378,0.7686758265300443,-0.014732071125922725,0.6724006416738563,0.8902442685681828,0.0,0.0,0.0,0.0
0.04102010935626902,-0.10784219805890394,0.8450118952052216,-0.0021919853768582326,-0.5274118189736153,0.001113356014884716,0.8496062198721441,-0.0068899927640844235,0.2769432547576263,-0.5751833609045255,-0.03104341080393201,0.40299704226764027,-0.6644496309276854,-0.06469082570804155,0.7743842888748093,0.7634436749010898,-0.02191158513956348,0.6672488008578261,0.8971521847181236,0.0,0.0,0.0,0.0
0.040345310076936335,-0.1096486578689593,0.8450179465696092,-0.002135172002456793,-0.5274803171286268,0.001038349635824572,0.8495639339757998,-0.009282960733405678,0.2733707089543733,-0.5791752737513524,-0.027159169947512708,0.4020273369319943,-0.6636369085983251,-0.055680018396427826,0.7733457697799455,0.7591659063341821,-0.028172750615295873,0.6621901501822528,0.9028433588699766,0.0,0.0,0.0,0.0
0.03936047249452709,-0.11175087082162727,0.8448208931460527,-0.002035989612193732,-0.5275118016704452,0.000934413343752649,0.8495447490958925,-0.01141351461386736,0.27053035513922985,-0.5814344525276048,-0.022648446019157605,0.39995768713488483,-0.6622316548648735,-0.045569557198881006,0.7705908364683799,0.7561839563187975,-0.033203385911469395,0.6576825768505279,0.9062608323572263,0.0,0.0,0.0,0.0
0.038062217571883626,-0.11413890121289087,0.8443945120471241,-0.0018935101986999698,-0.5275093381270982,0.0008017748941437844,0.8495467438374755,-0.013334558549924654,0.26861483798245545,-0.5808454467922315,-0.0175381322928411,0.3967314967952076,-0.6602056365996294,-0.03449581761691249,0.7660071241632973,0.7547656139986829,-0.036702313906224256,0.6545292803201372,0.9056252639259791,0.0,0.0,0.0,0.0
0.036434244823655426,-0.11679327842205153,0.8437377717278477,-0.0017115694891993772,-0.5274704222165164,0.000646230037771491,0.8495714252511979,-0.015083906878432708,0.26762118301721555,-0.5774533491846368,-0.011880447683261165,0.3921613357162728,-0.6572242064620978,-0.0225805042173057,0.7595672564245588,0.7548993815612967,-0.03870716381601874,0.6527398395585375,0.9009179567404672,0.0,0.0,0.0,0.0
0.034450437584517775,-0.11968356595740888,0.8428751997259033,-0.0014988454957261335,-0.5273862126569302,0.0004787535268193361,0.849624215142565,-0.016694138683254846,0.26734685640853983,-0.5724658743854841,-0.005756613541568122,0.3859461791872602,-0.6526757653887126,-0.009950315030091379,0.7513431527604238,0.7562864072893468,-0.03961058949812374,0.6515213506368743,0.8938660752786927,0.0,0.0,0.0,0.0
0.03208432267924623,-0.12276147889350603,0.8418436577196458,-0.0012657520100621171,-0.527250060878648,0.00031221732482961736,0.8497091700668253,-0.01821052801391899,0.26737212134768307,-0.566769538741976,0.0007104659909978692,0.37771729986772595,-0.645757368819839,0.0031818716889106726,0.7414834972954746,0.7585329095977597,-0.03986392685617168,0.6503984236585545,0.8854689390142609,0.0,0.0,0.0,0.0
0.029318492410248666,-0.12595850771139308,0.8406813747060096,-0.0010228533792850923,-0.5270572700545655,0.00015843578065300498,0.8498291373868613,-0.019715049855641008,0.2673686245655008,-0.5609907347987982,0.0073550624942726565,0.36710480595696365,-0.63562934069123,0.016491440774382568,0.7301746800515393,0.7612869849235838,-0.03989525180834103,0.6490995827770073,0.8762205427884775,0.0,0.0,0.0,0.0
0.0261575053924037,-0.1291854614040433,0.8394251684732909,-0.0007811681013326202,-0.5268068827286211,2.7558881840081113e-05,0.849984645347584,-0.021323861111214502,0.26723851941990856,-0.5555877230951421,0.013970812747488046,0.35381159869140283,-0.621536227482507,0.029561934500316755,0.7176486049499136,0.76428890955762,-0.0401463267852694,0.6474805214520607,0.8663358738665071,0.0,0.0,0.0,0.0
0.022646922371095193,-0.1323337048416003,0.8381036765593334,-0.0005527734136482839,-0.5265045195398627,-7.192899654617259e-05,0.8501721473747954,-0.023156426339657244,0.26715691989179835,-0.5509121997137495,0.02031754537657118,0.3377369378438254,-0.6030238917864161,0.041927326050058604,0.7041778376518958,0.767465221269766,-0.0411374437041231,0.6455327147019856,0.8559010972783191,0.0,0.0,0.0,0.0
0.018900644378043837,-0.1352799796906004,0.8367065466236419,-0.00035159018556632455,-0.5261441621197499,-0.00010622091760254784,0.8503953114691805,-0.025324765694266692,0.26750875650516537,-0.5473476086265708,0.026082972180779554,0.3192771274793983,-0.5806400866320235,0.05325733472629121,0.6898712050312138,0.771176267816083,-0.04333976470933091,0.6434474725261987,0.8450065105336688,0.0,0.0,0.0,0.0
0.015216934777395975,-0.13795582347020666,0.8351773541415037,-0.00018079800944480515,-0.5256729608467289,-0.00011755257774941178,0.8506867177334466,-0.027969705051948377,0.2684676333204835,-0.5445186212259748,0.03123650064060309,0.3004847848432029,-0.5583200214993356,0.0631585096746191,0.6749725807010319,0.776077536696312,-0.04756328878878058,0.641848044298782,0.8336520612980869,0.0,0.0,0.0,0.0
0.011992035631433013,-0.14025798898090674,0.8335857728731966,-5.549703327420038e-05,-0.5251609618165978,-0.00010423731354891457,0.8510029084783011,-0.03095493921560677,0.2703024763165234,-0.5422583526140489,0.03561463316281,0.28390764776149446,-0.5397580000491603,0.07149872541417648,0.6606523251312353,0.7821396538478999,-0.054494566988976,0.6412448403642313,0.8219174057291706,0.0,0.0,0.0,0.0
0.009452559047328694,-0.14199260284943951,0.8320969163385329,3.3472935529321865e-05,-0.5246902433390438,-8.27475491350214e-05,0.8512932165694854,-0.03407257881269699,0.27277110046880176,-0.5413086821565027,0.03887750103814003,0.270819846728945,-0.5261475633022512,0.0775786029376314,0.6481835375160402,0.788855970527125,-0.06444287643891035,0.6412839130062192,0.8097549264077327,0.0,0.0,0.0,0.0
0.007922136181652363,-0.14299289337850057,0.8309991781374513,9.691480006829977e-05,-0.524367172137745,-8.310595971491873e-05,0.8514922503964352,-0.03643809955362137,0.27504905767181065,-0.542171605034754,0.04076684040716875,0.2630377991469361,-0.5190348432393119,0.08081878352555791,0.6397020159594237,0.7946298753736013,-0.07469181715995078,0.642225618664967,0.7977815125217008,0.0,0.0,0.0,0.0
0.007846912173469334,-0.14322793022502553,0.8309062505922742,0.00027179817789673024,-0.5243888040352745,-6.84815275260489e-05,0.8514788920686673,-0.03645710085600676,0.275090123706256,-0.5421763630011687,0.04101236376007623,0.26281658331502866,-0.5190370363302046,0.08087515136394202,0.6395182217885383,0.7945372565881174,-0.07471258925708293,0.6422776875661144,0.7977949820971783,0.0,0.0,0.0,0.0
0.007846912173279246,-0.14322793022497765,0.8309062505924658,0.00027179817714911413,-0.5243888040355603,-6.848152748441915e-05,0.8514788920684916,-0.036457100856005405,0.27509012370706293,-0.5421763630015377,0.04101236376016038,0.2628165833230596,-0.5190370363426658,0.08087515136300813,0.6395182217895988,0.7945372565905661,-0.07471258925837736,0.6422776875659172,0.7977949820989814,0.0,0.0,0.0,0.0
0.007846912173279246,-0.14322793022497765,0.8309062505924658,0.00027179817714911413,-0.5243888040355603,-6.848152748441915e-05,0.8514788920684916,-0.036457100856005405,0.27509012370706293,-0.5421763630015377,0.04101236376016038,0.2628165833230596,-0.5190370363426658,0.08087515136300813,0.6395182217895988,0.7945372565905661,-0.07471258925837736,0.6422776875659172,0.7977949820989814,0.0,0.0,0.0,0.0
0.009413145249941936,-0.1444825827942531,0.8318213108424314,0.0003926494039340651,-0.5251683140694001,-7.519778039452491e-05,0.8509982855853726,-0.03404970272590235,0.2810089476140951,-0.5439898283854493,0.04346079556828283,0.27320779579607407,-0.5298091642684359,0.08625889741738928,0.6493703789494594,0.7845556808453577,-0.07072247731535702,0.6506845475809164,0.7958817133065633,0.0,0.0,0.0,0.0
0.012545455564712885,-0.14694955457939268,0.8345877012165821,0.0006285702998967413,-0.5268586160169038,-0.000647012122178523,0.8499524604373144,-0.028108914271833138,0.29100657115697076,-0.5394198256435659,0.049437588579273495,0.2918018502237117,-0.5437224959881006,0.09483955554736342,0.6751338722485912,0.7559186562584554,-0.06496019442065232,0.6721409550892762,0.7820582671733174,0.0,0.0,0.0,0.0
0.015526933627481348,-0.14946600571313656,0.836472383407766,0.0008238288111178148,-0.5267729007022912,-0.0003996371469193025,0.85000557214758,-0.02383253679777876,0.30595205764796046,-0.557146740968625,0.047522972338884174,0.2879308275018368,-0.5378801155430772,0.08391958106648231,0.6659292412381493,0.785640466153591,-0.05412699625019747,0.6871812227964015,0.7708639149909906,0.0,0.0,0.0,0.0
0.018927947828739074,-0.1522086544849629,0.8377501379036283,0.0009479824205274164,-0.526705122997633,-0.00030047960305800727,0.8500474836439356,-0.018688496659635526,0.3240184258633174,-0.5820545547061509,0.04404101426403304,0.2832051532314568,-0.5372010526272221,0.07110536366570865,0.6606991351676288,0.8079182377183424,-0.04239192743376668,0.6998351309287779,0.7660669421349539,0.0,0.0,0.0,0.0
0.02267294579372303,-0.15496936852185234,0.8386963966422865,0.0010758190647901554,-0.5266045778613478,-0.0003396534295141488,0.8501096081237756,-0.013174466043954405,0.3441928319245716,-0.6114808809404519,0.039688137126776976,0.2795132154721254,-0.5394640754442945,0.06081691287099587,0.658544972973715,0.8252615698372971,-0.030863793422438515,0.7113842216701475,0.7641137374161243,0.0,0.0,0.0,0.0
0.02628525841522574,-0.15776153080031047,0.8396109190316047,0.0012590508175289352,-0.5266301456610216,-0.00046426803934191996,0.8500934589368851,-0.007398418545185608,0.3620122977939646,-0.6358145600657348,0.03568343369600617,0.277157802627581,-0.5432560255396953,0.05390220441898005,0.6578368206271795,0.8397922461148031,-0.01946210319458746,0.7228299404482311,0.7624692408077247,0.0,0.0,0.0,0.0
0.029552706771248275,-0.16055982136516886,0.8405978447771285,0.0014893198115425524,-0.5267692679792793,-0.00063896968849843,0.8500067717123261,-0.0014919755565868942,0.3765033720157865,-0.6533345896262636,0.03237661142732077,0.2757005446444214,-0.5478995705656119,0.04957957888409706,0.657598803705247,0.8525622503478656,-0.008093161849486587,0.7343179938692186,0.7599885636874095,0.0,0.0,0.0,0.0
0.03237690820766107,-0.16332708932836448,0.8416293879906858,0.0017345433733973398,-0.5269470920246987,-0.0008309959196213291,0.8498959130456982,0.004410570504850898,0.3877133159349737,-0.664873217358863,0.029671145155462732,0.27454160179886683,-0.5530956871275037,0.04686522270293339,0.65729341237463,0.8641163430092433,0.003353648285942987,0.7453745860135746,0.7567177668976058,0.0,0.0,0.0,0.0
0.034734848133215854,-0.16601680333104527,0.8426533139620948,0.001971714842545791,-0.5271159667475,-0.0010196390088873686,0.8497904625710503,0.010174520658873296,0.3959602182161102,-0.6715802274824411,0.027321423114592982,0.2732715008442497,-0.558623518870847,0.044941673427796036,0.656766810035422,0.8747829338421031,0.014801273410509836,0.7555625636192906,0.75304111219504,0.0,0.0,0.0,0.0
0.03664759022318671,-0.16858093953667455,0.8436237037716391,0.002186804990182297,-0.5272521711192695,-0.0011931881334025865,0.8497052090201812,0.015676473578004033,0.4016690315128869,-0.6745662519007461,0.025075694397956913,0.2717081668475927,-0.5642841513040474,0.04324738434942474,0.6560304199618177,0.8847584864971859,0.026054913849394727,0.7646013843950276,0.7493418859976229,0.0,0.0,0.0,0.0
0.03815777150363532,-0.1709770260727525,0.8445040757114493,0.0023718906096190377,-0.5273461940980789,-0.0013453202161943757,0.8496461356463191,0.020814380744815,0.4052944869983953,-0.6748361021086353,0.022740380608904546,0.269882582870957,-0.5698495405464159,0.04141251047678185,0.6551692943270441,0.8940927667342891,0.036884640058541085,0.7723328997310818,0.7459480193923218,0.0,0.0,0.0,0.0
0.03931449157179968,-0.17317239930099743,0.8452627335335163,0.0025224707075943917,-0.5273955665652625,-0.0014724728512497613,0.8496148452872851,0.025513244609613545,0.4072725822719127,-0.6732811502160863,0.02020055619686516,0.26802750387439783,-0.574998387108385,0.03915126321856133,0.6543312619416055,0.9026242003974321,0.04708671543297868,0.778657136644597,0.7431707619447113,0.0,0.0,0.0,0.0
0.04016340349330514,-0.1751461930844355,0.8458680597181266,0.0026355727759880504,-0.5274008235488101,-0.001572178157762212,0.8496110600339544,0.0297269459878621,0.4079853369359672,-0.6706721155872838,0.017416497173640723,0.2665462046543379,-0.5792321898188663,0.036166197202649304,0.6537685076637958,0.9098569587430191,0.05652042397631718,0.7834798438500359,0.7413514297551419,0.0,0.0,0.0,0.0
0.04074015004786239,-0.17689005515924724,0.8462884119033248,0.0027089249246895967,-0.5273642821272145,-0.001642354407340539,0.8496333787782826,0.03343780863765635,0.4077269549741421,-0.6676165039218935,0.014403841739164371,0.2658946979490217,-0.5817748258321385,0.03210640139055338,0.6539328228942037,0.9147551637064137,0.06512242565072804,0.7866949541365524,0.7408626595214747,0.0,0.0,0.0,0.0
0.041066015527056056,-0.1784077284601482,0.8465031394346338,0.002742349877332145,-0.5272925338550583,-0.001683092195864544,0.8496777215265343,0.03665562305277083,0.40665625686737,-0.6644232980082656,0.011196364284329942,0.266291760728411,-0.581503575532628,0.026655239134850205,0.6555980745083281,0.9155383395798794,0.07288381611104211,0.7882356017655887,0.741992058810863,0.0,0.0,0.0,0.0
0.041143950220747336,-0.17971072370480715,0.8465165530203436,0.0027373666176775217,-0.5271899330782572,-0.0016953344958494938,0.8497413766116666,0.03940435791344747,0.4047706647292261,-0.6610430145236473,0.007816451168517268,0.26775663317471865,-0.5784338383420614,0.019852340684322085,0.6587283643391735,0.9121963846454302,0.07982393241927752,0.7881292197896351,0.7447538430648774,0.0,0.0,0.0,0.0
0.040961235409726154,-0.18081698820703335,0.8463577244293327,0.0026964726509936007,-0.5270576494597606,-0.0016806751062652333,0.8498235925840031,0.04171895677540634,0.40192283650156513,-0.6571008230465905,0.004257655346294298,0.270120715688766,-0.5737342472427502,0.012069072309411469,0.6624901533200713,0.9065026376473031,0.08597979456883467,0.7864987836586387,0.7488834032273547,0.0,0.0,0.0,0.0
0.04049791595597531,-0.18175148619713105,0.8460654687350408,0.002622205628593671,-0.5268990744707864,-0.0016421580616277024,0.8499222274281163,0.04364986847858183,0.3978770660868595,-0.6520177455476676,0.0004788884948892848,0.2730067655700031,-0.5682521375537718,0.003658340765758357,0.6663932247013143,0.8995203188110854,0.09141551707317555,0.7835087730157003,0.7540233471272941,0.0,0.0,0.0,0.0
0.03973466300284188,-0.18254266543759518,0.8456756073320736,0.0025150508614533297,-0.5267177457998662,-0.001582020140795475,0.8500350510366886,0.045255059650183185,0.3923847048084352,-0.6451994846265048,-0.003585910348238784,0.27613423926001884,-0.5625868308502139,-0.0051701193306814865,0.6701814078722849,0.8918239952279735,0.0962335765533752,0.7793137425121686,0.7598510119039248,0.0,0.0,0.0,0.0
0.03866264716987082,-0.18321837464737648,0.8452188882567729,0.00237330451646165,-0.5265190788402083,-0.001501251506447387,0.850158675358221,0.04659201381433109,0.3852498157500929,-0.636144225635001,-0.00802101652677086,0.2794515139496831,-0.5572039108171667,-0.014387514042027462,0.6737687115037646,0.8837311986185238,0.10056330014733363,0.7740757238835612,0.7660951916801314,0.0,0.0,0.0,0.0
0.03729712746438007,-0.1838011740314477,0.8447229297140293,0.0021929983118441116,-0.5263142170019003,-0.0013987132608118498,0.8502861749677545,0.04770740976241786,0.3764113542721501,-0.624553512603971,-0.012912832779257952,0.28317444911238676,-0.5525460633207925,-0.024203243558249623,0.677258004349934,0.8754702156665384,0.10455133798157944,0.7680180504501833,0.7725136643525312,0.0,0.0,0.0,0.0
0.035696854493435265,-0.18430211310361425,0.8442131345611783,0.0019673523219150306,-0.5261258533894515,-0.0012692815499625737,0.8504034953152589,0.04862261578833467,0.3660720248487529,-0.6105212589801248,-0.0183111286392511,0.28778858996473977,-0.5491463479498985,-0.03519646143709314,0.6810423655664128,0.86731627383174,0.1083583691870866,0.761492394458229,0.7788879102676048,0.0,0.0,0.0,0.0
0.0339908915845586,-0.1847122359128773,0.8437047004381407,0.001686090376781977,-0.5259918148030808,-0.0011006990593557242,0.8504872464187712,0.04931353001535069,0.3549222273205084,-0.5949396693106913,-0.02416280410245332,0.2940082486024773,-0.5477479783961864,-0.048516703961290326,0.6859763418506963,0.8596929951250541,0.11215834157754109,0.7550106480056629,0.7851059936164756,0.0,0.0,0.0,0.0
0.03241030963445421,-0.18498790771206713,0.8431665336973704,0.001318640239454053,-0.5258864043950663,-0.0008563928055828962,0.8505533595558308,0.04967510762028029,0.3447328633158738,-0.5811148746771572,-0.030304990058550436,0.30244527864299,-0.5494731104887003,-0.06587879722059536,0.6931894070606742,0.8531458842485768,0.11620576657402945,0.7489814299747528,0.7912698943771497,0.0,0.0,0.0,0.0
0.03130887278634109,-0.18508016043173195,0.8427029172855925,0.0008900608803476958,-0.5259318370941132,-0.0005498576845116487,0.8505260773068437,0.04962689890380309,0.3376725111292216,-0.5716633560643238,-0.03610329773751868,0.31394424373121255,-0.5563610444093419,-0.0881390308598663,0.7036355746553822,0.8483959282825521,0.12032750525169734,0.7450098372355477,0.796540520935716,0.0,0.0,0.0,0.0
0.030854283369438382,-0.18506408213923395,0.842479704953457,0.00048676536835923223,-0.5262422787802828,-0.00024688703457013283,0.8503345024932267,0.04936389065606893,0.33425848774002453,-0.5660428521463143,-0.039733490769131234,0.328599618727617,-0.5722407764388574,-0.11021268292865363,0.7153480668063616,0.8456066751994653,0.12428906525496224,0.7443975017140609,0.7998077984333931,0.0,0.0,0.0,0.0
0.030820677061158385,-0.18499476842556156,0.8424619266327698,0.00041595010679934866,-0.5262469267849907,-0.00024907094613552843,0.850331662940129,0.04930116245874317,0.33418298466962565,-0.5660450782159172,-0.03975997935485119,0.3286384492373848,-0.5722381110378518,-0.11021584839449652,0.7153820203143726,0.8456185164721033,0.12429439415787329,0.7443225749332767,0.7997790454947229,0.0,0.0,0.0,0.0
0.030820677061158385,-0.18499476842556156,0.8424619266327698,0.00041595010679934866,-0.5262469267849907,-0.00024907094613552843,0.850331662940129,0.04930116245874317,0.33418298466962565,-0.5660450782159172,-0.03975997935485119,0.3286384492373848,-0.5722381110378518,-0.11021584839449652,0.7153820203143726,0.8456185164721033,0.12429439415787329,0.7443225749332767,0.7997790454947229,0.0,0.0,0.0,0.0
0.031550382387196096,-0.18474068493826118,0.8427630248496795,0.00032496547946821484,-0.5262223484616444,-0.0001598888888273137,0.8503469343817804,0.04875684092631757,0.3395994601204671,-0.5744814413502864,-0.0404077965527485,0.3327949892557025,-0.5778402821634926,-0.11081372378047988,0.7182460472375845,0.8430831202224697,0.1242913577428027,0.7477349603423713,0.7959409475049186,0.0,0.0,0.0,0.0
0.03321420138183723,-0.18429753596924764,0.8438967914089106,0.0003487882834968142,-0.5270104238352933,-0.0003112157266699481,0.8498586909954203,0.04817805496311753,0.3482908219728237,-0.5805544921434224,-0.041069328046139976,0.3397113622033232,-0.5809573367023602,-0.11544706605823923,0.7297893343709961,0.8353111489877848,0.12254045283821707,0.7591060240835618,0.7854420248829355,0.0,0.0,0.0,0.0
0.034491316530111935,-0.18407758288670242,0.8445681908850468,-0.00037470774391080286,-0.5264735022562841,0.000254206186842872,0.8501914175027431,0.0428045260791575,0.33186542100955285,-0.5600591379776187,-0.04199097349316198,0.34788399248864516,-0.5930995917236496,-0.10933747802093263,0.7332437543640764,0.8271441260917733,0.09771076300422,0.7371051108378902,0.8086879873941986,0.0,0.0,0.0,0.0
0.036217887905117735,-0.1840024609340269,0.8452481663888749,-0.0009787707649707663,-0.526154768442036,0.000717618597257191,0.8503879624483439,0.03521709735161757,0.31883894202879604,-0.5497374137164188,-0.04255778933740537,0.35881173774340386,-0.6089663197633246,-0.10413650569006679,0.7386419189945749,0.8190704210801523,0.0731019472864882,0.7203330246827436,0.8251514820425339,0.0,0.0,0.0,0.0
0.037989445000974745,-0.18403617886449697,0.8459556210866439,-0.0013940825798925925,-0.5261308729356318,0.0009700013824555338,0.8504019168458338,0.027347656372451592,0.30953156321750974,-0.5463014071963724,-0.04265819193853199,0.3693752132232951,-0.6230451246368202,-0.10083784411713557,0.7455413394319731,0.8113002119083471,0.05338946738245239,0.708909038079524,0.8379485180366729,0.0,0.0,0.0,0.0
0.03961639406896359,-0.18421076899783687,0.8466565623181783,-0.0016739126884239548,-0.5262688671527527,0.0010939577693571474,0.8503158711552247,0.02023639468544194,0.302852416012887,-0.5468709187445346,-0.04233014337520591,0.3788210619996338,-0.6347913137630679,-0.09830887205043828,0.7528355187134707,0.8036955007552089,0.038241292911129765,0.7010690527180278,0.8488029506818894,0.0,0.0,0.0,0.0
0.040975524155997214,-0.184549647833151,0.8473153196356805,-0.0018672516472105199,-0.5264723372435849,0.0011534903597848639,0.8501894265095002,0.01417289999933053,0.29782317717680845,-0.5497739363598763,-0.04159979892986775,0.38672525107395045,-0.6440497440696183,-0.09566830398533892,0.7596707775243579,0.7962970439279616,0.02612636765465053,0.6952067902002032,0.8585240311833182,0.0,0.0,0.0,0.0
0.042002520380950446,-0.18507634823135352,0.8479088092948662,-0.0020041088568065425,-0.5266880048506454,0.0011827633527936887,0.8500554865213141,0.00909880826999037,0.29368607013977144,-0.5540304657852904,-0.040454500562964874,0.3929209331588446,-0.6508750892273135,-0.09235803052156538,0.7655499262241107,0.7891696938598584,0.015810114623903932,0.690235983763728,0.8675219020880726,0.0,0.0,0.0,0.0
0.042674093823032555,-0.18581560263737773,0.8484221215372362,-0.0020985998811351493,-0.5268892235412385,0.0011940921097642531,0.8499305360667324,0.004841784949477023,0.2898964202522919,-0.5590400719130598,-0.0388536858029903,0.3974210124453556,-0.6554877645823493,-0.08806726911034253,0.770227864122301,0.7823689779154543,0.0065645774189891735,0.6855181612285551,0.8760172044598941,0.0,0.0,0.0,0.0
0.04299123465866998,-0.18679202094814334,0.8488418982519969,-0.002155547434239211,-0.5270637532353931,0.001188450759155631,0.8498221821213379,0.0012275863242868024,0.28611976149912627,-0.5643926782560895,-0.03674593195803506,0.4003400208321527,-0.6582099343488202,-0.08263918867940862,0.7735950936954596,0.7759610513717374,-0.0019497884961546912,0.6807321369729753,0.8841043401154072,0.0,0.0,0.0,0.0
0.04296643970367394,-0.18802820148573238,0.8491512432899505,-0.0021754891161362517,-0.527206197745672,0.0011627427934543767,0.8497338055737533,-0.001881565705462552,0.2822410932667922,-0.5697402087861909,-0.03408193310617771,0.4018333912728077,-0.6594089828443059,-0.07600397139801013,0.7755885693048555,0.7700549046223811,-0.009826828959274413,0.6757690423817075,0.8917448415407588,0.0,0.0,0.0,0.0
0.042614933846680164,-0.18954263126114884,0.8493264829196475,-0.0021573844018241586,-0.5273139017973911,0.001113477520350216,0.8496670847052777,-0.0045878651646524115,0.27837357551893394,-0.5746903566166106,-0.030822886439555015,0.40205437577234,-0.6594535900364648,-0.06814560431882481,0.7761336494298396,0.7648329007159531,-0.016998326694087056,0.6706780649240802,0.8987083729872447,0.0,0.0,0.0,0.0
0.0419490060410941,-0.1913472169319139,0.8493361387083773,-0.002099508953035066,-0.5273854457708147,0.0010377649524041627,0.8496229202976923,-0.006973021105664339,0.2748350486577195,-0.5787024004429809,-0.026946064439026723,0.4011217369244779,-0.6586710071627675,-0.05909776075816826,0.7751160683127644,0.7605686147575803,-0.023262937227668992,0.665672771326912,0.9044515771570303,0.0,0.0,0.0,0.0
0.040974421969603374,-0.19344440998743964,0.849144389288394,-0.0019996836449071753,-0.5274208981212477,0.0009332042480522229,0.8496012750815103,-0.009108506476372307,0.272029224290989,-0.5809798770769379,-0.02244962461655081,0.39908889339421605,-0.6572815018545957,-0.04895244424020001,0.7723896933413867,0.757601859510661,-0.028310777667464045,0.6612067852171541,0.9079129875706964,0.0,0.0,0.0,0.0
0.03968796068317121,-0.19582494984936205,0.8487248207794321,-0.0018570635197138982,-0.5274232297143614,0.0008000983848187511,0.849600287144096,-0.011047596805520626,0.27014713750973796,-0.5804053069023416,-0.01735910236023099,0.3959027244697215,-0.6552641151786689,-0.03784191563053065,0.7678412025494805,0.756200673774845,-0.031842613776907835,0.6580808220043118,0.9073074360139862,0.0,0.0,0.0,0.0
0.038073933534921126,-0.19847038172312031,0.8480759354980418,-0.0016752527018310216,-0.5273896519578962,0.0006441619706962576,0.8496216414330967,-0.012826032357327278,0.26918651343217764,-0.577025155332282,-0.011724658101973286,0.39138246595351583,-0.6522993251106747,-0.025884236043783315,0.7614413506641325,0.756355884619078,-0.03389487535438278,0.6563057534998062,0.9026172396205072,0.0,0.0,0.0,0.0
0.03610721260304083,-0.20135156899795462,0.8472215689216367,-0.0014624270181245434,-0.5273108431170993,0.00047619875569068787,0.8496710594536544,-0.014471865461829478,0.26894779471087266,-0.572051945024493,-0.00562488912377583,0.3852363708181816,-0.6477973183768957,-0.013202770514698313,0.7532592354391494,0.7577725580623389,-0.03485611818149724,0.655093603762253,0.8955776590669748,0.0,0.0,0.0,0.0
0.03376243314121526,-0.20442171281253071,0.8461976360645683,-0.0012284062206765394,-0.5271792786406042,0.0003089260880647254,0.8497531428331414,-0.01602414742529315,0.2690142971297045,-0.566378229067817,0.0008203234490285821,0.3771067511659735,-0.6409831661322412,-7.330203697954174e-06,0.743438907575055,0.7600615978234412,-0.0351736150030775,0.6539753913470978,0.887194765690869,0.0,0.0,0.0,0.0
0.031023044379688294,-0.20761372749449009,0.845041302546967,-0.000983152739594104,-0.526989151476778,0.0001540306613910515,0.8498714278707288,-0.01755774278810944,0.26906059477559635,-0.5606371611437566,0.007448258739541501,0.36663431882492015,-0.6310466053086977,0.013378823523857336,0.7321609372400102,0.7628757448609789,-0.035271706814808575,0.6526855583620488,0.8779675136439163,0.0,0.0,0.0,0.0
0.027893835729309986,-0.21083950967875073,0.8437884648947389,-0.000737092616802143,-0.5267383191282451,2.1504267095930754e-05,0.8500271756796907,-0.019181259833838,0.26899158169598164,-0.5552948408650118,0.014055071855299087,0.3535298984878998,-0.6172577383230764,0.0265369911528591,0.7196515667868997,0.765957999514895,-0.03558629278887047,0.6510837835879116,0.8681148875398368,0.0,0.0,0.0,0.0
0.02441959853891487,-0.21399094588339776,0.8424675570475029,-0.0005018352089401554,-0.5264314716152168,-8.041091089531254e-05,0.8502174118356702,-0.021006793753716307,0.2689846413663418,-0.5507104377336322,0.02040225304182088,0.33769532677117586,-0.5991758374400061,0.038994631857616695,0.7061813016593331,0.7692307407281064,-0.03662355602836525,0.6491632522432343,0.8577273680465822,0.0,0.0,0.0,0.0
0.020712116729327597,-0.21694497063452908,0.8410700030918162,-0.00029183849327147097,-0.5260612377859276,-0.00011778924139389289,0.8504466326908033,-0.02313867068473935,0.26941832369951385,-0.5472604514340329,0.02617875346743597,0.319524269531157,-0.5773475029738612,0.050420127178298406,0.6918642680825228,0.7730261643450673,-0.038811728855418115,0.6471168406184831,0.8468931144073996,0.0,0.0,0.0,0.0
0.017036137631323202,-0.21962108713393227,0.8395504544029723,-0.00011047487537425831,-0.5255863974472148,-0.00013282915401049676,0.8507402123857647,-0.02577581522102778,0.27050184774546404,-0.5446795859950335,0.03132720141495557,0.30078072336756106,-0.5551119865161216,0.06035536761112639,0.676960127436569,0.7779485930268594,-0.042963625067338924,0.6454836067544473,0.8356263056472225,0.0,0.0,0.0,0.0
0.013818421500001652,-0.22192700284797995,0.8379712647952079,2.36064339125311e-05,-0.525074570502068,-0.00012480325750187924,0.8510562139359257,-0.02873744129158126,0.27250427085411655,-0.5426631899625699,0.03571296589746959,0.2842442390144413,-0.5365902442134071,0.0687329121758363,0.662669785485287,0.7839901480332969,-0.04964039309174989,0.6449069188991708,0.8240390586334504,0.0,0.0,0.0,0.0
0.011285987456652675,-0.22366758107238827,0.8364983758830328,0.0001184713989949046,-0.524611639740565,-0.00011029769267518165,0.8513416477817012,-0.03183007776631145,0.2752276742302364,-0.5420157630125169,0.038994675000238586,0.27117468015373547,-0.5229260132335269,0.07484841162514565,0.650280833417747,0.7906461807285627,-0.05915743709323287,0.6450237394511757,0.8121410082587944,0.0,0.0,0.0,0.0
0.009762512027020507,-0.224674034475564,0.8354163087167478,0.0001821302196602056,-0.5243013983698495,-0.00011718748886961439,0.8515327338177294,-0.03418116662561015,0.27785114878719486,-0.5433272159254836,0.04090844964023705,0.263394199803245,-0.5156974896609948,0.07812965415971146,0.6419013629639674,0.7963469633603376,-0.06893330638552048,0.6460267811255253,0.8005769942556195,0.0,0.0,0.0,0.0
0.00968707484346508,-0.22490958495301014,0.8353240162355857,0.00035756285542723324,-0.5243230890396818,-0.00010298488875403432,0.8515193244094951,-0.03420003540300912,0.277892496688611,-0.5433320716729685,0.04115472014991299,0.26317402723008215,-0.5157000538661937,0.07818545278539116,0.6417180189076147,0.7962550072130431,-0.0689533420199927,0.6460788557981063,0.8005904852066342,0.0,0.0,0.0,0.0
0.009687074843271446,-0.22490958495296176,0.8353240162357817,0.0003575628546580365,-0.5243230890399795,-0.00010298488871310516,0.8515193244093122,-0.034200035402993455,0.2778924966894374,-0.5433320716733306,0.041154720150019336,0.2631740272382825,-0.515700053878908,0.07818545278448615,0.6417180189087075,0.7962550072155221,-0.06895334202133803,0.6460788557979376,0.8005904852084471,0.0,0.0,0.0,0.0
0.009687074843271446,-0.22490958495296176,0.8353240162357817,0.0003575628546580365,-0.5243230890399795,-0.00010298488871310516,0.8515193244093122,-0.034200035402993455,0.2778924966894374,-0.5433320716733306,0.041154720150019336,0.2631740272382825,-0.515700053878908,0.07818545278448615,0.6417180189087075,0.7962550072155221,-0.06895334202133803,0.6460788557979376,0.8005904852084471,0.0,0.0,0.0,0.0
0.011237562506175377,-0.22614109723985162,0.836232404196337,0.00047454837991467446,-0.5250963003392509,-0.00010981537481787227,0.8510426770229855,-0.03183332796104442,0.28371171010153323,-0.5450324125580165,0.04355828731559412,0.2734345962815182,-0.526290404074231,0.08348841387658155,0.6514895779920737,0.7863691356771099,-0.0649386926579462,0.654498904047208,0.7985277020516981,0.0,0.0,0.0,0.0
0.014336943418549464,-0.22855517670530323,0.8389594443735695,0.0007166492756439965,-0.5267775522207464,-0.0006890327372755204,0.8500026012454441,-0.025991949713958996,0.29352297259536864,-0.5403222604559405,0.04943010487817629,0.2917591403341915,-0.5399270142449107,0.09176454482365645,0.6769658896132845,0.7582435506575133,-0.05930105955165832,0.6757973768982485,0.784685975141363,0.0,0.0,0.0,0.0
0.017291322515231806,-0.2310199920002573,0.8408059370165099,0.0008993132121020138,-0.5266993047287127,-0.00044317003039161886,0.8500510791913397,-0.021794544219439237,0.30830703596230463,-0.5578774689366668,0.04748116064950658,0.28827642813797316,-0.5350491594990355,0.08092314657466025,0.6678741818332943,0.787551464643977,-0.048485757682580954,0.6907125233396564,0.773576891438649,0.0,0.0,0.0,0.0
0.020662670985643058,-0.2336926660973871,0.8420737919529669,0.0010174187227357237,-0.5266362727434206,-0.00034655089532367245,0.8500900428734224,-0.016769714921102526,0.3261945438466289,-0.5824867026601089,0.04390385932929747,0.2838059462851155,-0.5349171433149823,0.06818238791498124,0.6626755860244278,0.809623975844611,-0.03686523082283595,0.7034068159665036,0.7684853256774344,0.0,0.0,0.0,0.0
0.024372794813541137,-0.2363789527477782,0.8430110680004506,0.001140109510555252,-0.5265343456696047,-0.00038661102111503895,0.8501530059421677,-0.011389066606470412,0.34619937491412367,-0.6116652874363101,0.03943647613417759,0.2802360952784032,-0.5374815470319854,0.05790334272516329,0.6605058937025213,0.8268670203726474,-0.02547184762243817,0.714990607803608,0.7661879933465275,0.0,0.0,0.0,0.0
0.027940882016917436,-0.23910212335385667,0.8439200000839098,0.0013208850023210736,-0.5265643846130401,-0.0005129601634497725,0.8501340723625724,-0.005739694557013413,0.36377728162631306,-0.6355902368233619,0.035335331790940915,0.2779266200804399,-0.5414356864337259,0.050929394126765434,0.659758301081702,0.8413525223236751,-0.014210344830230644,0.7264661166481802,0.76421666942547,0.0,0.0,0.0,0.0
0.03116154258286678,-0.2418377266159084,0.8448982936356318,0.0015482831017189236,-0.5267045470227126,-0.0006890307117484351,0.850046732951615,4.859867266650969e-05,0.3780355735899965,-0.6527570155843773,0.03193876682957635,0.2764574755127498,-0.5461652724171634,0.04649737004669647,0.6594620485737203,0.8541033434565447,-0.002963196460858403,0.7379380003508033,0.7614753125497913,0.0,0.0,0.0,0.0
0.03394084111388887,-0.24454878647374445,0.8459182993723754,0.0017901380267482164,-0.5268806472924832,-0.0008818360285655104,0.8499369395900603,0.005842561170138521,0.38903744794358125,-0.6640167608954031,0.029148255967220912,0.275258047606706,-0.5513995304667396,0.04364716706367175,0.659099794866157,0.8656544020744306,0.00838023241421914,0.7489418765358904,0.7580142249842006,0.0,0.0,0.0,0.0
0.03625839123882416,-0.24718893380956639,0.8469294510522908,0.0020237434757947046,-0.5270462781491849,-0.0010707727196157906,0.8498335005147886,0.01150880373635106,0.39710612395912537,-0.6705108776108096,0.026719509276013884,0.2739384158074609,-0.5569364088979255,0.041581735413742466,0.6585255861081175,0.8763290831894583,0.019741279700619146,0.7590582999274517,0.7542027600600192,0.0,0.0,0.0,0.0
0.03813664775651134,-0.24971045067638867,0.8478873631475434,0.0022354064648355946,-0.5271786294695087,-0.0012443323423509812,0.8497506382613721,0.01692547380807119,0.40266772659861216,-0.673338065534093,0.02440315623275027,0.2723268019768592,-0.5625897460573929,0.039753439301525036,0.6577517977493894,0.886319428833804,0.030924714820577917,0.7680216242873913,0.7504077958411838,0.0,0.0,0.0,0.0
0.03961885208967444,-0.25207123899392847,0.8487565832523916,0.002417477283058909,-0.5272687530841039,-0.0013963961756396587,0.8496939848571607,0.021992059051390317,0.40617609240159064,-0.6734923735615708,0.02200799863717259,0.2704587302282462,-0.5681402925030689,0.03780023143831071,0.6568617682595986,0.8956710383962049,0.041701592626872515,0.7756839518761387,0.7469445182119041,0.0,0.0,0.0,0.0
0.04075422250047723,-0.25423897656552435,0.8495059710921744,0.0025656580906435068,-0.5273144741284941,-0.0015235751021388604,0.8496649583759823,0.026634858128588953,0.4080652871480524,-0.6718566353381137,0.019421088069490822,0.26856839114200926,-0.5732728827582461,0.03544029179782713,0.6560007860776215,0.9042183951438645,0.05187004544441273,0.7819514784870387,0.7441156211966086,0.0,0.0,0.0,0.0
0.041588235955029154,-0.2561930383562923,0.85010411031575,0.0026771300889792,-0.5273164165843196,-0.001623539778632786,0.8496632238091432,0.030808678981674713,0.408715029981641,-0.6691954150887219,0.01660421147345663,0.2670589019927511,-0.5774932788412814,0.03237878137460163,0.6554182324152454,0.9114615946070797,0.06129142435414511,0.7867329745372791,0.7422572794390245,0.0,0.0,0.0,0.0
0.042156194740375616,-0.25792518053018226,0.8505193178468642,0.0027497413597997416,-0.5272768126307237,-0.0016943136122927443,0.8496874314039381,0.03449635552311731,0.4084173063075294,-0.6661124555735497,0.013574048006069733,0.2663852462861941,-0.580028136715339,0.028267629402962607,0.6555631544764242,0.9163599822561237,0.06990412728973999,0.7899230454138593,0.7417394420025539,0.0,0.0,0.0,0.0
0.042478997330304684,-0.25943912212540965,0.8507307774664642,0.0027833966509887742,-0.5272020382784832,-0.0017360493514109996,0.8497336345412869,0.03770776285898486,0.4073289795730275,-0.6629149014473038,0.010364823136670455,0.2667647622428761,-0.5797560017915427,0.0227930359971965,0.6572076013664891,0.9171277755436241,0.0777003415961454,0.79145397583511,0.7428485043933024,0.0,0.0,0.0,0.0
0.042559241705921194,-0.2607462797229017,0.8507426899925421,0.0027796173348277713,-0.5270963193481695,-0.0017496993421910584,0.8497992012289117,0.04046668978635794,0.4054452986436693,-0.6595507307784264,0.006998665411952184,0.2682162443807575,-0.5766921114456105,0.015994077951480785,0.6603156388861314,0.9137554233645525,0.08469986647622647,0.7913520899799299,0.7455981438592252,0.0,0.0,0.0,0.0
0.04238387939285953,-0.26186443312387336,0.8505840657081748,0.0027408166367526806,-0.526960771923232,-0.001736802750207615,0.8498834133541153,0.04280762870529845,0.4026165218841879,-0.6556419517205895,0.0034681737428252668,0.27057147133921977,-0.5720033661307666,0.008237739294822983,0.6640554949368914,0.9080224500498404,0.090939623813407,0.7897390206916702,0.7497237436642986,0.0,0.0,0.0,0.0
0.04193254519185944,-0.26281822786390285,0.8502935350241176,0.0026694138460107214,-0.5267985821915384,-0.0017002920708879836,0.8499842569351372,0.04478013177578516,0.3986047672491509,-0.6506083513003753,-0.00026925141031887493,0.27345273802214826,-0.5665335171026925,-0.00012831439356284096,0.66793942466566,0.9009974894991198,0.09648278662542017,0.7867764801758248,0.7548688536429742,0.0,0.0,0.0,0.0
0.04118527947291453,-0.26363561130090896,0.8499065378645931,0.0025657648059276943,-0.5266128880074535,-0.0016422498176850364,0.8500997506475026,0.04644079203644542,0.3931591860495062,-0.6438564335159531,-0.0042816448615045815,0.2765774373662785,-0.5608762443947342,-0.008900621911351372,0.671713201032762,0.8932596909344239,0.10142987543630232,0.7826142364061058,0.7607130121067381,0.0,0.0,0.0,0.0
0.04013226626273346,-0.2643437230878296,0.8494532115800328,0.002428027405346668,-0.5264084606446746,-0.0015634700444531382,0.8502269066584773,0.047845195024754095,0.3860811329286998,-0.6348868232025523,-0.008655832285436423,0.2798891021206822,-0.5554886655971328,-0.01806028874115369,0.6752914027038697,0.8851311036806143,0.10590724761245282,0.7774071762606356,0.7669882403962812,0.0,0.0,0.0,0.0
0.03878726777261754,-0.2649641612223652,0.8489603613530958,0.002252079427938292,-0.5261954496543535,-0.001462563338455715,0.8503594168407757,0.049037509116295806,0.3773057500380511,-0.6234046135374374,-0.013481602540042093,0.28359386688827554,-0.5508006362646,-0.027834906621956063,0.6787749156120048,0.8768453050956445,0.11005779988042969,0.7713690958649201,0.7734552911865908,0.0,0.0,0.0,0.0
0.037206839563411954,-0.2655066605280099,0.8484526042505236,0.0020309752394646365,-0.525995041995473,-0.0013340799517914334,0.8504841627957805,0.05003577344140792,0.3670299733164771,-0.6095069046018076,-0.018813273595158594,0.288159477703202,-0.5473252977544096,-0.038836929267120325,0.6825499818465309,0.8686848180423442,0.11403789713154971,0.7648407978615348,0.7798943952630668,0.0,0.0,0.0,0.0
0.03551694751531075,-0.2659603719886345,0.84794516750267,0.0017543174437904463,-0.525843054842288,-0.0011653753441358762,0.8505790062920341,0.05081130659692042,0.35593451684717126,-0.5940821801923916,-0.024603598297389215,0.2942716084720776,-0.5457752294288913,-0.052272173733788126,0.6874556384410324,0.8610859510475993,0.11801602867859101,0.7583264433388504,0.7861784485498401,0.0,0.0,0.0,0.0
0.03394461919444105,-0.26627893959812055,0.8474098301188063,0.00139236395709144,-0.5257152662934828,-0.0009200057224426277,0.85065896439058,0.05125296384882642,0.345763040135277,-0.5803722297579051,-0.030693213339115837,0.3025126144725857,-0.5472258067123261,-0.06993790622057239,0.6946069389937753,0.854622665372015,0.1222321490203444,0.7522474311562444,0.7923718828375818,0.0,0.0,0.0,0.0
0.032843831150700914,-0.26640524750031114,0.8469455140031805,0.0009700766916353773,-0.5257235605063634,-0.0006101816113193141,0.8506547034832204,0.05126270415780347,0.3387366276603229,-0.5711603588194348,-0.03647489594323957,0.31365075377959317,-0.5536091416582625,-0.0928081050420308,0.7049449099949697,0.8500503057798754,0.12648206886344515,0.7481683808970176,0.7976295921697691,0.0,0.0,0.0,0.0
0.032380726959654056,-0.26640724476076555,0.8467210218424729,0.0005793832149595449,-0.5259867718405069,-0.0003049546227320154,0.8504924968314364,0.051020542850682825,0.33535107383323304,-0.5658244705002383,-0.040141096577097954,0.32774284198190373,-0.5686531342928001,-0.11571550403472243,0.7164482623718844,0.8475991023745727,0.1304552373615457,0.7474087162373323,0.8008045590357503,0.0,0.0,0.0,0.0
0.03234885908174481,-0.2663433674670416,0.8467042460477403,0.0005128474385818001,-0.5259901270435032,-0.0003066020836067243,0.8504904639297411,0.050963136046120856,0.33527738633839327,-0.5658267876824479,-0.04016764085445085,0.32778160099955095,-0.5686500325997308,-0.11571918242946508,0.7164820796553931,0.8476110235798666,0.13046199868459205,0.7473342664706754,0.8007759351824095,0.0,0.0,0.0,0.0
0.03234885908174481,-0.2663433674670416,0.8467042460477403,0.0005128474385818001,-0.5259901270435032,-0.0003066020836067243,0.8504904639297411,0.050963136046120856,0.33527738633839327,-0.5658267876824479,-0.04016764085445085,0.32778160099955095,-0.5686500325997308,-0.11571918242946508,0.7164820796553931,0.8476110235798666,0.13046199868459205,0.7473342664706754,0.8007759351824095,0.0,0.0,0.0,0.0
0.03308475045037164,-0.2661121920185394,0.8470089187238182,0.00041274877409000634,-0.5259956152681621,-0.00021690204855261073,0.8504871517610472,0.05047455892657476,0.34060430817761994,-0.5739375740873711,-0.040758352663453276,0.33194400433011495,-0.5740948201991982,-0.11619367488741718,0.7194509859617169,0.8450732145656265,0.13068537541924033,0.7508679980282357,0.7970293629508027,0.0,0.0,0.0,0.0
0.034753925945854816,-0.2657063566336507,0.8481472042187723,0.00042426838710536436,-0.5267984822627259,-0.0003580720673880024,0.84999002986295,0.04996467830312291,0.3492017608671958,-0.5797610575346822,-0.041351363588680294,0.3389098037317601,-0.5771923808202102,-0.12061412713607096,0.7310649276137412,0.8371888989062203,0.12933985688867777,0.762367741660732,0.7865752507069748,0.0,0.0,0.0,0.0
0.0360371987347925,-0.26551842867798525,0.8488229734475695,-0.0003142912567302169,-0.5262880456121188,0.00022090971630374213,0.8503062656864757,0.0446156714250534,0.33287371789803627,-0.5593276311779094,-0.042214793001353806,0.34712641058666327,-0.5892396696852885,-0.11417087584207342,0.7345849620215591,0.8289865262386953,0.10347702547079542,0.7402362436511206,0.8097706907095922,0.0,0.0,0.0,0.0
0.037768877824701105,-0.26547548752883,0.8495100406505437,-0.0009340082579671668,-0.5259962551909972,0.0006984414238794033,0.8504860841502339,0.03705342082928805,0.3199155368488193,-0.5490146402976187,-0.04272342724598502,0.35809857651565263,-0.6050004975796043,-0.10865056552116327,0.7400673058480602,0.8208408331993826,0.0781077019988312,0.723386158827419,0.8262145959240876,0.0,0.0,0.0,0.0
0.03954049349485717,-0.2655386004607275,0.8502273728051132,-0.001361270589279785,-0.5259944529355468,0.0009622771013179863,0.8504863646444885,0.029206568509812965,0.3106477839033011,-0.5455804731891903,-0.04277019005709535,0.368674844445983,-0.6189409890843646,-0.10509308282816848,0.7470530998195957,0.8129547630972631,0.05797602702174717,0.7119188191838407,0.8390233650204765,0.0,0.0,0.0,0.0
0.04116509119968046,-0.26573962931857703,0.8509363297093174,-0.0016488021793912935,-0.5261468145861709,0.001094581313598712,0.8503914468313676,0.022125240269586406,0.30398417274456196,-0.5461469458515055,-0.04239370914538823,0.3781324677536183,-0.6306014536341483,-0.10235764401994717,0.7544089396083257,0.8052344629144749,0.04265276897947241,0.7040688606959981,0.8499041481947424,0.0,0.0,0.0,0.0
0.04252130295846306,-0.26610145634169785,0.851600426041383,-0.0018463645196078705,-0.5263594491426283,0.0011594450790437315,0.8502593586214963,0.01609815811468883,0.29896301835658473,-0.5490459111142784,-0.04162061860335646,0.3860504108642291,-0.6398198173719623,-0.09955590142482318,0.7612832827626503,0.7977433803656866,0.030493617672173894,0.6982251152039539,0.8596606217195741,0.0,0.0,0.0,0.0
0.04354613615447724,-0.2666473338659054,0.852197142565036,-0.0019849535702926766,-0.5265810670361377,0.001191651082034251,0.8501217676110316,0.011063425700111457,0.2948362794561477,-0.553300744817102,-0.04043901167167742,0.3922629208691617,-0.6466376406463568,-0.0961203817028707,0.7671858662625919,0.7905505337711224,0.020190258262569656,0.6932927101052633,0.8687000409297205,0.0,0.0,0.0,0.0
0.04421717817931615,-0.26740184088123053,0.8527124751066355,-0.002079553909961335,-0.5267863345956426,0.0012042151975202762,0.8499943429250463,0.006844943174618733,0.29106294093737617,-0.5583126878796741,-0.03880912438812438,0.39678383145108964,-0.651264506475571,-0.09173196259895493,0.7718786177431544,0.7837079457904718,0.010975310475369884,0.6886256542959669,0.8772410947947622,0.0,0.0,0.0,0.0
0.04453590555565836,-0.2683894844740012,0.853133924509886,-0.0021356625402317174,-0.5269638963385703,0.0011987102068468953,0.8498841415128456,0.0032652733922808215,0.28730888907048874,-0.5636721292830016,-0.03668022544783683,0.39972809853156605,-0.6540138725933022,-0.08622741560568892,0.775257847635592,0.7772763209505822,0.002490975000378863,0.6838971206158968,0.8853766760215604,0.0,0.0,0.0,0.0
0.04451498326289292,-0.269632801428758,0.8534452909130636,-0.0021543125985072826,-0.5271089897141322,0.0011724878721528558,0.8497941498809958,0.00018411378171810221,0.2834580867913612,-0.5690306665274982,-0.03400347646660226,0.4012509314655542,-0.6552458258334555,-0.07953220964320679,0.7772648303231169,0.7713596347664232,-0.005363994779328222,0.6789938087086117,0.8930669053192721,0.0,0.0,0.0,0.0
0.04416957271400437,-0.2711502848843122,0.853623405822859,-0.002134827481133616,-0.5272194403005956,0.0011223717754109996,0.8497257466749787,-0.00250281964707107,0.27962224263541435,-0.5739950953237182,-0.030740244493799612,0.4015049155650257,-0.6553229956304991,-0.07162662220972192,0.7778277909369561,0.7661365473032741,-0.01252433652832986,0.6739608159286314,0.9000797646372752,0.0,0.0,0.0,0.0
0.04351177245940809,-0.27295396506608693,0.8536370835400723,-0.0020757660097755234,-0.5272941824432085,0.001045693582915082,0.8496796119020107,-0.004879112325750949,0.27611763348964147,-0.5780233099965943,-0.026867615670447095,0.40060825389358024,-0.6545685548628782,-0.06254086810387752,0.7768338804800099,0.7618785518640112,-0.018790687346078888,0.6690074116125218,0.9058694413628562,0.0,0.0,0.0,0.0
0.04254717064001057,-0.2750466052737079,0.8534505462422252,-0.0019751710301150038,-0.5273334636335438,0.0009402119885838634,0.8496555965996271,-0.007017753937919299,0.2733462413258114,-0.58031705652943,-0.022383121327217807,0.3986148397450566,-0.6532024976579646,-0.052363222030262,0.7741368448340957,0.7589250798944115,-0.023855505281892675,0.6645829654814486,0.9093705983615215,0.0,0.0,0.0,0.0
0.041272570074491394,-0.2774195262787316,0.853037163941386,-0.0018322934857148913,-0.527340151322032,0.0008063092889637446,0.849651903646175,-0.008972398543187505,0.2714973415513609,-0.5797573003338797,-0.01731109881851811,0.3954741495651916,-0.6512098353617877,-0.041221970424367385,0.7696217808998463,0.7575451483396549,-0.02742148399439466,0.6614854231601043,0.908792835953144,0.0,0.0,0.0,0.0
0.039672618097096296,-0.2800550982554606,0.8523951117034183,-0.0016505585768669603,-0.527311264151582,0.0006496229290100528,0.8496703386286325,-0.01077720166197398,0.2705690079131247,-0.576391190298016,-0.011699954903128862,0.39100993440215664,-0.6482815978140645,-0.02923191692137162,0.7632577291582248,0.7577314133489091,-0.02952397949702831,0.6597263693147056,0.9041191416896648,0.0,0.0,0.0,0.0
0.03772278999711637,-0.28292522354677196,0.8515478259353186,-0.0014377278017474362,-0.5272371824893608,0.00048078575649805394,0.8497168088160342,-0.012456654438550395,0.2703641327267659,-0.5714342356452454,-0.005626078431313008,0.3849365711047497,-0.6438424303690213,-0.016513604963314117,0.7551119133506337,0.7591911405471492,-0.030547609222130668,0.6585218869386532,0.8970916058388183,0.0,0.0,0.0,0.0
0.035398401515885025,-0.2859843044060933,0.8505306490242924,-0.0012031458249031905,-0.5271097769583183,0.00031236595450386423,0.8497962920033167,-0.014044960667035533,0.27046843099155965,-0.5657824038603251,0.0007931926189273597,0.37690376996898556,-0.6371364371005526,-0.003274102977157002,0.7453251760489968,0.7615377123597747,-0.030935436160953175,0.6574083588345856,0.8887218419875331,0.0,0.0,0.0,0.0
0.032683391423507124,-0.2891664409224834,0.84938002742844,-0.0009563041630118162,-0.526922450919087,0.00015593222598715058,0.8499128142844483,-0.0156114652947414,0.27055856941755746,-0.5600723443477076,0.007397713910095231,0.3665594538694451,-0.6273739195103514,0.01016479921724185,0.7340737052439964,0.7644267214284675,-0.031107705894022786,0.6561252873455399,0.8795127835304786,0.0,0.0,0.0,0.0
0.02958260315561155,-0.2923845146609484,0.8481311200709106,-0.0007071671381908557,-0.5266722236182849,2.1341454986308982e-05,0.8500681551076668,-0.017258742705938232,0.2705411142938559,-0.5547739205297865,0.013985935751539197,0.3536200440678374,-0.6138437234630306,0.023383110586499847,0.7215790611408172,0.7676035357282821,-0.031494229668829685,0.6545364260302221,0.8696865840630013,0.0,0.0,0.0,0.0
0.026140214572610197,-0.2955310555002217,0.8468119520681223,-0.0004669699067055683,-0.5263631379128744,-8.335462581729804e-05,0.8502597379845908,-0.01909241853633187,0.27059416729373686,-0.5502490830192454,0.02032114058907277,0.33798981033055014,-0.59611693387281,0.03590377706844488,0.7081091262104844,0.7709892394915614,-0.03258790766354306,0.6526384726600006,0.8593370940025121,0.0,0.0,0.0,0.0
0.022466498593838317,-0.29848355076592564,0.8454147513393068,-0.0002505481768902876,-0.525986642950725,-0.00012412405300325096,0.8504927826009208,-0.02120872803368868,0.2710884344532414,-0.5468646410832608,0.02609403128100757,0.3200629735789251,-0.5747465760456336,0.04739537272719058,0.6937796156004913,0.7748978094282337,-0.034779408522322496,0.6506292167730273,0.8485500264896446,0.0,0.0,0.0,0.0
0.018799252015630676,-0.3011523131039661,0.8439021561804375,-6.092778206555461e-05,-0.5255093555076171,-0.00014304630529415898,0.8507878073289066,-0.023850475610188552,0.27225819622643005,-0.5444507223551112,0.03122596845585396,0.30137544145609335,-0.5526111258706181,0.05734576219746732,0.6788560518132732,0.7798945217659007,-0.03888350270723358,0.6489770648568192,0.8373498580835598,0.0,0.0,0.0,0.0
0.015589324709354866,-0.3034544497957967,0.8423306752402272,7.995004600508905e-05,-0.5249974768636743,-0.00013977349003151102,0.8511037676794395,-0.026800042123967874,0.2743679793343499,-0.5425817885231902,0.035606272271263964,0.2848914325168914,-0.534168000128592,0.06574408077161323,0.6645661775002842,0.7859838530364988,-0.04534995645034149,0.6484396354165526,0.8258705667341528,0.0,0.0,0.0,0.0
0.013063728479760693,-0.3051944953863876,0.8408675324375374,0.00017909285396418395,-0.5245397203589943,-0.00013055875364414112,0.8513859481139383,-0.029874851906458843,0.27724895734341454,-0.5420998750063764,0.038892926299867736,0.27185590732572457,-0.5205130777560358,0.07188480971173336,0.6522128456151881,0.7926499981551167,-0.05449468678678261,0.6486479913588142,0.8141610410815873,0.0,0.0,0.0,0.0
0.01154580320379506,-0.3062028683132436,0.8397956963855352,0.00024214317074457674,-0.524237861214889,-0.0001413452307206479,0.8515718327052917,-0.03221222642477853,0.28007770488324985,-0.5436472545455477,0.04081869726294509,0.2640886262329266,-0.513231101664982,0.07520368609927072,0.6438909616556745,0.7983241314473994,-0.06384985201085912,0.6497371959178054,0.8028788388509681,0.0,0.0,0.0,0.0
0.011470251922556688,-0.30643829865186,0.8397041525939887,0.0004176789541440338,-0.5242596065823111,-0.00012754437825256067,0.8515583797854867,-0.03223094146131939,0.2801192292234074,-0.5436521020239478,0.04106500799421194,0.26386981877322213,-0.5132339981136587,0.07525876761689407,0.6437083179972019,0.7982329476967577,-0.0638692068820846,0.6497892532161057,0.8028923462828941,0.0,0.0,0.0,0.0
0.011470251922360423,-0.30643829865181205,0.8397041525941871,0.0004176789534076952,-0.5242596065825855,-0.00012754437818581724,0.8515583797853181,-0.03223094146138907,0.28011922922415855,-0.5436521020243308,0.04106500799424305,0.26386981878124516,-0.5132339981261724,0.07525876761592729,0.6437083179983171,0.7982329476990739,-0.06386920688323822,0.6497892532159741,0.8028923462845337,0.0,0.0,0.0,0.0
0.011470251922360423,-0.30643829865181205,0.8397041525941871,0.0004176789534076952,-0.5242596065825855,-0.00012754437818581724,0.8515583797853181,-0.03223094146138907,0.28011922922415855,-0.5436521020243308,0.04106500799424305,0.26386981878124516,-0.5132339981261724,0.07525876761592729,0.6437083179983171,0.7982329476990739,-0.06386920688323822,0.6497892532159741,0.8028923462845337,0.0,0.0,0.0,0.0
0.013007322006641654,-0.3076501069353119,0.8406067350323703,0.0005316083602884448,-0.5250271175218546,-0.0001344279196474728,0.8510853219204161,-0.029899432065858662,0.2858540989881498,-0.545259656085631,0.04343017464500133,0.27401690730394773,-0.5236669446010493,0.08048983160116982,0.653409475018638,0.7884328481402959,-0.05983014453858386,0.6582226769817745,0.8006962286552415,0.0,0.0,0.0,0.0
0.016077969711770498,-0.31001849601502307,0.8432973236381764,0.0007791969173815276,-0.5266988513462868,-0.0007195571556899892,0.8500512896761969,-0.02414582438331459,0.29550554068486024,-0.5404501822235345,0.049210646455798965,0.29211139852354545,-0.5370863512629055,0.08849562377016396,0.6786177447355549,0.7607782254155047,-0.05429623331408956,0.6793742045634217,0.7868467924898918,0.0,0.0,0.0,0.0
0.01900764551368321,-0.31243919660617064,0.8451065283624584,0.0009530845283518049,-0.5266265039696395,-0.00047643243261036983,0.8500961063072423,-0.02001519820471684,0.3101564573931019,-0.5578868823211381,0.047227104485571644,0.28887276910139137,-0.5328898764610391,0.07778735488603354,0.6696624932677933,0.7895922509693466,-0.043503134285787996,0.6941563075712366,0.7758447748654637,0.0,0.0,0.0,0.0
0.0223523647306255,-0.31505256881551125,0.846360647751807,0.0010678279745916601,-0.5265672279747431,-0.0003832512039486598,0.8501327350978354,-0.015090961128204312,0.32790067556645125,-0.5822793577425116,0.04356768422423156,0.28455775260832994,-0.5331362173740738,0.06516803988966614,0.6645132553587192,0.8114016008741654,-0.0319856888703042,0.7068552451272234,0.7705477676138847,0.0,0.0,0.0,0.0
0.026031817521740646,-0.31767555474300513,0.8472860475875418,0.001187474153606915,-0.5264638077420675,-0.00042493574195651775,0.8501966057756718,-0.009823741287693137,0.34777244211959485,-0.6112851276914768,0.039002711157825574,0.2810515206041727,-0.5359012191158068,0.05493033945816266,0.6623462892263369,0.8285094472620268,-0.02071031343264916,0.7184465826239192,0.7679917196490103,0.0,0.0,0.0,0.0
0.0295606636045574,-0.32034030496912863,0.8481876469003324,0.0013672513687636167,-0.5264980708890306,-0.0005535003918933753,0.8501750441004136,-0.004281677118253162,0.36514267270467793,-0.6348668369840559,0.03482120960719758,0.27875659154946425,-0.5399593134072975,0.04792106470175761,0.6615747498497688,0.8429297931936749,-0.00956830252150316,0.7299349816558771,0.7657627063837222,0.0,0.0,0.0,0.0
0.03273961136787203,-0.32302290003077044,0.8491568690426449,0.0015928930270801202,-0.5266393693376764,-0.0007312260797412291,0.8500869971149064,0.0014065279597540083,0.37919557767727435,-0.651726705336701,0.03134959737341981,0.2772614263556581,-0.544742118764358,0.04340052676450572,0.6612328946250434,0.8556498560885074,0.001578901154311866,0.7413846250379735,0.7628116467381398,0.0,0.0,0.0,0.0
0.035478796292537904,-0.3256863692172017,0.8501657527797994,0.0018322631949125169,-0.526814001124673,-0.0009250031745437723,0.8499781146592685,0.007108265752194189,0.39001160250847716,-0.6627402324945959,0.028486965550053492,0.2760168933942181,-0.5499974718010269,0.040433846426679645,0.6608231164325362,0.8671905514292801,0.012840505261198903,0.7523368432724507,0.7591966192546623,0.0,0.0,0.0,0.0
0.03776026462620593,-0.3282843968024869,0.851164961890879,0.0020630182853940892,-0.5269766755470833,-0.0011143862846592163,0.8498765119287076,0.012691139129051746,0.3979201667521686,-0.6690450225511582,0.02599012593586213,0.2746478505134118,-0.5555358962594485,0.038244329559883286,0.660207933245934,0.8778680816067368,0.024135015146989812,0.7623864982341707,0.7552762701232216,0.0,0.0,0.0,0.0
0.03960776181739164,-0.33076949865225513,0.8521113380179196,0.0022718293722557544,-0.5271054325076526,-0.0012880859117852085,0.8497958829312529,0.018034595379982407,0.4033493020818273,-0.6717309128029332,0.023611987230264926,0.27299013219582163,-0.561179950376868,0.036297720070884,0.6594014808842612,0.8878691420894796,0.035265808073440146,0.7712804743996915,0.7514043290684824,0.0,0.0,0.0,0.0
0.0410650784861122,-0.33309991353704843,0.8529702760545267,0.002451332269810812,-0.5271918655540905,-0.0014401853187112994,0.8497415217170151,0.023039489860791296,0.406752447695041,-0.671783112614051,0.021163716116536793,0.27108235662777835,-0.5667165369744603,0.03423928553962208,0.6584860214230818,0.8972348386996443,0.04600421338158629,0.778879643048836,0.7478854450597766,0.0,0.0,0.0,0.0
0.04218151730249291,-0.33524365706494924,0.853711102488558,0.0025974382241384783,-0.527234096174097,-0.0015674604375069357,0.8497146604678135,0.027633333910231928,0.4085620457661882,-0.6700769863370863,0.018534393202682208,0.26915940234172475,-0.5718348507959466,0.03179087939365954,0.6576047007352019,0.9057956316016318,0.05614974374163311,0.7850955245601627,0.745015126828719,0.0,0.0,0.0,0.0
0.043002356262284665,-0.33718036958268166,0.8543025753459544,0.002707485649904677,-0.5272328518880768,-0.0016677125602022624,0.8497148981548089,0.03177185438473696,0.40915567119771507,-0.667371394909382,0.015687415850422125,0.2676238791340672,-0.5760436956797326,0.028660129180118128,0.6570043127789899,0.9130475496002753,0.06556551975570006,0.7898395017896395,0.7431251746448381,0.0,0.0,0.0,0.0
0.04356254355798633,-0.3389019603818614,0.8547129807135133,0.0027794452796438456,-0.527190301346366,-0.001739063179124662,0.8497409231698355,0.03543844197901326,0.4088231295000419,-0.6642663412496007,0.012640622297041052,0.2669296262418072,-0.5785716673850859,0.02450176527066686,0.6571312792506787,0.9179452061664708,0.07419154726977586,0.7930067257700625,0.7425832341156832,0.0,0.0,0.0,0.0
0.043882588043945917,-0.34041218052876043,0.8549213585064022,0.0028133032690798236,-0.5271126220511039,-0.0017817229614205518,0.8497889117083225,0.038643146526902115,0.40771929532313245,-0.6610669541289481,0.00942879494018695,0.26729254749619635,-0.5782981129353878,0.019004872118802394,0.6587558745273714,0.9186975669801587,0.08202111768362087,0.7945286270404887,0.7436746930788133,0.0,0.0,0.0,0.0
0.04396474859677299,-0.3417224095560849,0.8549318094129386,0.002810577083385021,-0.5270039083569972,-0.0017966504733662085,0.8498563133141888,0.04140969114666271,0.4058372546911431,-0.6577186604743526,0.006073864092998092,0.26873100626552304,-0.5752381468479492,0.012208168651599662,0.661842080828965,0.9152955416270616,0.08907468344620523,0.7944304138408499,0.7464128930343499,0.0,0.0,0.0,0.0
0.04379567629790913,-0.34285031949797756,0.8547732814917038,0.00277359037454216,-0.5268652062150591,-0.0017853293362266845,0.8499424535082117,0.0437722533426288,0.40302490595845897,-0.6538403975156584,0.0025674921522022974,0.27107719213062276,-0.5705574615483394,0.004474576990748823,0.6655597729898758,0.9095246075426979,0.0953893946024036,0.7928323658254363,0.7505334378948586,0.0,0.0,0.0,0.0
0.043354633981280734,-0.343820313259067,0.8544842337624411,0.0027046307749391913,-0.5266994813201978,-0.0017505795620442147,0.8500454557378697,0.04577967683346212,0.3990421660342629,-0.6488506024624142,-0.0011344057288705262,0.2739530992091952,-0.5650970833276205,-0.0038530486497285275,0.6694234737267251,0.9024585855152333,0.10102799513787987,0.7898935410210921,0.7556809137098441,0.0,0.0,0.0,0.0
0.04262108074251297,-0.344659941173405,0.8540997718195722,0.002603905588460483,-0.5265094686327461,-0.0016943278218369627,0.8501635891809187,0.04748743534172848,0.3936358700162122,-0.6421560914832622,-0.005101737348420553,0.2770744624242,-0.5594462313969953,-0.012577014144854615,0.6731806261017012,0.8946809970835136,0.10608975540217518,0.785759282379702,0.7615368741510012,0.0,0.0,0.0,0.0
0.04158428650652267,-0.3453957728186594,0.8536495186680482,0.002469403844521293,-0.5262993115990939,-0.0016171659070632971,0.8502942557899598,0.04894954939585519,0.3866044924661346,-0.633259042559165,-0.009423628434592504,0.2803807968244647,-0.5540551894271828,-0.021687676620621432,0.6767460405708394,0.8865182543038999,0.11069901020294978,0.780578054605973,0.7678359994687826,0.0,0.0,0.0,0.0
0.04025663912591427,-0.34604862286476484,0.853159620783518,0.0022967991420716066,-0.5260782126172752,-0.0015174371968833392,0.85043173524244,0.05020809114756211,0.37787928067768334,-0.6218669887509181,-0.014192770496655557,0.28407006507020965,-0.5493433257925621,-0.03142994275112578,0.6802183320357965,0.8782092371665837,0.1149961182076042,0.7745553074803534,0.7743410566178738,0.0,0.0,0.0,0.0
0.038692724602142375,-0.3466271292578459,0.8526541065265875,0.002078896827535181,-0.5258659483823857,-0.0013893309423726014,0.8505637849564295,0.051278258356308476,0.36765179075745147,-0.6080795304520701,-0.019467236188772778,0.28859497928301886,-0.5458073492177871,-0.042448396705783084,0.6839770394390212,0.8700441714125328,0.1191346218066432,0.7680226717981594,0.7808299494531385,0.0,0.0,0.0,0.0
