zhuoxili-jackie/tripod-support-walk/examples/pcbA样数据/trajectory_trotting_acc_005.csv
root_pos_x,root_pos_y,root_pos_z,root_rot_x,root_rot_y,root_rot_z,root_rot_w,FL_hip_joint,FL_thigh_joint,FL_calf_joint,FR_hip_joint,FR_thigh_joint,FR_calf_joint,RL_hip_joint,RL_thigh_joint,RL_calf_joint,RR_hip_joint,RR_thigh_joint,RR_calf_joint,FL_foot_joint,FR_foot_joint,RL_foot_joint,RR_foot_joint
0.01,0.0,0.8259446621,0.0,-0.523845373591082,0.0,0.8518133742594206,0.0,0.27,-0.52,0.0,0.27,-0.52,0.0,0.6572093368,0.8119390607,0.0,0.6572093368,0.8119390607,0.0,0.0,0.0,0.0
0.01156896397691224,-0.0005980933558387982,0.8269061833263883,0.00011024863922126275,-0.5246320547463339,-2.6473831906034547e-05,0.8513290751977248,0.0011523770678737962,0.276750404988552,-0.5232577699874544,0.0011523770678737947,0.27944829070150756,-0.5287787872186764,0.001992217563379121,0.6671123236058764,0.8039345866687665,0.0019922175633791213,0.6664521895735617,0.8072289012168118,0.0,0.0,0.0,0.0
0.014496104735629798,-0.0018584379312116177,0.8290669658673444,0.00028267173199072863,-0.526238062650672,-0.00027684909655963064,0.8503371948050591,0.004050134422738892,0.2878829835129695,-0.5243078659527147,0.004052945271795125,0.29600877818722443,-0.5413290861297122,0.005719019594091043,0.6882083543216067,0.7851629633184117,0.005731938063922166,0.6857455496121581,0.7951576935092851,0.0,0.0,0.0,0.0
0.01727858015157776,-0.0031924287516103254,0.8303008981403477,0.0005890663833331731,-0.5263004111226438,-0.00033436851431636644,0.8502984290533698,0.00656287365656585,0.3038434221181451,-0.5455100439481342,0.006111934699603051,0.2922175690193125,-0.5382567597455941,0.009826580203673458,0.6790350534171155,0.8050607824917427,0.010157439585298033,0.6974091916768956,0.7866740128670502,0.0,0.0,0.0,0.0
0.020463866015040293,-0.004508467995579726,0.8312847000741554,0.0008825267810874232,-0.5263496321930198,-0.0004520088433109703,0.8502676528745281,0.009209593328250276,0.3226499680999872,-0.5723117836885384,0.008699840228288215,0.28769824373429875,-0.5389875334258876,0.01458024756141883,0.6721237677974068,0.8206780184946306,0.014410373964574199,0.7086248836743971,0.7803942463684695,0.0,0.0,0.0,0.0
0.023932578003340945,-0.005669834305924876,0.8320290586834035,0.0011117173495604445,-0.5262994754850924,-0.0005632701610267609,0.8502983646434803,0.011634653409329312,0.3435954545787244,-0.6040018880770557,0.01096380631957164,0.28392558652798433,-0.5420665213936029,0.019130761407969724,0.6681462548643767,0.8336223449387055,0.018439124315065506,0.719240076080012,0.7755411185369467,0.0,0.0,0.0,0.0
0.027164025031708436,-0.006775488427374323,0.8327905610739708,0.0013527696783773532,-0.5264231321818629,-0.0006870338750154854,0.8502213734683978,0.013979424539716394,0.361445731370839,-0.6290973213761959,0.01336565535465115,0.28131052194311634,-0.5463754224581545,0.023817560417877175,0.6658290490717131,0.8451320592719037,0.022199036606276246,0.7299437969602781,0.770631842397726,0.0,0.0,0.0,0.0
0.029969219562834402,-0.007823826478032701,0.8335969328898941,0.001594335099973719,-0.5266469549444985,-0.0008177676710810312,0.8500822161410698,0.016224886613031137,0.37576344563063047,-0.6474055227880708,0.015754370149636123,0.2793616728504412,-0.5514583900267365,0.02865577357409131,0.6639726096719843,0.8556478984017063,0.02572395765725004,0.7403211796780684,0.7651741966147931,0.0,0.0,0.0,0.0
0.03227150979856759,-0.008790149956646365,0.8344088854532651,0.001820428660525781,-0.5269001200857187,-0.0009447201986574093,0.8499247360777855,0.018304340711723377,0.3867288763595675,-0.6599581660955077,0.01798137899805276,0.2775754488412612,-0.5570420124735602,0.03356596269177997,0.661972918247872,0.865397933772576,0.02898163882831414,0.7498329648177174,0.7593789942787345,0.0,0.0,0.0,0.0
0.034064364021091156,-0.009635654776552828,0.8351828453119441,0.0020201310485712283,-0.5271410366058492,-0.0010594559489700349,0.8497747490657447,0.020125461944532953,0.3947231224265485,-0.6679077336017956,0.01994511744127777,0.2756158847209899,-0.5629130715365507,0.03841151207373962,0.6596243671234145,0.8745404406859154,0.031836367107356045,0.7581182696857661,0.7535713835115485,0.0,0.0,0.0,0.0
0.035380219640644965,-0.010317279573438674,0.8358840488798713,0.0021867681844288866,-0.5273494124997395,-0.0011556283695126467,0.8496449138929502,0.021589988094439138,0.40020466514046804,-0.6723347464764838,0.021585471881911775,0.2733339584905613,-0.5688728408761979,0.04305047023316777,0.6569198769834954,0.8831712699178942,0.034104409892067845,0.7649958994232952,0.748023957852253,0.0,0.0,0.0,0.0
0.03626930333990605,-0.010794879310625727,0.836483997887676,0.0023163190758873123,-0.527517071354516,-0.001228541353836897,0.8495403844324501,0.022608876485890817,0.40364530254106207,-0.6742184542953058,0.022873531775681657,0.2707688148396677,-0.5746934688622289,0.047335316436771434,0.6539548740383053,0.8912797747743972,0.03560369943443792,0.770391273919278,0.7429640951908635,0.0,0.0,0.0,0.0
0.03678596364094618,-0.011035611882904719,0.8369550167928778,0.0024060583842139965,-0.5276417167932445,-0.0012746983131374482,0.8494626564639199,0.023111490152239397,0.4054893383499548,-0.6744366343120669,0.023805502132496645,0.26815227334549974,-0.5800572186826095,0.05107965698090708,0.6509056158780538,0.8986716767592752,0.03618858708746131,0.7742640769711837,0.7386270979779599,0.0,0.0,0.0,0.0
0.03697991733352604,-0.011016668772631858,0.8372665889943762,0.0024536512303663695,-0.527723875334502,-0.0012913216142970614,0.8494114571196123,0.02305057394251412,0.40612161869145763,-0.6737519616784368,0.02440058101973012,0.26588785057383474,-0.5844727143273052,0.05401432329658394,0.6480646509761147,0.9048408031034131,0.035772193588248916,0.7765602645628091,0.7353005956790126,0.0,0.0,0.0,0.0
0.03689043951950865,-0.010727326834184479,0.8373866337744814,0.002456862818337251,-0.527766298450124,-0.0012761028946460516,0.8493851126590038,0.02240530198535164,0.4058340931371577,-0.6727597059677441,0.024695985987490978,0.2644383105296483,-0.5871756425236919,0.05577513157772343,0.6459332563231803,0.9087615940137583,0.0343381103640912,0.7772020573236975,0.7333198826912088,0.0,0.0,0.0,0.0
0.03654223207772753,-0.010170073959588076,0.8372935720268325,0.002415460975676288,-0.5277766859360666,-0.0012292492390374883,0.8493788461440076,0.021184270271395685,0.4047770133407414,-0.6717435432364381,0.024730284512394222,0.26403659303934307,-0.5870608595066344,0.05601266913501587,0.6453391479504287,0.9086810094509052,0.031920080521413687,0.7761446148101903,0.7329470219120653,0.0,0.0,0.0,0.0
0.03594153650656021,-0.009356731811249264,0.8369902847768459,0.002332128363627864,-0.5277604060273949,-0.0011530672364198238,0.8493893014649073,0.01941490888944289,0.40293697012020807,-0.6706237141567223,0.02453479490851453,0.2647164673571211,-0.5841666744349271,0.05474927723401356,0.6462966587896997,0.9045971886475708,0.028571231095972247,0.7734304906881985,0.7341797005569601,0.0,0.0,0.0,0.0
0.035079109920161486,-0.008308009761133214,0.8365042081313208,0.00221218103367413,-0.5277194559494851,-0.001051905209368057,0.8494151962161286,0.017143273117600177,0.40015716873375673,-0.6689948861451882,0.024133597058782725,0.2663218954153165,-0.5796889169724847,0.052380212359637024,0.6480113580043945,0.89825408854322,0.02436353962560802,0.7691964520141699,0.7367433869747545,0.0,0.0,0.0,0.0
0.033939059671463205,-0.007057147153898366,0.8358739443884033,0.002062143255009922,-0.5276589347942764,-0.0009324014957685607,0.8494533105029469,0.014445022148780783,0.3961900561784204,-0.6662297566084505,0.02355072138064696,0.26849526014520736,-0.5745108302665449,0.049325865845472855,0.6500229492327377,0.8906720879879159,0.01941896030048034,0.763631722609784,0.7402741218723918,0.0,0.0,0.0,0.0
0.032507033081701144,-0.0056493117383277745,0.8351379900036572,0.0018879863222483878,-0.5275855809336975,-0.0008015626392096669,0.8494994101209461,0.011423500312292454,0.39076711346711224,-0.6616477836224199,0.02282621232288889,0.2709904300296901,-0.5692855783235244,0.045935025887130776,0.6520980766356633,0.8823660450608828,0.01392642787898837,0.7569323006189972,0.744444025751135,0.0,0.0,0.0,0.0
0.03077972080601264,-0.004140533550226643,0.8343337655654732,0.001695778507683486,-0.5275101530429562,-0.0006673845638079231,0.8495467717375506,0.008208357520543438,0.38365283214051604,-0.6545922606440786,0.02201974728805886,0.27381567624936376,-0.564567213419586,0.042516076890085824,0.6541521792393287,0.8735643850009831,0.008125358722807268,0.7493172885178057,0.7489807430554486,0.0,0.0,0.0,0.0
0.028776952214510352,-0.002596596801141252,0.8334996397871816,0.001492924794682833,-0.5274523500065386,-0.0005399905016303989,0.849583131929063,0.004953747089080748,0.37470400365113526,-0.6444907516288474,0.021207919170834047,0.277289405245248,-0.5609526726065825,0.03940667571555493,0.6562327617246734,0.8643529433047166,0.0022797585631782365,0.7410701354578269,0.7536619235751524,0.0,0.0,0.0,0.0
0.02655788052687645,-0.0010921244908877904,0.8326727420958853,0.0012893598548382708,-0.5274489545124196,-0.000433058637184884,0.8495856345272895,0.0018369602725817977,0.36395463947629975,-0.6309595404224283,0.02048287306296426,0.28207141323308343,-0.559259149415784,0.037040334750091254,0.6585628988375469,0.8547729493502255,-0.0033502048511384287,0.7325689306370268,0.7583692593158102,0.0,0.0,0.0,0.0
0.02424278248069192,0.0002875843803505059,0.8318684515854798,0.0010950379199769222,-0.5275707259437388,-0.0003709729690304895,0.8495103250686283,-0.0009220793385233085,0.35174850529112867,-0.6140140587201329,0.019987384486680592,0.28923092894338676,-0.5608684074148591,0.03599134082207628,0.661645770464473,0.8449736046831289,-0.00853345651449842,0.7242377951120131,0.7633732351530794,0.0,0.0,0.0,0.0
0.02230688143398609,0.0015728891489429472,0.8309965914226226,0.0009148007331261604,-0.5277872139696699,-0.00035606392423439816,0.8493760610755606,-0.0033853672307806526,0.34144232864373514,-0.5997502091534427,0.019445982939118426,0.29973917368930997,-0.566986802885839,0.03637725703308952,0.6670334457767844,0.8350149964296818,-0.013499742142750855,0.7165278430591921,0.7694256500505419,0.0,0.0,0.0,0.0
0.020977011467958016,0.0026235107826103757,0.8301773299038061,0.0007555293148723734,-0.528315759728827,-0.00040445642557227163,0.8490475390769392,-0.00524887116481507,0.33380623949287236,-0.5878418711681079,0.01938513922230747,0.3151631916177206,-0.5813610489714256,0.03913349007999012,0.6752952911077134,0.8249166446007437,-0.01778610850470481,0.7108775971984626,0.7764460882160092,0.0,0.0,0.0,0.0
0.020467510751759274,0.0032533406084867223,0.8295736978392421,0.0005751298497746603,-0.5292344847825285,-0.0004930090454302928,0.8484752714632929,-0.006144051417358436,0.3297467760646989,-0.5788205393581609,0.02043539224884336,0.33611485736318586,-0.6089216999969677,0.04439382593953855,0.6860985230091862,0.8142905442334281,-0.02029275449543265,0.708726645744559,0.7836484914667805,0.0,0.0,0.0,0.0
0.02038671348195279,0.0034930929154658634,0.8295122277992577,0.00037309151547901595,-0.5292841853352543,-0.0004964748780545395,0.8484443797146709,-0.006403351030629282,0.32962090955886564,-0.5788476692320673,0.020445690590800154,0.3361562643795521,-0.6089238646867918,0.04440783465091336,0.6861322563219471,0.8142999565730588,-0.02035914606469448,0.7086381191694164,0.7836161978414026,0.0,0.0,0.0,0.0
0.02038671348195279,0.0034930929154658634,0.8295122277992577,0.00037309151547901595,-0.5292841853352543,-0.0004964748780545395,0.8484443797146709,-0.006403351030629282,0.32962090955886564,-0.5788476692320673,0.020445690590800154,0.3361562643795521,-0.6089238646867918,0.04440783465091336,0.6861322563219471,0.8142999565730588,-0.02035914606469448,0.7086381191694164,0.7836161978414026,0.0,0.0,0.0,0.0
0.021142033719515514,0.0046194045151741565,0.8300222300334529,0.0002998439639734924,-0.5289193603797522,-0.0004229553283001714,0.8486719280251124,-0.00877890767429054,0.3372776282191393,-0.5923784458051744,0.018083333740658056,0.3397030744406328,-0.6141954812175439,0.039791956864937125,0.6890827167347687,0.8114202967065517,-0.024937692915257895,0.7126734806214426,0.7739514208828329,0.0,0.0,0.0,0.0
0.023101271754051987,0.006819631457779328,0.832196960846271,6.287632207125455e-05,-0.5294384674740328,7.30473770756235e-05,0.8483483363980838,-0.01407105707764045,0.35051374877779545,-0.6052659960675355,0.012785359199600336,0.34528279174530224,-0.6106041099225438,0.03331243295768756,0.7037664295573224,0.7976162066108154,-0.0318988946281505,0.7310517684404353,0.7469423108957954,0.0,0.0,0.0,0.0
0.024477794769141296,0.009109937782079478,0.8333216307085235,-0.00033163977138589006,-0.5284819881714616,5.389839043458623e-05,0.8489444477045389,-0.014964333920326374,0.3297622098860744,-0.5757512807548197,0.008571295558936504,0.35122461797392346,-0.6197736455613936,0.024173975961276177,0.7097079757344551,0.7897656443753064,-0.029877167084307456,0.7094309546820863,0.7810765906138388,0.0,0.0,0.0,0.0
0.026413184053715667,0.011484872950623184,0.8342511150056806,-0.0006704169821879741,-0.527815920786392,0.0001660799283860173,0.849358508948336,-0.015860259469790392,0.3138046766879908,-0.559989873737975,0.003830277412941371,0.36023157915296977,-0.6330931614455328,0.015146809284692215,0.716277464611653,0.78472167149908,-0.027898822048313354,0.6945232965695124,0.8048253461956618,0.0,0.0,0.0,0.0
0.02862857041279873,0.013798021640449033,0.8351038151611442,-0.0009697670423097251,-0.5274212290173117,0.00032339336323858434,0.8496033204681375,-0.01656924512452401,0.3026896380374611,-0.5531344572623483,-0.0009542125776159467,0.3703909125380967,-0.64709199196222,0.006381859877238605,0.7236594449229543,0.7809068235024881,-0.02723326349720319,0.685075782221193,0.8220635522746805,0.0,0.0,0.0,0.0
0.030793656978137504,0.016013984493129876,0.8359996925947862,-0.0012553896134143067,-0.5272786988327696,0.00050640576099489,0.8496913211910224,-0.017246099151314448,0.2952231020321843,-0.5515877021660472,-0.0056373741522597635,0.37947770316627183,-0.6577207629257159,-0.0020145000847815887,0.7317874710833441,0.776954460191622,-0.02791102949198747,0.6788822354784507,0.8357315301127669,0.0,0.0,0.0,0.0
0.032767122997764304,0.018082445004781237,0.8369185714554025,-0.0015184761171880092,-0.5272664711537528,0.0006912348632073076,0.849698349310927,-0.01779021386743305,0.29006237281729164,-0.5531267535467393,-0.010059998452239607,0.3871062736109218,-0.6651767295762,-0.009978907499876177,0.7400594581449831,0.7725750090764006,-0.02947298822379437,0.6744921937831913,0.8473143725002966,0.0,0.0,0.0,0.0
0.03446888975080629,0.019966806416074057,0.837818901273626,-0.0017512595637235024,-0.5273118321341651,0.0008620199931519459,0.8496695956092474,-0.018136069189214368,0.2861939388964023,-0.556467372559982,-0.014110071703220395,0.3931352912472472,-0.6698598582150399,-0.017412176629338385,0.7479429720133098,0.7679285289604905,-0.03146321465639729,0.6710476630952005,0.8576369430374693,0.0,0.0,0.0,0.0
0.03586200288301258,0.02163625078703917,0.8386648734913869,-0.0019485674876531267,-0.5273742164160012,0.0010096078066653548,0.8496302840862203,-0.01822750983298147,0.28291750528456155,-0.5608389406094568,-0.01770215211518407,0.39757965776516063,-0.6722118642889434,-0.02417636303605674,0.7550685128512814,0.7632480592421139,-0.0335138456997075,0.668050853927064,0.8671671957534254,0.0,0.0,0.0,0.0
0.036936742704716925,0.023064656864098445,0.8394291465683208,-0.0021073821259025515,-0.5274322554165028,0.0011290161064038589,0.8495937265596232,-0.01801549847701004,0.27981536936960627,-0.5657330610564771,-0.02076985674487646,0.4005457131276794,-0.6726712566828124,-0.030122661687305416,0.7612009527315701,0.7587508523042943,-0.03535668918696106,0.6652308109423865,0.8761464124859647,0.0,0.0,0.0,0.0
0.037697999386667055,0.02423142491183659,0.8400883650268344,-0.0022261090414009933,-0.527475012559355,0.0012177391057494125,0.8495667558676683,-0.01746657296046693,0.27673295213691573,-0.5707424547291675,-0.023264384095679644,0.4021807567691868,-0.6716578041563354,-0.03511770021570922,0.7661796162846618,0.7546517799853368,-0.03678675807982481,0.6624753886659807,0.8846229791338461,0.0,0.0,0.0,0.0
0.038155800716816644,0.025122635243180494,0.8406177884649333,-0.002303848073728631,-0.5274966203455606,0.0012746095850800147,0.8495530490666667,-0.016572788876013596,0.2737655020485688,-0.5754368722344773,-0.02515491185612366,0.40263386439057997,-0.6695608168764563,-0.03906409657513308,0.7698616622483291,0.7512047830013834,-0.037605333865294126,0.6598077337469613,0.8924178141010851,0.0,0.0,0.0,0.0
0.0383183793930349,0.025732270017040766,0.8409877755449291,-0.002339747452534725,-0.5274934676650405,0.0012989935672158284,0.849554871546436,-0.015356977694905545,0.2712194320764241,-0.5792485309915715,-0.026429637433837586,0.40202343229835236,-0.6667172313075314,-0.04191615136037492,0.7720831969539975,0.7487361291285066,-0.03756195344824395,0.6574063863305117,0.8990179437724267,0.0,0.0,0.0,0.0
0.03818711945444874,0.026063534705086856,0.8411651388148607,-0.0023327659092351894,-0.527463425257365,0.0012904576488996767,0.8495735565199973,-0.013866331281786784,0.26948400688328095,-0.5813580248533926,-0.027097316078731,0.4004041088016387,-0.6633574164035722,-0.043688784127578796,0.772653628705119,0.7476313080371817,-0.03633210028649882,0.6556815821760971,0.9033799010924453,0.0,0.0,0.0,0.0
0.03775291790853238,0.02612961287179132,0.8411253419003645,-0.002283030314070402,-0.5274076758399664,0.0012505637705789831,0.8496083611452548,-0.012146721047467057,0.2687307494850287,-0.5806233713634431,-0.027189736971391994,0.39772124397921416,-0.6594695164316992,-0.04444047030717307,0.7714141355454599,0.7482065074825056,-0.03361590629401954,0.6553812381276775,0.9037262881105278,0.0,0.0,0.0,0.0
0.036992354365959074,0.02595053202397553,0.8408673240654571,-0.002191447274804929,-0.5273232602864641,0.001181434713104097,0.8496610976923178,-0.01022221548828899,0.2689404681185099,-0.5770630358546416,-0.02675194604745613,0.3937860441691834,-0.6547414462961175,-0.044258571289197905,0.7682985048848108,0.7505101481950799,-0.029478837467711346,0.6564519725886776,0.9000262977384453,0.0,0.0,0.0,0.0
0.03587051403872651,0.025553349737478023,0.8404137249689255,-0.0020593325133453034,-0.5272019127188041,0.0010855537922960074,0.8497368557078114,-0.008089102030879208,0.2699008014838986,-0.5718609937296649,-0.0258429270444633,0.38829013095678205,-0.6485878617719443,-0.04326157807662794,0.7633405684549796,0.7543127447151841,-0.0243406538310266,0.6580362148460703,0.8939993992557868,0.0,0.0,0.0,0.0
0.03435025816881105,0.024975335629142534,0.8397967859887864,-0.0018881897271613365,-0.5270364115702495,0.0009668710841240288,0.8498400559981952,-0.00572674124054337,0.27117450804566084,-0.5658801246395919,-0.02454579748068806,0.3808557457988138,-0.6402486543408471,-0.041616778751833075,0.7566299784084312,0.7592890973628955,-0.018629954632881293,0.6595968603672551,0.8866523328777541,0.0,0.0,0.0,0.0
0.03240209189290153,0.02426268793152314,0.8390467439477342,-0.0016786060808511043,-0.5268194369876668,0.000828935759391844,0.8499751619660013,-0.0031230874484139445,0.2723981302677346,-0.5597185331551271,-0.022963711460910686,0.37110999688850294,-0.628962011126964,-0.039550932165516584,0.7482715381418314,0.7651406118079845,-0.012682045193053059,0.6608044142894091,0.8785025765968487,0.0,0.0,0.0,0.0
0.03001812019308503,0.02346740506068723,0.8381898035538579,-0.0014313929013026856,-0.5265458198162678,0.0006751747732396985,0.8501452786950017,-0.0002931535931096404,0.2734125672073833,-0.5537955470475676,-0.021212960391406896,0.35876725884023164,-0.6140928598057438,-0.03732394932433905,0.7384076298724391,0.7716166054192072,-0.006741929748713777,0.6614740682616622,0.869809432236813,0.0,0.0,0.0,0.0
0.02723300772878453,0.022641845818311714,0.8372464993347033,-0.0011498742165022737,-0.5262173403654384,0.0005097089763125448,0.8503491804457566,0.0027042676072480277,0.27430348016111133,-0.5484046285895587,-0.019410707682165594,0.3437615007064061,-0.5953332263546638,-0.03518119882925228,0.7272599115815401,0.7785355886373071,-0.0009612167355007289,0.6616078235288075,0.860742121035189,0.0,0.0,0.0,0.0
0.024155605590417007,0.02182966252751244,0.8362187167125181,-0.0008433261908642706,-0.5258464885881808,0.00033811256802086716,0.8505790056898344,0.005760939777307578,0.275373568830314,-0.5436909094213634,-0.017654157869590643,0.3265036612749498,-0.5731746272410225,-0.03328539851744129,0.7151264829804853,0.7859218302702337,0.004693116688263246,0.6615671478594708,0.8514945364438378,0.0,0.0,0.0,0.0
0.021013032422790304,0.021048303108706326,0.8350420817247615,-0.0005157159962852738,-0.5253831631942817,0.00015432786532816435,0.8508655840095378,0.008833292715513254,0.2767896358684584,-0.5394906157449569,-0.015972691083342698,0.3086091492714774,-0.5507827667665934,-0.031745294894087,0.7020905382554443,0.7942442100010765,0.010612117730194331,0.6620745776916033,0.8422898289520169,0.0,0.0,0.0,0.0
0.01822328250138321,0.020278278069046418,0.8337249523868635,-0.00021150917924933046,-0.524826840542106,-9.176099861020859e-06,0.8512089888072476,0.01200248065845087,0.27854656240775943,-0.5351646295858145,-0.014354015661053324,0.2931842947546357,-0.5333497197472749,-0.030110023641310723,0.6890153120283931,0.8033249465673085,0.017685429488121164,0.6642476047743799,0.8334083797908151,0.0,0.0,0.0,0.0
0.0159928689513092,0.019617396179399702,0.8324791122364574,1.869784826347378e-05,-0.5242669327540949,-0.00011254355839213063,0.8515539737473786,0.014682616449188153,0.2802748565834355,-0.5310972276939572,-0.013019990028606817,0.2812814015282619,-0.5213554654483958,-0.02841858028511903,0.6774490838134526,0.8116594557157288,0.025568659825681843,0.6676979780796348,0.8250943473621233,0.0,0.0,0.0,0.0
0.014608725471443354,0.01915860194923704,0.8316072003560184,9.560383305528103e-05,-0.5237872351997177,-0.00010722768542864046,0.8518491131673298,0.016323956529651296,0.28081070094019667,-0.52759381933945,-0.012173527906437909,0.2743449948630943,-0.5155697427253656,-0.02649209486262929,0.6694625373862849,0.8169611072432225,0.032956529222855246,0.6713333208076463,0.8178237065388148,0.0,0.0,0.0,0.0
0.014548405844952263,0.019021321419938904,0.8315537295779818,0.0002154973225504995,-0.5237912646140346,-9.938754280691884e-05,0.8518466145950518,0.01634816170518304,0.2808496543875521,-0.5275944569023017,-0.012042151513619629,0.274169721658483,-0.5155627418920837,-0.026478482481482768,0.6693075702761965,0.8168896556584682,0.032950020975883065,0.6713831805341505,0.8178395748644,0.0,0.0,0.0,0.0
0.014548405844952242,0.019021321419938925,0.8315537295779818,0.00021549732255007797,-0.5237912646140346,-9.9387542806898e-05,0.8518466145950517,0.016348161705183304,0.2808496543875521,-0.5275944569023011,-0.012042151513619355,0.2741697216584857,-0.515562741892088,-0.026478482481480617,0.6693075702761964,0.8168896556584686,0.032950020975885196,0.6713831805341515,0.8178395748643996,0.0,0.0,0.0,0.0
0.014548405844952242,0.019021321419938925,0.8315537295779818,0.00021549732255007797,-0.5237912646140346,-9.9387542806898e-05,0.8518466145950517,0.016348161705183304,0.2808496543875521,-0.5275944569023011,-0.012042151513619355,0.2741697216584857,-0.515562741892088,-0.026478482481480617,0.6693075702761964,0.8168896556584686,0.032950020975885196,0.6713831805341515,0.8178395748643996,0.0,0.0,0.0,0.0
0.01598234410560842,0.01843914577267784,0.8324238447211498,0.00032038300611061406,-0.5245120871573835,-0.00014264263025362615,0.8514029289552713,0.017520176061352748,0.28675882964280125,-0.5300535754295814,-0.010902857570153605,0.2827359135433225,-0.5234941329839163,-0.02483735285781795,0.6784903938834149,0.8094277508064516,0.035209047827080855,0.6799429498911256,0.8134522957923618,0.0,0.0,0.0,0.0
0.018671902814101804,0.017379831586640627,0.8342635494686432,0.0004894304525487889,-0.526032107796008,-0.00037645691792112816,0.850464485034919,0.019991852217141604,0.2969559143811557,-0.5312524646576229,-0.008466579387065144,0.297800967509838,-0.5350740796143008,-0.022389068189519197,0.6973825401812518,0.7938985559919491,0.0388646184455919,0.6973762320372555,0.8032506465032444,0.0,0.0,0.0,0.0
0.021270176889033696,0.016352806499186467,0.8354151945013948,0.0008111666445902777,-0.5260996395325521,-0.0004950758612787812,0.8504224045686267,0.022045221457368494,0.31186321743002315,-0.5508441836687271,-0.005771720665065575,0.29437365881461547,-0.5333082442659518,-0.0143046305872012,0.6876762846529181,0.8118176558551479,0.0419034927344985,0.7084091131935347,0.7944419569366351,0.0,0.0,0.0,0.0
0.024252877984744067,0.01541410205923447,0.8363724767084008,0.0011282296271830172,-0.5261629243786891,-0.0006576633254931968,0.8503827794505981,0.02405168276642749,0.3295692434006676,-0.5757507174797123,-0.0023206505826095587,0.29004556810865084,-0.534817233132791,-0.005722538305068241,0.6800469732509292,0.8261185932658001,0.044459737187088955,0.7193216290191343,0.7871102666639898,0.0,0.0,0.0,0.0
0.027493346781117766,0.014665741775715436,0.8370900209125213,0.0013640324289828354,-0.5261160936488383,-0.0007855808454201639,0.8504112994792313,0.0257263090600895,0.3494812779688621,-0.6058270448784262,0.0007472277205835395,0.28623488481349396,-0.5383574127929551,0.0014823033442604968,0.6754096801196884,0.838233356257196,0.046790557949966956,0.7296092597971106,0.781111648197063,0.0,0.0,0.0,0.0
0.03048208043524038,0.013978828693640375,0.8378215743969613,0.0016035348815984388,-0.5262528695693538,-0.0009141857743963568,0.8503261199153382,0.027270753385818164,0.3663371001061349,-0.6294243840688514,0.003837086566948475,0.283458517232839,-0.5429367633566373,0.00788396966518224,0.6725377559252897,0.8492248437906015,0.048867637460399904,0.7399495708537595,0.775166656777134,0.0,0.0,0.0,0.0
0.033048373988034896,0.013347632677238812,0.8385823209790902,0.0018335560831482492,-0.5264819334534047,-0.0010400405263542168,0.8501837037575809,0.02868929951210643,0.37982246217144205,-0.6466772720887711,0.006757731130706015,0.28126778342807673,-0.548176197580486,0.013839469244539323,0.6701969936522878,0.8594051143577889,0.050724990181679384,0.7498417986550907,0.7688883658159528,0.0,0.0,0.0,0.0
0.03512567761641262,0.012791114056072939,0.8393369351253935,0.0020421820741052476,-0.5267364008213433,-0.0011562496607291635,0.8500254446949663,0.029935018316019295,0.3901103242386774,-0.6585383661259091,0.009394735039631476,0.27922015280531076,-0.553835150577681,0.019541770996917722,0.6677781546979418,0.8689362851003276,0.05231032228626485,0.7587847179980789,0.7624744949168526,0.0,0.0,0.0,0.0
0.03671230636753135,0.01234343299346052,0.8400485689466138,0.002221815776296285,-0.526978357279447,-0.001257090014522205,0.849874869741662,0.03093158367391425,0.39756520054757044,-0.6660664337962799,0.011697919830475047,0.27701339628744054,-0.5597272036128489,0.025035557148441166,0.6650558272246677,0.8779351452676567,0.05348647746820779,0.7664699007047114,0.7561958787747444,0.0,0.0,0.0,0.0
0.03784239837500902,0.012044093852246942,0.8406875872302678,0.0023678642431502954,-0.5271892321366977,-0.0013378243321421567,0.849743559530816,0.03159300859590047,0.4026300651892816,-0.6702744123229378,0.013652946758544011,0.27451029645312475,-0.565676000189901,0.0302833695574851,0.6620032871939266,0.8864671236314591,0.05408255895942455,0.7727555681829422,0.7502747647585987,0.0,0.0,0.0,0.0
0.03856605904676648,0.01193088271019558,0.8412284823036368,0.0024775243023451516,-0.5273613633317978,-0.001394693824194655,0.8496363393636689,0.03183888914676896,0.40576211665742173,-0.6720950899524591,0.01526392426458042,0.2717507276209812,-0.5714710145290973,0.0351911842736297,0.6587023940876817,0.8944986341992224,0.05393440996958199,0.7775910805172955,0.7449031287647538,0.0,0.0,0.0,0.0
0.03893649385326335,0.012035450363288097,0.8416449349002981,0.0025488266115149837,-0.5274924685941464,-0.0014248023414751617,0.8495546886443777,0.03160387778629072,0.4073915196503255,-0.6723725643489334,0.016547667756390588,0.2689632318204028,-0.5768066806162516,0.03959787025257944,0.6553213851259891,0.9018178143534322,0.052912617101230616,0.7809481479739131,0.7402944401494624,0.0,0.0,0.0,0.0
0.03900180430086076,0.012380424638715892,0.8419066506827253,0.0025798817890364946,-0.527582749367717,-0.0014257695823700286,0.8494985308761006,0.030843142991959956,0.4078903800057623,-0.671846311330098,0.017534413006631416,0.26654728625813207,-0.5812007104462968,0.04324703112661845,0.6521474470351712,0.9079041389600969,0.050942384005500885,0.7827760972994553,0.7367242957234611,0.0,0.0,0.0,0.0
0.038799566821130754,0.012977074590894632,0.8419810918825007,0.0025687124864706384,-0.5276344428640727,-0.0013955538592189767,0.8494665083739956,0.02953606818601506,0.40753970636491205,-0.671096236769088,0.018266238471693577,0.26496188630056067,-0.5838956051662222,0.045782686715349484,0.649678374287285,0.9117188896822236,0.04801486680285649,0.7829950696040525,0.7345222478725278,0.0,0.0,0.0,0.0
0.03835302034288367,0.013823772038794117,0.8418459762382862,0.0025151978647258975,-0.52765468081489,-0.0013345146968701644,0.8494541957423964,0.027690064670851985,0.4064805760545157,-0.6703955212434578,0.01878312948772685,0.2644369955068166,-0.5837909436571992,0.046860506312401434,0.648741852525211,0.9114969993603115,0.04416820421811428,0.7815559074569816,0.7339477670194715,0.0,0.0,0.0,0.0
0.03766729882175637,0.014909231463734105,0.8415038043937392,0.002422105027975267,-0.5276485695680233,-0.00124509924430923,0.8494583981384398,0.025331513457217566,0.404690560091529,-0.6696514271727935,0.019116303790812843,0.2650055654697104,-0.580925773423997,0.04649907635414577,0.6493573777624753,0.9072378136892146,0.0394576452109695,0.7784979514276698,0.7349959949451529,0.0,0.0,0.0,0.0
0.036732437427337436,0.016212835608649882,0.8409819499636716,0.00229487464983844,-0.5276180777415868,-0.0011318122608427294,0.8494778493825608,0.022506064520258082,0.40200470096578644,-0.6684445892125591,0.019290088865195603,0.26651216494208935,-0.576492301149691,0.04508419061530223,0.6507395423066156,0.900697026578562,0.033956678950790575,0.773956414272884,0.7373895183174694,0.0,0.0,0.0,0.0
0.035532127281457306,0.017701140295549568,0.8403188911621823,0.002140246630497102,-0.5275681887619618,-0.0010014336005989056,0.8495094011731285,0.019289482309540674,0.3981697499417382,-0.6661385767531554,0.019330992070274562,0.2685991932794554,-0.5713669897933638,0.043030548591191084,0.6524380309505959,0.8929035557735189,0.027789905901047872,0.768118938438632,0.7407632168821852,0.0,0.0,0.0,0.0
0.03405166576688572,0.019328274717498144,0.839552813908388,0.0019646012189452997,-0.5275053829042486,-0.0008611648260631345,0.8495489801913924,0.01578636062227089,0.392913078117318,-0.6620477957108897,0.019283897751802018,0.2710192910173921,-0.5661929765768396,0.040687765771864254,0.6542281605320329,0.8843769471562455,0.021150453455494524,0.761178496592841,0.7447916115769999,0.0,0.0,0.0,0.0
0.032287191066068185,0.021036735926645213,0.8387205179597005,0.0017746924582151063,-0.527440006069176,-0.0007193465946934914,0.8495901205904545,0.012129410330442509,0.38599486190031923,-0.6555118698610838,0.019213094684869796,0.27377731663828114,-0.5615099302032487,0.03837193737324132,0.6560313842190676,0.8753469603654042,0.014283587437167584,0.7533481527402032,0.7492103982218493,0.0,0.0,0.0,0.0
0.030257381597666076,0.02275822079679924,0.8378591147860103,0.001578985610112659,-0.5273911068466107,-0.0005867385462281818,0.8496209642902111,0.008478366860253057,0.37726489610884173,-0.6459532384176864,0.019193447891877997,0.2771834487807692,-0.5578938945981945,0.03643532560530198,0.6578962619049843,0.8658965381036507,0.007460474017803761,0.7448991962314141,0.7538145783194791,0.0,0.0,0.0,0.0
0.02801893377523052,0.024414266139225985,0.837003113810333,0.001389055647039339,-0.5273941403069359,-0.000478311888682094,0.8496194810102076,0.005019673549997911,0.3667438890246987,-0.6329796768710003,0.019299102852599444,0.28187726013852465,-0.5561309567656791,0.035330780177384946,0.6600365685685625,0.8560562805735783,0.000947722398759762,0.7361845735363357,0.7585184873701034,0.0,0.0,0.0,0.0
0.02568691575438462,0.025914571863028486,0.8361624787365597,0.0012168460646677737,-0.5275131255565335,-0.0004253418522774445,0.8495459026653831,0.00199607562699096,0.35475933468524046,-0.6166238114899256,0.019635144964250686,0.2888783518414151,-0.5575813085933438,0.035621758857110046,0.6629155304880634,0.8459577239671479,-0.005042075902203313,0.7275636207952344,0.7636338133663955,0.0,0.0,0.0,0.0
0.023720079462518712,0.027286963210616345,0.8352573094040496,0.0010701121379501932,-0.5277287588644201,-0.0004236615641410494,0.8494121687604376,-0.0006633259352223585,0.3445030883407725,-0.6026066239862647,0.019949028846139808,0.2991168020735455,-0.5633914782128248,0.0375195721967191,0.6680277049353547,0.8356318710535823,-0.010708680610543066,0.7195438898626436,0.7698424403876438,0.0,0.0,0.0,0.0
0.022358968378133667,0.028396566741376434,0.8343969346596624,0.0009582724873662823,-0.5282463217367213,-0.0004942035443478213,0.8490904904945767,-0.002659018684725544,0.3368722513934108,-0.5909078292700477,0.020625252743998363,0.31405260637884536,-0.5771384190089754,0.041800749997581155,0.6759790061534078,0.8250748244053064,-0.015651656844055107,0.7135088610069978,0.7771057120644211,0.0,0.0,0.0,0.0
0.02181788365034362,0.029059300435188323,0.833751958163192,0.0008376967417217057,-0.5291472384142472,-0.0006086074188209428,0.848529391323456,-0.003636146452835373,0.33275223742512217,-0.5819838035212272,0.02210677523507716,0.33423959140013054,-0.6035738382540282,0.04819651002780696,0.686522265280137,0.8139223147583703,-0.018750475796765975,0.7109575310390941,0.7845591959181736,0.0,0.0,0.0,0.0
0.021734464537742873,0.029305665330434716,0.8336890172247647,0.0006313657823904225,-0.529199772147498,-0.0006112530446928778,0.8484968054777816,-0.0039058359775113846,0.33262589518855173,-0.5820131322178488,0.022120806513707264,0.3342809109067113,-0.6035756128173935,0.04821111653253582,0.6865558549032459,0.813931554820634,-0.018819994504158923,0.7108690008023326,0.7845271305170055,0.0,0.0,0.0,0.0
0.021734464537742873,0.029305665330434716,0.8336890172247647,0.0006313657823904225,-0.529199772147498,-0.0006112530446928778,0.8484968054777816,-0.0039058359775113846,0.33262589518855173,-0.5820131322178488,0.022120806513707264,0.3342809109067113,-0.6035756128173935,0.04821111653253582,0.6865558549032459,0.813931554820634,-0.018819994504158923,0.7108690008023326,0.7845271305170055,0.0,0.0,0.0,0.0
0.022502505053707468,0.030454225268987164,0.8342165849577541,0.0005153168093481952,-0.5288517841218142,-0.0005176331175194252,0.8487138840243605,-0.006319515255085069,0.34035681632332937,-0.5955789610633719,0.019720179814192502,0.337813691041282,-0.6086053834573852,0.04381583758489535,0.689575896321853,0.8109990159474731,-0.02320583082173962,0.7151229818725106,0.7746898121609084,0.0,0.0,0.0,0.0
0.024484924367739868,0.03269908901321345,0.8364308429097239,0.0002693088212060545,-0.5293550882220542,-2.5963499015245072e-05,0.8484003284841871,-0.011685873484168711,0.35381311068597854,-0.6087831207830299,0.014354734711273184,0.3434480168548154,-0.605025582668599,0.03717441389904951,0.7044566381472757,0.7969053174911563,-0.030376884343735908,0.7337372958369733,0.7470590690342223,0.0,0.0,0.0,0.0
0.025863444842301474,0.035041750546323996,0.8375659836839426,-0.00016127777791035718,-0.528400700261927,-2.9745781826409708e-05,0.8489950960208026,-0.012647338269794032,0.3324150468226332,-0.5780456300448455,0.01004827912413064,0.3493213466769468,-0.6139743402092538,0.028030799722691527,0.7103937658138125,0.7891262048385712,-0.028541611920242682,0.7119560242645319,0.7813936118267126,0.0,0.0,0.0,0.0
0.027807369263569113,0.037476872863029885,0.8385043648137831,-0.0005296094043862718,-0.5277438270544403,9.449295962928983e-05,0.8494034162816231,-0.013645215124067385,0.31601357867824165,-0.5614441742052843,0.0052003691143939,0.35830216154749434,-0.6271242764056075,0.01893224287102925,0.7169871409227349,0.7842086911051714,-0.02676815333360722,0.6969629664520136,0.8052454280469338,0.0,0.0,0.0,0.0
0.030024970021980377,0.03985556368249662,0.8393708359074491,-0.0008507750592718095,-0.5273644648269812,0.00025849363981190923,0.8496387059218691,-0.01448113108890505,0.30463139544187223,-0.5540637347980366,0.0003004602405697627,0.3683691789149145,-0.6408029233092002,0.010010851887012295,0.7244340217137242,0.7804987945480549,-0.026292003475238107,0.6874593204717729,0.8225244306795494,0.0,0.0,0.0,0.0
0.032196102333722006,0.04213299747063667,0.8402777454909034,-0.001149346413671486,-0.5272300404439805,0.0004439099817964364,0.8497216993817376,-0.015262974276652595,0.2970092601781956,-0.5522179080784423,-0.004491369184804709,0.37740662552011334,-0.6512438178819411,0.0014063514123402576,0.732625409919479,0.7766365623028788,-0.027126019145619126,0.6812269071992152,0.8362003503341704,0.0,0.0,0.0,0.0
0.034179284701727895,0.04425568729017715,0.8412036499749503,-0.0014201773589593092,-0.5272210586621081,0.0006292980575742428,0.8497267457150149,-0.015885719572033913,0.29176551078608426,-0.5535964803999289,-0.009010931139944417,0.38502181583527634,-0.6586181056530258,-0.006775698851451505,0.7409499979348574,0.7723458269846311,-0.028814416300685472,0.6768220830628188,0.8477776781793652,0.0,0.0,0.0,0.0
0.03589366586323433,0.04618544622415116,0.8421075028623753,-0.0016577709369617914,-0.5272667592600797,0.0008001654117490717,0.8496978145848131,-0.016286232115020758,0.2878612121111441,-0.5568607545532126,-0.01314344658862292,0.3910657404850137,-0.6632972726577689,-0.014409721355104033,0.7488751087042492,0.7677861578888205,-0.030907522325150222,0.6733850884181425,0.8580916671108644,0.0,0.0,0.0,0.0
0.03730114389532023,0.04789100537229887,0.8429544229798194,-0.001858175307351206,-0.5273279082810728,0.0009478985264251923,0.8496592998495451,-0.016412572573647317,0.2845780010287544,-0.5612063250449703,-0.01680228395390063,0.395545304019338,-0.6656980501683302,-0.02134431664492979,0.7560330727408802,0.7631867311238241,-0.03304144422047528,0.6704119957976783,0.8676155133464273,0.0,0.0,0.0,0.0
0.03839072332478304,0.049346499902839264,0.8437179556254336,-0.002018969501695973,-0.5273839939604676,0.0010676191869656913,0.8496239796908561,-0.016219837413712728,0.2814849291112467,-0.5661034814729486,-0.01992101271071805,0.3985589201463346,-0.6662379894304126,-0.027425519959238025,0.7621904539539504,0.7587611868719769,-0.03494922961200533,0.6676246071819899,0.8765928095808844,0.0,0.0,0.0,0.0
0.03916607877548561,0.05053194955848206,0.8443755085640845,-0.002138855675252583,-0.5274246812995639,0.001156754913246105,0.8495983125986801,-0.015678202625472117,0.27841791307107494,-0.5711308402058192,-0.02245146875874874,0.40024640813145723,-0.6653189335566784,-0.03251924630940955,0.7671880293820628,0.7547215772235197,-0.036425628698305935,0.664903998120977,0.8850726822039411,0.0,0.0,0.0,0.0
0.03963622181443581,0.05143416303185486,0.8449029910834149,-0.0022171210721293093,-0.5274446103506301,0.0012140401105895785,0.8495856598912398,-0.014783078482703224,0.27546579652447506,-0.5758481058885685,-0.024363734397928532,0.40075030790724114,-0.6633147970993887,-0.03652926088581761,0.7708845538613386,0.7513195772857948,-0.03727135435639002,0.6622675190045141,0.8928759324660894,0.0,0.0,0.0,0.0
0.039808688772633584,0.05204776914337006,0.8452712725065188,-0.0022530845003044127,-0.5274406636613579,0.0012387647850964484,0.8495879797810866,-0.013560584913578292,0.27293115061669,-0.5796797241138143,-0.025646818318249557,0.40018416426089387,-0.6605503510786934,-0.03941130534849643,0.7731180207151087,0.7488798681222586,-0.03723564697518141,0.659889234970335,0.8994888882899527,0.0,0.0,0.0,0.0
0.0396846175828207,0.05237637743732022,0.845447414096221,-0.0022458609807305932,-0.5274111295081263,0.001230434797844101,0.8496063456740575,-0.012060807004187473,0.2712013410437294,-0.5818001365889369,-0.02630987858911771,0.3986006673079783,-0.6572498014390579,-0.04118130213453621,0.7736994673829214,0.7477879119590108,-0.03599403244961751,0.6581767802971241,0.9038667755485583,0.0,0.0,0.0,0.0
0.03925525434071176,0.052433171125768535,0.845406661078268,-0.0021955930760903433,-0.5273571927739662,0.0011905167881090379,0.8496400139296544,-0.010330832502042829,0.27044721803556326,-0.5810640760902173,-0.026384455709581815,0.3959478575644783,-0.6534067133985278,-0.04189832858633104,0.7724699574153516,0.7483623713972852,-0.033247089386946815,0.657877527561379,0.9042304810907552,0.0,0.0,0.0,0.0
0.038498197905040686,0.052237656984979584,0.8451472725600648,-0.0021030915514321574,-0.5272754892952691,0.0011211700571690216,0.8496910487771797,-0.008393143252708967,0.2706512743871117,-0.5774925780255282,-0.025914794702839854,0.39204479724752545,-0.648726620107082,-0.04164846894165896,0.7693611774800274,0.7506565508535007,-0.029061157341599635,0.6589408643176817,0.9005505957630029,0.0,0.0,0.0,0.0
0.037380034187971485,0.05181600150347469,0.8446907810283809,-0.001969473724120623,-0.5271569353285659,0.001025055252037711,0.8497650475101777,-0.006239520802518134,0.2716048977714318,-0.5722778167086777,-0.02495882391911307,0.38659500856739265,-0.6426521275024771,-0.040547738610715006,0.7644025917693866,0.7544483110250241,-0.02385701958852312,0.6605152037222082,0.894550962601055,0.0,0.0,0.0,0.0
0.03586513819843091,0.05120464608645034,0.8440679488582196,-0.0017959015215169949,-0.5269930207602473,0.0009062714170691678,0.8498672305012314,-0.003842887737451219,0.27287483462314044,-0.5662935570536888,-0.023598884260595032,0.37923396450681246,-0.6344574258726298,-0.038762883421152486,0.7576767837523334,0.7594224645697977,-0.018064132741663706,0.6620706157081512,0.8872415538749355,0.0,0.0,0.0,0.0
0.03392493984342018,0.05044954673425473,0.8433074706065049,-0.0015825435449446556,-0.5267749061386647,0.0007684752901153543,0.8500030019148507,-0.00118439681808882,0.27410147913788485,-0.5601509087506099,-0.02193853349196262,0.369599095753174,-0.6234121055601554,-0.036524304284238016,0.7492797085190043,0.7652917406360504,-0.012018269341261194,0.6632834436006482,0.8791408876416191,0.0,0.0,0.0,0.0
0.031551189583767424,0.049603620562852856,0.8424344159232199,-0.0013296749360215008,-0.5264957385456395,0.0006150679021466143,0.850176505761787,0.0017263641565230595,0.275128818404154,-0.5542856543361045,-0.02009661725911025,0.35740728390462645,-0.6088995760824568,-0.03410272867876111,0.7393444351320919,0.7718145774514308,-0.005964546747937025,0.6639684173472932,0.8705061407192274,0.0,0.0,0.0,0.0
0.028776173532953378,0.048721918755730585,0.8414694987849192,-0.0010399824713120196,-0.5261558322031379,0.0004498791196721431,0.8503874154077425,0.004831524326182907,0.2760452752119174,-0.5490125864632439,-0.018195867021857225,0.34257998792071315,-0.5905998708310778,-0.031763852891186176,0.7280869727269995,0.7788092240118556,-5.5279931890315874e-05,0.6641143489547175,0.8615007069488263,0.0,0.0,0.0,0.0
0.02570378635846838,0.04785309250155711,0.8404178038929412,-0.00072237495804972,-0.5257682927589152,0.0002779772796605224,0.8506274761800418,0.00801327759486744,0.27716233808796525,-0.5445041996809612,-0.01634263434133694,0.32548781459727555,-0.5689227717888578,-0.02969864674157307,0.715814715940195,0.7862790359659596,0.005738845549096186,0.6640538103584127,0.8523124908709991,0.0,0.0,0.0,0.0
0.02255411748409676,0.047022386858981614,0.8392236103165188,-0.00038382025525620733,-0.5252967044775375,9.442535318023158e-05,0.8509190419957136,0.011193490459367498,0.27869253523981347,-0.5406213324422899,-0.014579830683147735,0.3076406955198762,-0.5467441870615953,-0.028030616839875327,0.7026666516002978,0.7946627656772595,0.011809812406331135,0.6645084325863913,0.8431739887495713,0.0,0.0,0.0,0.0
0.019755973153384444,0.046210474022690656,0.8378858762667644,-7.099088405789043e-05,-0.5247392060033965,-6.917822658783428e-05,0.8512630356462051,0.014456879200211423,0.280632661148953,-0.5366599403748346,-0.012890599657166756,0.29224064916439046,-0.5294588271385613,-0.026293550500828253,0.6894780922506405,0.8038672835567721,0.019142786726859318,0.6666837671207844,0.8343707458830915,0.0,0.0,0.0,0.0
0.01751916684832226,0.04551852551114472,0.8366208625464915,0.00016666884028780497,-0.5241930198645933,-0.0001782995111332722,0.8515994471322889,0.017181832397334007,0.28267681176376125,-0.5330969333063743,-0.011493158081944559,0.2803216266026921,-0.5174621208884433,-0.024568657087300244,0.6778499606827637,0.8123798010369355,0.02735419106411869,0.6702066957098057,0.8261745592472857,0.0,0.0,0.0,0.0
0.016135060660755186,0.04504349417760289,0.8357346594562189,0.0002517956458384126,-0.5237410664988604,-0.00018823293041018044,0.8518774538805173,0.01881478689556409,0.2837038435996279,-0.5303724121699837,-0.010592148152986822,0.27334872411417116,-0.5115549342309701,-0.022713989474545178,0.669880113447965,0.8178922979629782,0.03500801224674768,0.6739581273264671,0.8190742378982653,0.0,0.0,0.0,0.0
0.016073781930681603,0.04490330685410097,0.8356802985924534,0.00037403777129670475,-0.5237457502913991,-0.0001805398317856919,0.8518745309919848,0.018838830356913895,0.2837434683583849,-0.5303732891755046,-0.010457504918082897,0.27317227470189764,-0.5115488084441562,-0.022699733983281508,0.6697239568268692,0.8178205307712055,0.035001719960879175,0.6740080714936401,0.8190899933521136,0.0,0.0,0.0,0.0
0.01607378193068135,0.04490330685410105,0.8356802985924536,0.0003740377712957083,-0.5237457502913996,-0.00018053983178562528,0.8518745309919845,0.01883883035691379,0.283743468358386,-0.5303732891755052,-0.010457504918082646,0.27317227470190875,-0.5115488084441732,-0.02269973398328211,0.6697239568268707,0.8178205307712084,0.035001719960877004,0.6740080714936405,0.8190899933521153,0.0,0.0,0.0,0.0
0.01607378193068135,0.04490330685410105,0.8356802985924536,0.0003740377712957083,-0.5237457502913996,-0.00018053983178562528,0.8518745309919845,0.01883883035691379,0.283743468358386,-0.5303732891755052,-0.010457504918082646,0.27317227470190875,-0.5115488084441732,-0.02269973398328211,0.6697239568268707,0.8178205307712084,0.035001719960877004,0.6740080714936405,0.8190899933521153,0.0,0.0,0.0,0.0
0.017493858109490647,0.044342898388211746,0.8365391282952055,0.00047635161056550643,-0.524462057299212,-0.0002252433250660037,0.8514336573145707,0.019973447375371836,0.2895926193804676,-0.5327980341348734,-0.009357169972982403,0.28162300279041685,-0.5193377650996878,-0.021111460114563763,0.678809678334132,0.8104754438525299,0.03719833523426377,0.6825115446030778,0.814683129000682,0.0,0.0,0.0,0.0
0.02015317248449119,0.043330229851408615,0.8383316841797125,0.000640790116126482,-0.5259764385759665,-0.0004590193483518162,0.8504987741038827,0.022355960316296088,0.29970243574590355,-0.5340725982256539,-0.007012913296109647,0.29645651529394496,-0.5307056462861739,-0.018779694055422395,0.6973747492605865,0.79545901056095,0.04071545078187222,0.6997042926083558,0.80470456998628,0.0,0.0,0.0,0.0
0.022741691907554942,0.04236751854558286,0.8394844460824472,0.0009430657428005411,-0.5260527253250519,-0.0005699261424410681,0.8504512425702501,0.024290740922518525,0.3145725463286003,-0.5535765375758467,-0.004383046650957423,0.293650082401603,-0.5300858943597722,-0.011151088753890178,0.6879420933279987,0.8131105544291621,0.04362178663879332,0.7108179564371916,0.7956864390364016,0.0,0.0,0.0,0.0
0.02570766493611052,0.041502271482636986,0.8404431092482015,0.0012416615917115576,-0.5261160699657468,-0.0007234401828474908,0.8504115567386128,0.02615706383391069,0.3322281415191385,-0.5784192729941622,-0.0010498320477455407,0.28970612523096445,-0.5322897809160009,-0.0030101790072743703,0.6804706491667151,0.8272704175564227,0.04599602377320059,0.7217914672343502,0.7880735028292482,0.0,0.0,0.0,0.0
0.028892896674718935,0.04081508163529044,0.8411685271824055,0.0014661289494360063,-0.5260819757620322,-0.000844672799190395,0.8504321794076718,0.027711894979655895,0.35173888573176115,-0.6077291426856661,0.0019479413516857139,0.286106614764918,-0.5362494770363867,0.003925716350801567,0.675831850221578,0.8393031079130135,0.04814421099543755,0.732106591125932,0.7817952162185916,0.0,0.0,0.0,0.0
0.031828715555572054,0.040187934178171555,0.8418999545718989,0.0016957303469070449,-0.5262217636255008,-0.0009682475040999252,0.8503451313920889,0.029138582430430486,0.36830971689805997,-0.6308580810914628,0.0049472016547909186,0.283415646717838,-0.5410649241368959,0.010131895153120064,0.6729064246672963,0.8502404063941856,0.05001938025249106,0.7424062559061787,0.775633106783245,0.0,0.0,0.0,0.0
0.03434722609560542,0.039612470389834106,0.8426548756327241,0.001917325644631878,-0.5264502930445335,-0.001089967749018966,0.8502030491512033,0.030445608198988807,0.3815793920773794,-0.6478070053866309,0.007774079056260564,0.2812465988217698,-0.5464268613423965,0.015943031018736342,0.6705035513808743,0.8603912878635941,0.05167258382636911,0.7522174124065579,0.7692116566194103,0.0,0.0,0.0,0.0
0.036383046513815936,0.03910602825552468,0.8434012359497723,0.0021188984696056856,-0.5267030709786251,-0.0012026764151631558,0.8500458451521313,0.03158954666633779,0.3916993382055378,-0.6594609976484348,0.010324550121042853,0.27919081690717734,-0.5521386548331281,0.021532933527177996,0.6680291431102875,0.8699107219427185,0.0530632377889192,0.7610640238230848,0.7627076160125094,0.0,0.0,0.0,0.0
0.037934835195063354,0.0387016796170703,0.8441044719845007,0.0022927010687510034,-0.526943226207227,-0.0013004989702185045,0.8498963987325496,0.0324967142043318,0.3990228439925795,-0.6668426339200783,0.012553554859065987,0.2769641680614803,-0.5580425183608221,0.02693646618505474,0.6652610291289054,0.8789093484741795,0.05406344479269847,0.7686545775032788,0.7563721059919445,0.0,0.0,0.0,0.0
0.039036685882175244,0.038438292223387245,0.8447362221438458,0.0024340221858489314,-0.5271526112071887,-0.0013786510067417576,0.8497660262418373,0.03308292426966156,0.40398636881651406,-0.6709450803292285,0.014448490624999508,0.27443875130019596,-0.5639807872696486,0.032112034511971435,0.6621718244026688,0.8874476716881404,0.0545084542202306,0.7748569508868998,0.7504139141308582,0.0,0.0,0.0,0.0
0.03973849379880893,0.03835339308235417,0.8452715579141912,0.0025399707465311567,-0.5273236895414766,-0.0014333785956306216,0.8496594732142829,0.033268767981050114,0.40704314271804487,-0.6726905900557794,0.016013312566066303,0.2716591419535414,-0.5697551626644229,0.03696416834277808,0.6588420549479427,0.8954884531002307,0.05423740217206193,0.779625235691143,0.7450169198140595,0.0,0.0,0.0,0.0
0.040093188347400936,0.03847865869868291,0.8456843298279646,0.002608503487795148,-0.5274541627517195,-0.0014617971824747683,0.8495782277427041,0.032989210109455054,0.40862092129520977,-0.672918150837983,0.017263822209132144,0.268856165730444,-0.5750681772115096,0.041331189070503024,0.6554389956071566,0.9028171897199126,0.05312200391358963,0.7829328677242815,0.7403901813118255,0.0,0.0,0.0,0.0
0.04014856684539369,0.03883693350391286,0.8459441999616377,0.0026376593608172317,-0.5275441465971349,-0.001461518274567831,0.8495222658109263,0.032199213865095506,0.4090903924632199,-0.6723653538433723,0.01822901168924394,0.2664302106836171,-0.5794429807555316,0.04495603723958885,0.6522494216466088,0.9089112825547017,0.051087193933740095,0.78472917683257,0.7368072061935501,0.0,0.0,0.0,0.0
0.03994188727401888,0.03943981448991822,0.8460185007796853,0.0026253906222666306,-0.5275957525477868,-0.0014304613787385178,0.8494903077715831,0.030877589957872518,0.40873175269305845,-0.6716120805012213,0.018949843981474934,0.2648402833355881,-0.5821255504176875,0.0474813390140766,0.6497712329027417,0.9127300005395562,0.04812308658723074,0.784933396074121,0.734596778260577,0.0,0.0,0.0,0.0
0.03949608195777648,0.040286063181741216,0.8458848275497942,0.002571523195550949,-0.5276159665834799,-0.0013689185679887127,0.8494780192192081,0.029030878538975367,0.40768567272585043,-0.670932480803524,0.01946546288082869,0.26431570755326583,-0.5820168472540791,0.048560539343737816,0.6488326191010072,0.9125061416131673,0.0442662139691873,0.7834951314485095,0.7340180484919934,0.0,0.0,0.0,0.0
0.03881604664861495,0.04136487193194589,0.8455456211305474,0.002478805127927673,-0.5276098802060976,-0.0012792909680605243,0.849482214792437,0.02668430750517098,0.4059296664284024,-0.6702346059192605,0.01980636895199584,0.264888883893281,-0.5791548785469842,0.048210914360729946,0.6494529896493029,0.9082392814358556,0.039569220810547846,0.7804527205898171,0.7350661285215185,0.0,0.0,0.0,0.0
0.03789165582285505,0.042656204284038476,0.8450282340285701,0.0023526942247838007,-0.5275795545624596,-0.0011660592202587929,0.8495015707716238,0.023882076139410003,0.40329920932389923,-0.6691001261169466,0.01999619934721943,0.2664038961058916,-0.574728344249597,0.046817883202282515,0.6508463253507653,0.901687684726948,0.034102012059970196,0.7759405273584211,0.7374638528889029,0.0,0.0,0.0,0.0
0.036706469717000104,0.04412729280298497,0.8443710663777768,0.002199982131083879,-0.5275299898535555,-0.0010359610119609123,0.849532928536918,0.020698172243586267,0.39954219972147076,-0.6668956139314538,0.020060809423300532,0.26850184275861944,-0.5696078534179512,0.044795025578294574,0.6525622708528392,0.893882708281368,0.027985040381877425,0.7701448007871547,0.7408467724920144,0.0,0.0,0.0,0.0
0.035245647383604715,0.04573308908871024,0.8436120538727794,0.002027149442641692,-0.5274675717636401,-0.0008961473090007835,0.8495722737489183,0.01723502678255965,0.39438801050484495,-0.6629413070037002,0.02004420142112002,0.2709326501632462,-0.5644280976029968,0.042490270892641714,0.654376744125051,0.8853463803834194,0.021406534723121852,0.7632559519481352,0.7448912433773415,0.0,0.0,0.0,0.0
0.033505128400909905,0.04741711783400576,0.8427874655296174,0.0018411419009005101,-0.5274024056064957,-0.0007549244556629349,0.8496132901773892,0.013622700549847787,0.3875996948919512,-0.6565860901032236,0.020009071425165007,0.2736959019495805,-0.5597164197178285,0.040218184863895744,0.6562120879082514,0.8763114314866417,0.014605566923047332,0.7554826661391258,0.7493364295532603,0.0,0.0,0.0,0.0
0.031503213233482215,0.04911236669399979,0.841933518098512,0.0016507789519474923,-0.5273530851698259,-0.0006230681496981732,0.8496444022512001,0.010017690280423893,0.37903046719190225,-0.647265150997336,0.020027230297317018,0.277091768142757,-0.5560301690404558,0.03833084775606823,0.6581168739698735,0.866864607243539,0.007845139893397815,0.7470893760805516,0.7539823201481523,0.0,0.0,0.0,0.0
0.02929578378973719,0.05074199703009518,0.841083507724063,0.0014682681197165114,-0.5273541947305415,-0.000515666442508252,0.8496441205451555,0.006602498962807197,0.3687039613326264,-0.6346014873184168,0.020167149957556252,0.28174085912560104,-0.5541256166217085,0.037283756415518635,0.660301026300988,0.8570410205441138,0.0013807732688638072,0.7384192921777112,0.7587475175308278,0.0,0.0,0.0,0.0
0.02699607933444589,0.05221793545628367,0.8402464414240481,0.0013067804310981875,-0.5274669434865314,-0.0004644133084081153,0.8495744229755038,0.003614868720922499,0.35694940181871243,-0.6186492293601814,0.020523103491405074,0.2886229936502438,-0.5553098868285422,0.03764254719319987,0.6632126707718634,0.8469704238003325,-0.004592784181356457,0.7298181306109592,0.7639340752437876,0.0,0.0,0.0,0.0
0.025037748426753055,0.05356207524702689,0.8393475610656923,0.0011752576819989487,-0.5276767080921965,-0.0004652091324526798,0.8494443443138737,0.0009962706699863924,0.34675519585279035,-0.6047374280869634,0.02087218789237571,0.2986338432498777,-0.5607306017642775,0.039687579732388595,0.6682463239750246,0.8366937738312712,-0.010250670849312783,0.7217808530227806,0.7701917660733163,0.0,0.0,0.0,0.0
0.023678289267709755,0.05465103837872963,0.8384875308286353,0.0010862692243901917,-0.5281787517267389,-0.0005401476433797385,0.8491323421493727,-0.0009775413387838263,0.33917009460328673,-0.5931795676360447,0.021540229502355093,0.31314787066529226,-0.5737804367424777,0.04412800185555727,0.6760379153306674,0.8262285222177213,-0.015264765156039205,0.7156672589248362,0.7774907915831749,0.0,0.0,0.0,0.0
0.023128316534964277,0.05530456292721589,0.837838429293057,0.000999445572001392,-0.5290569290146406,-0.0006603932536909786,0.8485854882396331,-0.001963501945443447,0.33504409289913534,-0.5843514135654254,0.022953736238602675,0.3326621425293067,-0.599067686578757,0.05059912371222419,0.6863252651519562,0.8152636428298592,-0.018539964924384988,0.7129852020391182,0.7849394214534776,0.0,0.0,0.0,0.0
0.02304571199624756,0.05554708715224362,0.837776704201019,0.0007964970197867134,-0.52910909220476,-0.0006626430206594582,0.8485531774986051,-0.0022301459266234488,0.3349203458255309,-0.5843810515112502,0.022967919457886902,0.3327034660152164,-0.599069019299223,0.05061375242246278,0.6863586494658594,0.8152729690167483,-0.018608742288596093,0.712898215188176,0.784908117358809,0.0,0.0,0.0,0.0
0.02304571199624756,0.05554708715224362,0.837776704201019,0.0007964970197867134,-0.52910909220476,-0.0006626430206594582,0.8485531774986051,-0.0022301459266234488,0.3349203458255309,-0.5843810515112502,0.022967919457886902,0.3327034660152164,-0.599069019299223,0.05061375242246278,0.6863586494658594,0.8152729690167483,-0.018608742288596093,0.712898215188176,0.784908117358809,0.0,0.0,0.0,0.0
0.023824956272977836,0.05669483895153878,0.8383117758282667,0.0006523798329470774,-0.5287748380927255,-0.000559769964696138,0.8487617048725467,-0.004629674017880572,0.3426909067040728,-0.5979433927552705,0.020582310544993102,0.33627068039938884,-0.6040267879159185,0.04641591525594988,0.6894248838162854,0.8123139175067999,-0.0228172987235083,0.7172781244712045,0.7750402373982377,0.0,0.0,0.0,0.0
0.025827072038351922,0.05895011830691274,0.840546890373969,0.0004021802716639589,-0.5292699110295205,-7.555696268756327e-05,0.8484534128760269,-0.009998293363442837,0.35628573834604466,-0.6113350802513176,0.015220377716307007,0.3419951856650863,-0.6005685940142925,0.03972113735186422,0.7044300696817923,0.7980536636760216,-0.03008286403009951,0.7360238545451756,0.747088816168922,0.0,0.0,0.0,0.0
0.027211944827147776,0.06130505307545084,0.8416914937359683,-5.0065901547674686e-05,-0.5283184445135024,-7.32635144514775e-05,0.8490462963305925,-0.010952005364132184,0.3344484754674678,-0.579699117918959,0.010905239610645656,0.34789209330453413,-0.6094865030562987,0.030640895904226355,0.710401840699154,0.7902516332719607,-0.02822879831520971,0.7141474877786703,0.781631370372479,0.0,0.0,0.0,0.0
0.029167063143220075,0.06375802283309438,0.8426374389044874,-0.0004358828351555102,-0.5276700885996597,5.5104977795299616e-05,0.8494492831045434,-0.011969125926135398,0.3177515560136781,-0.5624705908287713,0.006038054983143272,0.3569277480104485,-0.6226431759876246,0.02156263849699136,0.7170518968304805,0.7853517808891866,-0.02647426252568101,0.6991179944041543,0.8056072921839859,0.0,0.0,0.0,0.0
0.031387650666665386,0.06616107772314826,0.8435139334242362,-0.0007693943411586405,-0.5273038885107718,0.0002201341544891775,0.8496763905951027,-0.012852221850237634,0.30619398511428814,-0.5547046102478432,0.0011062564598033932,0.3669709512282362,-0.6361679893596224,0.012593644075620084,0.7245720098315372,0.7816604262801382,-0.02604817337305255,0.6895845924694768,0.8229511188953196,0.0,0.0,0.0,0.0
0.033563814270034104,0.06846209162188763,0.8444282788089627,-0.001074753296558554,-0.5271772401330521,0.0004044995626085795,0.8497545756106016,-0.013670286201401068,0.2984687647942404,-0.5526346073313021,-0.0037178981281181895,0.37600845168815966,-0.6465392028140242,0.0039045303923607045,0.7328271003088188,0.7778183649546543,-0.026930067946429884,0.6833337610090233,0.8366566818130615,0.0,0.0,0.0,0.0
0.03555391799961895,0.07060566640147285,0.8453589206996552,-0.001349178891238172,-0.5271723275568642,0.0005882263470330201,0.849757124574053,-0.014315629414630592,0.2931697201857025,-0.5538886870232842,-0.008267265708102217,0.3836414815218115,-0.6539049969188588,-0.0043729917718582575,0.7412030402741616,0.7735529994750048,-0.02865948943391674,0.6789263458382502,0.8482468831974777,0.0,0.0,0.0,0.0
0.037276669503560005,0.07255259854909601,0.8462654288312754,-0.0015886480564941397,-0.5272196976099781,0.0007576093538553816,0.8497271872062602,-0.014726664598787294,0.28924139175667074,-0.5570891361725933,-0.0124252046496903,0.3897161592612414,-0.6586173425990078,-0.012096899666122284,0.7491687242639065,0.7690208624750716,-0.0307864143098078,0.6755014039416585,0.8585667176753758,0.0,0.0,0.0,0.0
0.038693350452901884,0.07427125532552309,0.8471135737087481,-0.001789991991905203,-0.5272810468523154,0.0009042893974873264,0.849688575785082,-0.014854091910383782,0.2859536473122448,-0.5614074774499852,-0.016104037014232794,0.39423493552374683,-0.6610775627058849,-0.01910739158968111,0.7563586331333423,0.7644478148902023,-0.032947198947030756,0.6725509533481789,0.8680945802068543,0.0,0.0,0.0,0.0
0.0397922940703345,0.07573580334042823,0.8478774318965089,-0.0019511703617157569,-0.5273365064198836,0.0010233792845868687,0.8496536674586485,-0.014655529456640405,0.2828668962880394,-0.5662989208411978,-0.01923690533827801,0.39729206207084233,-0.6616910580948506,-0.025247050603719432,0.7625410832196614,0.7600450522720112,-0.0348744176382035,0.6697920337660559,0.8770767043084494,0.0,0.0,0.0,0.0
0.040576537274422786,0.07692649955276155,0.8485348157738609,-0.00207107088889178,-0.5273762213437422,0.0011122010186883752,0.8496286217139012,-0.014103336540177622,0.2798107888572072,-0.5713322216507111,-0.021775613959816933,0.39902352858265255,-0.6608497172686095,-0.030380984404719986,0.7675582307634552,0.7560230417090805,-0.036361929783772326,0.6671011637443353,0.8855634917839774,0.0,0.0,0.0,0.0
0.04105455208292637,0.07783046364215963,0.8490619236335782,-0.0021490967132493004,-0.5273952465668083,0.0011693738871162587,0.8496165416508584,-0.01319498903072487,0.2768698024404045,-0.5760601672460853,-0.02369040404772715,0.3995685502230083,-0.658919144319012,-0.03441329612561525,0.7712700222320977,0.752632635491865,-0.037209687595822064,0.6644916015998514,0.89337623902353,0.0,0.0,0.0,0.0
0.04123349818488067,0.0784426078945676,0.8494297847866678,-0.0021846748265794544,-0.5273908644636955,0.0011940933317328127,0.8496191366825804,-0.011958765469639546,0.27434366881637884,-0.5799018971686989,-0.024970437606312988,0.399038240027985,-0.6562177501263937,-0.03730033620093757,0.7735155313164958,0.7501985792785225,-0.03716657997021337,0.6621339807291625,0.9000011768214595,0.0,0.0,0.0,0.0
0.04111438928017362,0.07876669468629995,0.8496054481953723,-0.002177020081715459,-0.5273617004941913,0.001185783095108082,0.8496372704595121,-0.010446791664523418,0.27261807344047917,-0.5820275497136816,-0.025624816489025065,0.39748454280320406,-0.6529670502375619,-0.03905847719898008,0.774106582356271,0.7491074969830815,-0.03590809352182039,0.6604336275063964,0.9043927378699654,0.0,0.0,0.0,0.0
0.04068872609694888,0.07881579285980968,0.8495639300783215,-0.0021262808937239992,-0.5273089732871363,0.0011458074825133877,0.8496701788021279,-0.008707089290278082,0.27186301629239606,-0.5812892104685291,-0.025684598564117107,0.3948577489142946,-0.6491652688789973,-0.03974695273839097,0.7728841743139844,0.7496799823479438,-0.03313480547211426,0.6601371749059192,0.9047703069245767,0.0,0.0,0.0,0.0
0.03993483239435271,0.07860890723486243,0.8493031063051457,-0.002033203510472135,-0.5272290786503644,0.001076346382091686,0.849720075193848,-0.006761031760047427,0.27206211327844515,-0.5777092728082922,-0.02519315896765464,0.39098268073585457,-0.6445302521517724,-0.03945033644017619,0.7697791711914322,0.7519715564114154,-0.028913185839934605,0.6611959776506562,0.9011053489559566,0.0,0.0,0.0,0.0
0.038820368815457924,0.07817141106099434,0.8488440015075935,-0.001898777219549257,-0.5271124169807634,0.0009802095813710274,0.8497928769405784,-0.004597164672461846,0.2730096285934636,-0.5724850818940774,-0.024207357417023345,0.3855714076864987,-0.6385233350923997,-0.03828192432757361,0.76481931954602,0.7557625601420805,-0.023664087483121144,0.6627631295314057,0.8951248728726106,0.0,0.0,0.0,0.0
0.037310792276578984,0.07753898567083133,0.8482167454923495,-0.0017239399528600058,-0.5269496254857329,0.0008616264921498286,0.8498943333328401,-0.002183853283125111,0.2742753107883797,-0.5664970209563911,-0.022808630086750506,0.3782687974887644,-0.630441278741382,-0.036407025827226616,0.7580841888693957,0.760740896925453,-0.017816710135126236,0.6643145694854766,0.8878407926122621,0.0,0.0,0.0,0.0
0.03537819537294151,0.07675723307059021,0.8474494193080601,-0.0015085838063974418,-0.5267308460859,0.0007243498015761077,0.8500304790264264,0.0005025637546938401,0.2755022634688491,-0.5603640529014308,-0.02110042977259878,0.3687195352407023,-0.6195738318572228,-0.03405759421227443,0.7496657729891876,0.7666227514316302,-0.011706400669947018,0.6655317992449037,0.8797717140362719,0.0,0.0,0.0,0.0
0.03301409588431524,0.07587950901490906,0.8465667960967529,-0.0012526173147960158,-0.5264480742632377,0.0005717727318413362,0.8502061686028479,0.003456634490447899,0.27653636447957053,-0.5545321797454076,-0.01920294650317237,0.3566422130915568,-0.6053153655097077,-0.03151100197140567,0.7396930138635277,0.7731681655562922,-0.005577858551723889,0.6662305738497106,0.871172368080493,0.0,0.0,0.0,0.0
0.030249122960039156,0.07496251016618816,0.8455902223571554,-0.0009582531611714557,-0.5261005586720873,0.00040749969919005093,0.8504217294141725,0.006622258081773771,0.2774673385643319,-0.549330118179193,-0.017242273795559832,0.3419493730501876,-0.587335678232094,-0.02904648608295612,0.7283803930641405,0.7801901029776391,0.00041604034043519946,0.6663919325576549,0.8622006687904213,0.0,0.0,0.0,0.0
0.027183646493376474,0.07405812405367625,0.8445275247067235,-0.000634008048658743,-0.5257016336047825,0.0002361355409865751,0.8506687573309976,0.009877423977111117,0.27861194563513925,-0.5449496566498179,-0.015330534380693053,0.3249827901592893,-0.5659857236445225,-0.026874891929671678,0.7160441904825918,0.7876714028946907,0.00630046072510294,0.6663287326128817,0.8530384634316758,0.0,0.0,0.0,0.0
0.02403258827069582,0.0731968237814157,0.8433297120004281,-0.0002885301747306066,-0.5252242124508424,5.347063055777453e-05,0.8509638303398225,0.013122963696286875,0.2802163763387295,-0.5412743744050921,-0.01351999037748544,0.30717556011295477,-0.5439323546502692,-0.025131051052058238,0.7028658191718393,0.796021042596531,0.012464178429812074,0.6667598486157713,0.8439243782919602,0.0,0.0,0.0,0.0
0.021233344420780162,0.0723581978090333,0.8419900087745074,2.9804976351508357e-05,-0.5246663575826064,-0.00011046194843482276,0.8513079349629146,0.01644878586997729,0.28228046467979856,-0.5375393413429146,-0.01178590424441423,0.291803064872039,-0.5267165122035053,-0.023335069228506415,0.689671498723918,0.8051958728217847,0.019960076570955994,0.6689652282179351,0.8351431391990436,0.0,0.0,0.0,0.0
0.0189975861029534,0.07164579359586132,0.8407268483296642,0.00027282293480689025,-0.5241300010634209,-0.00022448066053156566,0.8516381961615729,0.019217550239117268,0.2845456016492844,-0.5342865127190898,-0.010345343328530196,0.2798870251280864,-0.5146830974752296,-0.0215979400815457,0.6780901895559361,0.8136870434278924,0.02838769122621315,0.6725857239880899,0.8269767762391739,0.0,0.0,0.0,0.0
0.017618191461149898,0.07115978241174058,0.8398444571552597,0.000364439474641512,-0.5236963498872008,-0.0002450067009833473,0.8519048892161661,0.020872231948884764,0.2859147418805231,-0.5320527207921866,-0.009408129485271345,0.2729051600189,-0.5086720205091289,-0.01979746425966702,0.6702084782750924,0.8192111852137973,0.03623611746982573,0.6764829749445956,0.8199063918688352,0.0,0.0,0.0,0.0
0.01755637802849487,0.07101776788482543,0.8397897792081472,0.0004881394879093958,-0.5237014237617269,-0.00023749869979890686,0.8519017103305687,0.020896069941101138,0.28595469519147404,-0.5320537749505875,-0.00927130603051786,0.27272837814923173,-0.5086664267208212,-0.019782841153094668,0.6700519206284569,0.8191393312764705,0.03622996240560774,0.6765329214305111,0.8199220488269893,0.0,0.0,0.0,0.0
0.017556378028494482,0.07101776788482554,0.8397897792081476,0.00048813948790785324,-0.5237014237617276,-0.00023749869979881525,0.8519017103305682,0.020896069941101023,0.28595469519147576,-0.5320537749505886,-0.009271306030517408,0.27272837814924855,-0.5086664267208468,-0.01978284115309559,0.670051920628459,0.819139331276475,0.03622996240560443,0.6765329214305117,0.8199220488269919,0.0,0.0,0.0,0.0
0.017556378028494482,0.07101776788482554,0.8397897792081476,0.00048813948790785324,-0.5237014237617276,-0.00023749869979881525,0.8519017103305682,0.020896069941101023,0.28595469519147576,-0.5320537749505886,-0.009271306030517408,0.27272837814924855,-0.5086664267208468,-0.01978284115309559,0.670051920628459,0.819139331276475,0.03622996240560443,0.6765329214305117,0.8199220488269919,0.0,0.0,0.0,0.0
0.018965802418309467,0.07047378289418015,0.8406398919349353,0.000588867950452066,-0.5244137107249711,-0.0002844438147950359,0.8514633476139295,0.022004536086343836,0.2917570884972502,-0.5344520063606945,-0.00819830507086733,0.28108992930225773,-0.516349015897691,-0.01823994933141405,0.6790634117206534,0.8118833235584453,0.038370285657919584,0.6849931685031387,0.8154904817381892,0.0,0.0,0.0,0.0
0.021601366217367836,0.06949740381706089,0.8423940876864537,0.000749187374685882,-0.5259226251011949,-0.0005163727191162474,0.8505319303142949,0.02431454238569821,0.3018003570836253,-0.5358031225583847,-0.005928689514260128,0.2957418391950635,-0.5275566442490746,-0.015986842143542502,0.6973600903863761,0.7972774978636017,0.04178478875538508,0.7019965510323554,0.8056840256463917,0.0,0.0,0.0,0.0
0.024180933803931326,0.06858346466369931,0.8435422936739527,0.0010374614183124476,-0.5260056708203191,-0.0006223148319831734,0.8504802000416715,0.026160773734669806,0.31664288861794154,-0.5552606794937474,-0.003351301571228742,0.2933544399916044,-0.5277315427667824,-0.008691059741904046,0.6882010487356148,0.8145733978695645,0.0445810204138474,0.713144217412857,0.7965484610268677,0.0,0.0,0.0,0.0
0.02713285839671621,0.06777402505279474,0.8444964279230672,0.001322421169065221,-0.5260683853604794,-0.0007694848075876343,0.8504408933133453,0.02792188944592985,0.33426677560226825,-0.5800910036486608,-0.00011137522725078626,0.2896624642283148,-0.5304151507419868,-0.0008763806456005743,0.6808898262379612,0.8285354940458145,0.04680856033832507,0.7241351614489709,0.788762670535178,0.0,0.0,0.0,0.0
0.03027101710868681,0.06713163451236563,0.8452248960058901,0.0015391770828343373,-0.5260457031138679,-0.0008862077544779532,0.8504544454614602,0.02938940240047102,0.35343965508830566,-0.608764016831122,0.0028387842062059464,0.28619722816122706,-0.5346623905375796,0.005865805524647262,0.6762681844591463,0.8404554208640728,0.048814086069086306,0.7344516841285227,0.7822991491367283,0.0,0.0,0.0,0.0
0.03316201822053886,0.0665484150356606,0.8459540580746943,0.0017617310532650151,-0.5261885910338983,-0.0010062905433996564,0.8503654804546096,0.030729942773266232,0.3697669678809693,-0.6314960130723029,0.005773417158692968,0.28355292337149546,-0.5396385694208569,0.011930405560128931,0.6733091297320839,0.8513236429354443,0.0505336100051887,0.7447041186195199,0.7759893003446859,0.0,0.0,0.0,0.0
0.03564026142226009,0.06601398544955099,0.8467027859200339,0.0019771395609839743,-0.5264170254208904,-0.00112503655892041,0.8502234650719298,0.031955138919116347,0.38285058744489436,-0.648182783245666,0.008532028798599399,0.2813880888233707,-0.5450828879812247,0.017637034802331246,0.6708607953823105,0.8614373605885126,0.05203112117648674,0.7544393394257091,0.7694721804740345,0.0,0.0,0.0,0.0
0.03764131949445261,0.06554445566875058,0.8474414211806873,0.0021734333698346705,-0.5266685412083791,-0.0012351783553359915,0.8500670551334495,0.03302423939174359,0.3928249462428204,-0.6596556718631916,0.01101884348158724,0.2793181071634766,-0.550828970848354,0.023145609285575942,0.668343771883615,0.8709404040509336,0.05327425998309472,0.7632002462139865,0.7629104567616498,0.0,0.0,0.0,0.0
0.03916411639137961,0.06517206048910912,0.8481371123104817,0.0023428206735735236,-0.5269071942929208,-0.0013307716805831074,0.8499185542393976,0.033865605597473904,0.40003441871903667,-0.6669082070067283,0.013192987956313495,0.27707134043021503,-0.5567388998513685,0.028483991915656003,0.6655398484685584,0.8799355779599413,0.05414166289591971,0.7707082812416697,0.7565408001169323,0.0,0.0,0.0,0.0
0.04024267167995895,0.06493515444040955,0.8487624479983871,0.0024805379855121477,-0.527115243661889,-0.0014070165553379116,0.8497890250732724,0.03439649393737803,0.40491020095094643,-0.6709175103737316,0.015043407230151696,0.27452603473609116,-0.5626680856281678,0.03360774062829979,0.6624217692105996,0.8884778595903456,0.054472930435092076,0.7768387188789921,0.7505619243953856,0.0,0.0,0.0,0.0
0.040926650098437774,0.06487102320403394,0.8492929205533393,0.0025836476054033183,-0.5272853029099833,-0.0014601704698597585,0.8496831185814964,0.03453835649445331,0.4079021794570056,-0.6725970482435768,0.016574118788786896,0.2717296638084497,-0.5684268182570972,0.03842046536120967,0.6590692486238415,0.8965261741294802,0.05410952968242195,0.7815492133854043,0.7451516261551527,0.0,0.0,0.0,0.0
0.0412686828767917,0.06501131003010682,0.8497024924590054,0.0026500621810150583,-0.5274150971344586,-0.001487359557086532,0.8496023071099997,0.03422651459566007,0.4094359170266474,-0.672781228635236,0.017800310482028438,0.2689143216603255,-0.5737233104273529,0.04276019160986926,0.6556488250901142,0.9038633002613738,0.05292397234094178,0.7848144225917782,0.7405156552191205,0.0,0.0,0.0,0.0
0.04131624071269046,0.06537896910845578,0.8499607802107249,0.002677774674268105,-0.527504698718669,-0.001486187753311013,0.8495465929532542,0.033415893608860006,0.4098806412494007,-0.6722055584964004,0.01875018394308057,0.2664807727205763,-0.5780844848912692,0.04636944289632483,0.6524468773669652,0.909964458904883,0.050841015569848075,0.7865835664453859,0.7369259587312597,0.0,0.0,0.0,0.0
0.04110624686481242,0.06598579525043528,0.8500350077395619,0.0026646885173244855,-0.5275561284571697,-0.0014545390916390762,0.8495147527138176,0.03208497022684706,0.4095155562502481,-0.6714493461357851,0.01946400232576206,0.2648878038450816,-0.5807586528728838,0.04888982298246758,0.6499613238993464,0.9137867175804272,0.04785010555722798,0.7867750541510489,0.7347107697537395,0.0,0.0,0.0,0.0
0.04066132412665486,0.06683080580906867,0.8499026660482847,0.0026105867114010447,-0.5275762415355775,-0.0013926449255235586,0.8495025336891748,0.030239693245777587,0.40848068942286136,-0.6707871137307413,0.019980375170090745,0.2643640475401866,-0.5806475605074973,0.04997303855781418,0.6490207726072553,0.9135604779127617,0.043986734834680914,0.7853373646871307,0.7341290476564781,0.0,0.0,0.0,0.0
0.039986149798428065,0.06790354353978084,0.8495661373217965,0.0025181997387961966,-0.5275701023703239,-0.001302868193168238,0.8495067676537443,0.027904430159508224,0.40675328732130284,-0.6701272861801832,0.020329253078807577,0.2649414535894841,-0.5777884342788088,0.04963542193491715,0.6496445531149336,0.909285472923346,0.03930165709601831,0.7823078833247631,0.7351760504877789,0.0,0.0,0.0,0.0
0.03907047558580597,0.0691844273941699,0.8490527434063982,0.0023929928399758315,-0.5275398348980834,-0.0011896777480674195,0.8495260919170325,0.025122249919267113,0.4041690340878539,-0.6690522001704013,0.020533654822180534,0.26646387822258555,-0.5733675832709164,0.04826226269967128,0.6510461225249252,0.9027226567157833,0.03386203999705791,0.7778201451514958,0.7375750781964339,0.0,0.0,0.0,0.0
0.037897771081817896,0.07064122798740803,0.8484008101763744,0.002241786414315092,-0.5274904243349584,-0.0010597790590866538,0.8495573573908616,0.02196572579435663,0.40047659634778343,-0.6669307228611454,0.02061881479298508,0.2685715832717838,-0.5682514617765534,0.04626637119593197,0.6527750903042991,0.8949058705270099,0.02778523109922224,0.7720591276047003,0.7409624491574015,0.0,0.0,0.0,0.0
0.03645309315913526,0.07222954945551328,0.8476480702330119,0.002071123518667545,-0.5274281439201925,-0.0009202794499697484,0.849596619893232,0.018535562223088293,0.39540673801033666,-0.6630875617350834,0.020627958267758772,0.27101263310007584,-0.563068654619476,0.04399443603512834,0.6546077651590335,0.8863595925702971,0.0212558532347462,0.7652130863397881,0.7450161078422652,0.0,0.0,0.0,0.0
0.03473222080154609,0.07389372848767804,0.8468303812971874,0.0018880774440601764,-0.5273628655263211,-0.0007794492055791578,0.8496377084889586,0.014959709373559211,0.3887245171231829,-0.6568786438436511,0.020622485291357122,0.27378289177936854,-0.5583375091280752,0.04175991964528501,0.6564668759189461,0.8773194911164847,0.014508420121639044,0.7574872066049353,0.7494778943912228,0.0,0.0,0.0,0.0
0.03275314412812255,0.07556777315402148,0.8459832828671447,0.0017017123358014942,-0.5273127746803364,-0.0006480593027986015,0.8496693014656884,0.011392082812116136,0.38028552640779417,-0.6477488311795175,0.020671784920558635,0.27717533319939447,-0.5546016574695198,0.039914903640709154,0.6584002979339877,0.8678762581262052,0.0077998499015262315,0.7491406292858867,0.7541513140510266,0.0,0.0,0.0,0.0
0.030571094470750636,0.0771761415525981,0.8451391766949117,0.0015246832894272682,-0.5273117056324449,-0.000541262177282297,0.8496703757805871,0.00801202459121836,0.3701154602540419,-0.6353328376494483,0.02083982276320805,0.2817966743126796,-0.5525953541012374,0.03891717213951913,0.6606136452321015,0.8580702426675453,0.0013771897333692924,0.7405092772911455,0.7589572792221769,0.0,0.0,0.0,0.0
0.02829788387494075,0.07863258325142769,0.8443064310757444,0.0013710590167857913,-0.5274184379028749,-0.0004910852441013225,0.8496044199464517,0.005053266104708036,0.3585453176726967,-0.6197031205838734,0.02121219976787962,0.2885965197950997,-0.5535860666925142,0.039333794757691304,0.6635409291104928,0.8480323639786503,-0.004579240777881886,0.7319285941358963,0.7641876982582574,0.0,0.0,0.0,0.0
0.026345762089298376,0.07995372088058814,0.8434149166164553,0.0012506835040683004,-0.5276226396554081,-0.0004933775768152531,0.8494778057679898,0.002468047329594629,0.3483917631079827,-0.6058561362666811,0.021593148055393526,0.298446486320905,-0.5587293004592254,0.0415048533129481,0.6684901756609524,0.8378169944852258,-0.010222150309106308,0.7238849593006569,0.770463768657416,0.0,0.0,0.0,0.0
0.024987444858426543,0.08102607780929079,0.8425577124104813,0.0011784381291201581,-0.5281108746349245,-0.0005711657283351904,0.8491744162100161,0.000512050427074225,0.34083920702949233,-0.5944025051833933,0.02225865593822253,0.3126561944244713,-0.5712764379724867,0.046083124832517496,0.676121481290097,0.8274683767978018,-0.015284751905289579,0.7177188649938966,0.7777636226455172,0.0,0.0,0.0,0.0
0.024430682780620123,0.08167229488049152,0.8419074155972935,0.0011163862657436049,-0.5289690560298977,-0.0006952235940798558,0.8486400933898297,-0.00048064034609016115,0.33671100150576766,-0.5856588403983165,0.02362308714683818,0.3316808995329658,-0.5957344917260874,0.05262961632854353,0.6861561837071593,0.8167302219090915,-0.01869022473370617,0.7149425411198214,0.785181100274303,0.0,0.0,0.0,0.0
0.024348672398154376,0.08191174196169487,0.8418466979468754,0.0009161529452441462,-0.5290208686396992,-0.0006971230900201596,0.8486080339160573,-0.0007448488999163696,0.33658919764273976,-0.585688710590936,0.023637378932206455,0.3317222155067026,-0.5957354887549202,0.05264427527198117,0.6861894046832682,0.8167396317293887,-0.018758252009926143,0.7148566028986179,0.7851502779664815,0.0,0.0,0.0,0.0
0.024348672398154376,0.08191174196169487,0.8418466979468754,0.0009161529452441462,-0.5290208686396992,-0.0006971230900201596,0.8486080339160573,-0.0007448488999163696,0.33658919764273976,-0.585688710590936,0.023637378932206455,0.3317222155067026,-0.5957354887549202,0.05264427527198117,0.6861894046832682,0.8167396317293887,-0.018758252009926143,0.7148566028986179,0.7851502779664815,0.0,0.0,0.0,0.0
0.025136175477742346,0.08305852814187058,0.8423880665293129,0.0007514953154644704,-0.5286988584227651,-0.0005875275325676652,0.8488089344302723,-0.0031325162451026132,0.34438696929148344,-0.5992315941208425,0.021263730883282112,0.33530777856661015,-0.6006140380104039,0.048591690203818774,0.6892986206310027,0.8137596510966781,-0.022838346501547764,0.719338047438108,0.7752543987240427,0.0,0.0,0.0,0.0
0.027153845858892245,0.08532176243990205,0.8446423088310065,0.0004982406226258307,-0.5291906601414116,-0.00010890325379397478,0.8485027902814818,-0.008502295067759532,0.35808254854351673,-0.6127309585659884,0.015904194694853206,0.3410897088054399,-0.5972000471185647,0.0418548686645849,0.7044216866079512,0.7993527797593577,-0.0301851254213322,0.7382109722078565,0.7470186277645054,0.0,0.0,0.0,0.0
0.028544710599413502,0.08768556598096003,0.845799430965631,3.11916018355377e-05,-0.5282425070270497,-0.00010269415641719757,0.8490935415198797,-0.00946252830583219,0.33599730495826535,-0.5805522773250008,0.011583238120067847,0.34700193937393337,-0.6060650606082857,0.03280661508166938,0.7104555275375587,0.7914852609830447,-0.02828093220097325,0.7162388271376452,0.7817953706649159,0.0,0.0,0.0,0.0
0.03050854854625109,0.09015133610847441,0.8467552203859269,-0.00036661249279083634,-0.5276017497340173,2.808289017534698e-05,0.8494917648124876,-0.010501521686993812,0.3191327372905075,-0.5629340886875082,0.006703349804702169,0.3560729362581773,-0.6191955109710922,0.023732039711019066,0.7171782440163406,0.7865572464751196,-0.026510509580532773,0.7011658259999873,0.805910916634521,0.0,0.0,0.0,0.0
0.032729630922923275,0.09257252313255775,0.8476422671485291,-0.0007083829333636521,-0.5272464571928588,0.0001932239676254253,0.8497120890252751,-0.011425015306737576,0.30747687642029337,-0.554932969192488,0.00174857431254314,0.3660796699590411,-0.6325572682619065,0.014714721323556305,0.7247734706208319,0.7828486231422825,-0.02610805373202692,0.6915934017758447,0.8233268257548222,0.0,0.0,0.0,0.0
0.03490790765811358,0.09489080686768069,0.8485641781219541,-0.0010182163290241876,-0.5271263893730296,0.00037639050883115103,0.8497862032254027,-0.012271065618078985,0.29969364675354976,-0.5527251489404414,-0.003098337864020845,0.3751025929741392,-0.6428408609910492,0.005954346219967528,0.7330899881139924,0.7789989081468456,-0.027017490929042307,0.6853190930382762,0.8370649824895919,0.0,0.0,0.0,0.0
0.036901773906124646,0.09704942335782578,0.8494997795034593,-0.0012949614301632237,-0.5271251103717215,0.0005586410611215177,0.8497865196687104,-0.012931899345463889,0.29436500419516043,-0.553902243201367,-0.007668240579309968,0.38273761240648657,-0.6501734484718984,-0.002399191093986199,0.7415143443152159,0.7747349157694932,-0.028772563980025364,0.6809055074124278,0.8486688557851938,0.0,0.0,0.0,0.0
0.038629645403837475,0.09900849898536405,0.850409368481715,-0.0015356058425847782,-0.5271741597938728,0.0007268016118063792,0.8497555642181682,-0.013348354259098588,0.29042637918979974,-0.55706306379257,-0.011843303830091727,0.3888266224004584,-0.6548902708568968,-0.010192705220090439,0.7495181154233194,0.7702088189072802,-0.030921459791489383,0.6774890099090203,0.8589939949318843,0.0,0.0,0.0,0.0
0.04005235878513373,0.10073621569475341,0.851259345103412,-0.0017375094060620858,-0.5272359569125071,0.0008726593984037263,0.8497166970615507,-0.01347386919178071,0.2871406153822673,-0.5613646247004977,-0.01553524482367621,0.3933683460964684,-0.6573797392261551,-0.01726096103770721,0.7567382812148437,0.7656429611940282,-0.03309989979542724,0.6745571998440428,0.8685243791202689,0.0,0.0,0.0,0.0
0.04115776705608489,0.10220683071277527,0.8520242602217515,-0.0018988834357066067,-0.5272911466427965,0.0009912903382428857,0.8496819747748493,-0.01326834013753523,0.2840626815592404,-0.5662530066597469,-0.01867701849266711,0.3964537527289546,-0.6580373856372849,-0.023444540955480722,0.7629450643496068,0.7612461768615887,-0.03503968632257728,0.6718226312167663,0.87750914346831,0.0,0.0,0.0,0.0
0.0419484579618262,0.10340082865294482,0.8526822617843431,-0.002018736358956295,-0.5273302630056338,0.001079917509715177,0.8496573145686996,-0.012705936362242097,0.28101813206260434,-0.5712909210512214,-0.021220501699127387,0.39821597479965254,-0.6572473584456525,-0.02860834694995541,0.767982032234506,0.7572275484915916,-0.036533837725202245,0.6691578191586873,0.8860001906945565,0.0,0.0,0.0,0.0
0.042432522554020094,0.10430560650260452,0.8532097539501378,-0.002096549020796449,-0.5273486933726789,0.0011370601887477985,0.8496456126965283,-0.011785785281637028,0.2780884711557513,-0.5760268277918715,-0.02313613768991865,0.39879183414578795,-0.6553691104502021,-0.03265705701431917,0.7717101474472499,0.7538375067626957,-0.0373817321584043,0.6665725224458922,0.8938195309411271,0.0,0.0,0.0,0.0
0.04261684321142632,0.10491633947020686,0.8535778308120149,-0.0021318256340074585,-0.5273440312967246,0.0011618312853957,0.8496483849941985,-0.01053792342750385,0.2755713513153778,-0.57987644493934,-0.024413294450807553,0.3982907076480275,-0.6527165774781072,-0.03554782106508786,0.7739691149966337,0.751401512836169,-0.03733211108966138,0.664234380901769,0.900453522890531,0.0,0.0,0.0,0.0
0.04250231934283637,0.10523696594923586,0.8537534483799155,-0.0021238558936293632,-0.5273151567088924,0.0011535793655126946,0.8496663368616334,-0.009016227750242738,0.2738510419529872,-0.5820069881598872,-0.02506113361236594,0.396763969756979,-0.6495095649163564,-0.03729776222810674,0.774570929579739,0.7503080777119295,-0.036060573351319694,0.6625465330386234,0.9048560502354067,0.0,0.0,0.0,0.0
0.04208060155653849,0.10528052975836795,0.8537113884239022,-0.002072798055462159,-0.5272633073176622,0.0011135803972480028,0.849698692598359,-0.0072696797962021375,0.2730966395135711,-0.5812685343799637,-0.025110443827165426,0.3941634432066727,-0.6457498321120991,-0.03796660326049797,0.7733561336478982,0.7508800731717491,-0.03326766643805213,0.6622546951952762,0.9052451964170254,0.0,0.0,0.0,0.0
0.041330513726433,0.10506569462321261,0.8534492527325579,-0.001979362356391358,-0.5271847116813265,0.0010440362282050418,0.8497477695660595,-0.005318986179577259,0.273292566361261,-0.577684356169709,-0.024604009530269522,0.39031795759392346,-0.6411638436649691,-0.037637888322176606,0.7702549136328813,0.7531747762173067,-0.029019985141814263,0.6633115931408856,0.90159305953073,0.0,0.0,0.0,0.0
0.04022047994155091,0.10461724559536463,0.8529877718515556,-0.0018444598881254591,-0.5270694156919599,0.0009478939392392893,0.8498197047062024,-0.003150313849333523,0.2742354589422834,-0.572455417148886,-0.023597916862294975,0.384945557993452,-0.6352257750455036,-0.036422704817832136,0.7652940170344574,0.7569737554488689,-0.02373850051599788,0.6648740160679508,0.8956291685300262,0.0,0.0,0.0,0.0
0.038716715867873085,0.10397029029144875,0.8523567013972347,-0.001668884129519427,-0.526907444567547,0.0008295090414038324,0.849920626646871,-0.0007286149335390345,0.2754974835225281,-0.5664664697378818,-0.022172925633942256,0.3776976732958872,-0.6272480084931463,-0.034485042113308766,0.7585510538207909,0.7619664596491951,-0.01785205756652634,0.6664226763810472,0.8883668391204098,0.0,0.0,0.0,0.0
0.036791747152236196,0.10317015773436103,0.8515837161285981,-0.0014523468296884173,-0.5266882012616945,0.0006927345740167559,0.8500570271806576,0.0019734641858487026,0.2767238161901633,-0.5603415215304313,-0.020432400104056763,0.3682239699150949,-0.6165343438398615,-0.03205779674669842,0.7501150763018404,0.7678713920078255,-0.011695438815772886,0.6676434499912048,0.8803245418978205,0.0,0.0,0.0,0.0
0.03443685084636875,0.10227051468517986,0.850693335124413,-0.0011945097315733042,-0.5264028369472685,0.0005409866115459087,0.8502342816740893,0.004953927301250632,0.2777615780016458,-0.5545331808474369,-0.01849750850244755,0.3562439885865434,-0.6024868647330713,-0.029423114694536373,0.7401115251311918,0.7744503565293168,-0.005512767688543259,0.668353604339461,0.871754776555464,0.0,0.0,0.0,0.0
0.031681346351207694,0.10132925887685384,0.8497072219644825,-0.0008972470510976162,-0.5260497882641223,0.00037772245873331315,0.8504532159623747,0.008158900927717504,0.27870085390733207,-0.5493794450714884,-0.016496808300701115,0.3416634754504357,-0.5847682074857034,-0.026870250046435697,0.7287527000924536,0.781513962264885,0.0005427374443866487,0.6685293227180075,0.8628105312622795,0.0,0.0,0.0,0.0
0.028622857681471978,0.10040067085343535,0.8486349431957002,-0.0005687536825939954,-0.5256424392293025,0.00020719652656392954,0.850705389468009,0.0114648797806982,0.27986089915471823,-0.5450858032604066,-0.014546698635165438,0.32480270703515507,-0.5636873163373318,-0.02462512927561996,0.716359615555218,0.7890322387967811,0.006492292992315236,0.6684692061667664,0.853667547365515,0.0,0.0,0.0,0.0
0.02547218806806285,0.09951913884548866,0.8474321961843527,-0.0002187220021524844,-0.5251603554176093,2.5992038632791554e-05,0.8510032623807913,0.014758123392086687,0.2815118273089066,-0.5415566229986392,-0.012707205295153057,0.3070370115984998,-0.5417569698282817,-0.022830792363229803,0.7031427005969086,0.7973932072209452,0.012720243399894304,0.6688882391166218,0.8445677948110474,0.0,0.0,0.0,0.0
0.022673465612187294,0.09866266509114938,0.8460884812646755,0.00010311483798529131,-0.5246024077632104,-0.00013821174801031342,0.8513473345432434,0.01812849359700744,0.28365384011127204,-0.5379702186792501,-0.010943497135876962,0.2916980091086801,-0.5246246898024157,-0.02099813140226907,0.6899297575824314,0.8065843530872563,0.020322177592078182,0.6711285883150225,0.835790055208168,0.0,0.0,0.0,0.0
0.0204394369054532,0.09793686628761909,0.8448235478797906,0.00034973396646923116,-0.5240734093888965,-0.00025591321333977556,0.8516729852273571,0.02093203918979309,0.2860617935050457,-0.5349163966239865,-0.009474329520027561,0.2797966921160884,-0.5125981212468523,-0.019258485250091398,0.6783661720218305,0.815100594635692,0.0288918431520698,0.6748421525045893,0.8276172907251504,0.0,0.0,0.0,0.0
0.019063982848891454,0.097444021052984,0.8439414657405968,0.00044604362468568325,-0.523653559612295,-0.00028464316826541175,0.8519311413070451,0.02260834517633189,0.2876553640989093,-0.5329939607465074,-0.0085122262232977,0.27281539633768215,-0.5065318805261758,-0.017504480145436044,0.6705372281637407,0.8206648343144728,0.03686629032592187,0.6788779187078501,0.8205161141562951,0.0,0.0,0.0,0.0
0.01900182698805388,0.09730086034430764,0.8438865897745356,0.0005706744009849778,-0.5236589515660459,-0.00027731451814377265,0.8519277550779383,0.022632008914027522,0.2876955487542331,-0.5329950952323527,-0.008373977566353528,0.2726386217163439,-0.5065267699138482,-0.017489652993898857,0.6703805397400096,0.8205930273861705,0.036860234332470224,0.6789278488036133,0.8205316833772726,0.0,0.0,0.0,0.0
0.01900182698805336,0.09730086034430781,0.8438865897745361,0.0005706744009830106,-0.523658951566047,-0.00027731451814365783,0.8519277550779376,0.022632008914027394,0.28769554875423525,-0.5329950952323539,-0.008373977566352933,0.272638621716365,-0.5065267699138805,-0.01748965299390003,0.6703805397400124,0.8205930273861759,0.03686023433246604,0.678927848803614,0.820531683377276,0.0,0.0,0.0,0.0
0.01900182698805336,0.09730086034430781,0.8438865897745361,0.0005706744009830106,-0.523658951566047,-0.00027731451814365783,0.8519277550779376,0.022632008914027394,0.28769554875423525,-0.5329950952323539,-0.008373977566352933,0.272638621716365,-0.5065267699138805,-0.01748965299390003,0.6703805397400124,0.8205930273861759,0.03686023433246604,0.678927848803614,0.820531683377276,0.0,0.0,0.0,0.0
0.020402747577465644,0.09677029765083173,0.844729331355772,0.0006701061391639268,-0.5243681035267014,-0.00032530258052572886,0.8514913605784875,0.02371746895421987,0.2934606969603941,-0.5353747497849272,-0.007324905624203448,0.2809262185781048,-0.514118788072583,-0.015980435090907713,0.679330399774039,0.8134111141323441,0.03895544717834162,0.6873553191986093,0.8160780161905558,0.0,0.0,0.0,0.0
0.023019141172528786,0.09582252655367557,0.8464518152995175,0.000826876454495731,-0.5258713779031015,-0.0005554042690844711,0.8505635200875478,0.025969989286960635,0.3034513317469708,-0.5367993500136639,-0.005114485823897258,0.29543401224569343,-0.5252089761804776,-0.013784818872755988,0.6974050925009426,0.7991353305139247,0.042287114348462926,0.704204429662515,0.8064036784140077,0.0,0.0,0.0,0.0
0.0255905001372444,0.09494608876608672,0.8475924835784769,0.0011049756337718883,-0.5259595048831898,-0.0006583714773477771,0.8505086388737486,0.027749622435304225,0.31827186600240237,-0.5562345416845208,-0.002578956401335679,0.29333486631210204,-0.5259495670540095,-0.006736207916945293,0.6884996476718451,0.8160548591788784,0.04499001393439774,0.715357666782288,0.7972060866738923,0.0,0.0,0.0,0.0
0.02853044395463534,0.09417963391853676,0.8485389980883389,0.0013797127262407931,-0.5260210397277817,-0.0008011604774867333,0.8504700584373244,0.029430992518727155,0.33587522626843813,-0.5810807714800494,0.0005867206394895596,0.28981011547510654,-0.5289730518048843,0.0008331433632961863,0.681337698667823,0.8298034586476062,0.047097250630765156,0.7263408349756861,0.7893142286588507,0.0,0.0,0.0,0.0
0.03162777934758427,0.0935702206556465,0.8492678449042362,0.0015912586827102565,-0.5260085879033721,-0.0009149231162549007,0.8504772755714267,0.03083476651313722,0.35475593595549504,-0.6092078010986266,0.0035058159157880377,0.28643036705417474,-0.5334225401133466,0.0074345292106266295,0.676739055296187,0.841602051683339,0.048989978319111886,0.7366444980291449,0.7827249966144935,0.0,0.0,0.0,0.0
0.03448013921212254,0.09301947076672705,0.8499937675657536,0.0018087621589937082,-0.5261544982791018,-0.001032623273019515,0.8503864450996941,0.03211212417051265,0.37087024450956846,-0.631593489721354,0.006394671654726064,0.2838089301627522,-0.5385109486749534,0.013395519537253063,0.6737564728487503,0.8523975161288901,0.05058814352180482,0.7468483156715068,0.7763115998324752,0.0,0.0,0.0,0.0
0.036923836810305415,0.09251544141169152,0.8507364488612187,0.0020195663033615325,-0.526383063545998,-0.0011492405746771298,0.8502443595872763,0.03327704961197467,0.3837899596632096,-0.6480480573702302,0.009103409652676055,0.2816382929689193,-0.5440121036475251,0.019025723069411735,0.6712724942806165,0.8624719382070677,0.05196563341843407,0.7565138277522533,0.7697289575472321,0.0,0.0,0.0,0.0
0.03889523604215927,0.09207330975304145,0.8514680484182555,0.0022118443531429716,-0.5266335679808413,-0.001257499468761801,0.8500885903924438,0.03429084703074573,0.39363559958561545,-0.6593586502751871,0.011543005576407781,0.27955138512493893,-0.5497809832340693,0.02447487887468979,0.6687211911822935,0.8719567841295239,0.05309578600492066,0.7651986236773636,0.7631299711128097,0.0,0.0,0.0,0.0
0.0403934635741227,0.09172465918773778,0.8521570451499557,0.0023778301118992447,-0.5268708995978775,-0.0013514413365642256,0.8499409242336764,0.035083482753390176,0.4007441992452546,-0.666494693239839,0.013676133470175137,0.2772853845158639,-0.5556938087036721,0.02976582162362766,0.6658882983207192,0.8809467089291821,0.053861817448732724,0.7726343888051027,0.7567402824286079,0.0,0.0,0.0,0.0
0.04145244084114093,0.091507422204416,0.8527767628753723,0.0025127504839350333,-0.5270777042304958,-0.001426271642409205,0.849812182507004,0.03557339406241975,0.4055425517741677,-0.6704198556182461,0.015493162518011602,0.2747226127556004,-0.5616153820805876,0.034852142555878846,0.6627469380438961,0.8894912204695932,0.05410640833519385,0.7787022463031654,0.7507507629942533,0.0,0.0,0.0,0.0
0.042121589080584484,0.09145865795702175,0.8533030102468934,0.002613647811356994,-0.5272467576196987,-0.0014782633189567374,0.8497069142723228,0.03568279360943636,0.4084776419710535,-0.6720400525754797,0.016998326104622898,0.2719122678565724,-0.5673621891446834,0.0396368714841602,0.6593762029671962,0.8975455522170971,0.053672682644379986,0.7833626159876519,0.745334463240507,0.0,0.0,0.0,0.0
0.04245323001526619,0.0916099361374491,0.8537098239369734,0.0026784101636224637,-0.5273758332233961,-0.0015045524475332031,0.8496265608918171,0.035347387551241734,0.40997300960236654,-0.6721855173835044,0.01820647812787316,0.26908705137762917,-0.5726465259419854,0.04395789273705908,0.655941951912477,0.9048898791919173,0.052433722899111496,0.7865910395799243,0.7406945653977848,0.0,0.0,0.0,0.0
0.04249449776831578,0.09198424581885703,0.8539667732909412,0.002705001330677102,-0.5274649880750137,-0.001502736031997088,0.8495711336358155,0.0345221813011444,0.4103964189994195,-0.6715895818116128,0.019145346599191364,0.26664775580490263,-0.576997984842965,0.04755748051637391,0.6527301149240002,0.910997293120689,0.05031418740858881,0.7883365567223979,0.7371018253015419,0.0,0.0,0.0,0.0
0.04228197557338561,0.09259348780924427,0.8540409866882962,0.0026912907992695657,-0.5275161763383985,-0.0014706672843860992,0.8495394504040927,0.03318549060380786,0.41002598434082027,-0.6708306452272871,0.019854791779664104,0.26505279617544225,-0.5796664528628032,0.05007647641001046,0.6502385241404488,0.9148226452222515,0.04730311835774406,0.788516813432375,0.734884091584206,0.0,0.0,0.0,0.0
0.041837980060440955,0.0934368402795043,0.85390986230662,0.0026370279270391916,-0.5275361324463412,-0.0014085200517318236,0.8495273339443129,0.03134286640129178,0.4090009481078791,-0.6701832260857431,0.020373100441940854,0.26453008242347076,-0.5795540695776542,0.051165199234108054,0.6492960956715065,0.9145938732560172,0.04343538016056727,0.7870792466531406,0.7343002308287138,0.0,0.0,0.0,0.0
0.04116698756612416,0.09450410420626608,0.8535757258999898,0.0025449263935840333,-0.5275298870332663,-0.0013186270975871117,0.8495316373501919,0.02901803310012542,0.40729814984060847,-0.6695558222486233,0.02072980687148195,0.26511119054927085,-0.5766974609093273,0.050839304026088196,0.649922094127697,0.9103108133157743,0.0387603478670203,0.7840603443157392,0.7353457591001007,0.0,0.0,0.0,0.0
0.04025865541337502,0.09577606152170816,0.8530658657421165,0.0024204530911388733,-0.527499605886391,-0.001205454075213259,0.8495509720299356,0.026253163714783447,0.40475332187201823,-0.6685311541834021,0.020947373948080522,0.26663993371291045,-0.5722813086035222,0.04948413297432406,0.6513295582353272,0.9037370663751285,0.03334307107576308,0.779592851999086,0.7377445582639607,0.0,0.0,0.0,0.0
0.0390963920613639,0.09722091779979009,0.8524185395947629,0.002270442019519486,-0.5274502377053628,-0.0010756822878679074,0.8495822118813505,0.023119686588160302,0.4011156292070754,-0.6664798573556745,0.021050453333593767,0.26875606003568464,-0.5671690671509712,0.04751198223450922,0.6530681180132542,0.8959088634394762,0.027298550931616795,0.7738605831107823,0.741133755107619,0.0,0.0,0.0,0.0
0.03766517948848502,0.09879480245554795,0.8516713106230767,0.002101473123062151,-0.527387933076437,-0.0009363819375861716,0.8496214892791634,0.01971690772814969,0.39611679922879145,-0.6627301351073529,0.021081583722123223,0.2712063548621391,-0.5619847990334041,0.04526862859672356,0.6549144015767531,0.8873529738673451,0.020808747492396626,0.7670499332967169,0.7451927237318872,0.0,0.0,0.0,0.0
0.03596066602753064,0.10044270130191026,0.8508597042944334,0.0019207036354850814,-0.5273223393847527,-0.0007957875507531105,0.849662773107961,0.01617107410444697,0.38952329545235015,-0.6566434121953165,0.021101087155815518,0.27398401549583,-0.5572401075643038,0.04306674596117939,0.6567912992473472,0.8783077918474014,0.014104816624755928,0.7593631902281138,0.7496655124875298,0.0,0.0,0.0,0.0
0.03400058393783309,0.10209943628639488,0.8500187218766548,0.0017373663736490194,-0.5272712727169153,-0.0006646528694877228,0.8496949715998859,0.012634023047234022,0.38119238796340604,-0.6476721298353805,0.02117637420078207,0.27737671341842385,-0.5534682690692497,0.0412585480878704,0.6587457166140014,0.8688677446578517,0.007439127096081199,0.751055243426166,0.7543583170614526,0.0,0.0,0.0,0.0
0.03183963547331958,0.10369050726373541,0.8491800667888579,0.0015644346476103006,-0.5272679113537252,-0.0005581603199660065,0.8496974700785985,0.009282541376543553,0.37115127178225693,-0.6354603875671844,0.021367706208868898,0.2819806782262566,-0.5513867897492027,0.04030383419004797,0.660979007765607,0.8590783730576044,0.0010522019732621297,0.7424563155698223,0.7591933804534554,0.0,0.0,0.0,0.0
