zhuoxili-jackie/tripod-support-walk/examples/pcbA样数据/trajectory_trotting_acc_f02.csv
root_pos_x,root_pos_y,root_pos_z,root_rot_x,root_rot_y,root_rot_z,root_rot_w,FL_hip_joint,FL_thigh_joint,FL_calf_joint,FR_hip_joint,FR_thigh_joint,FR_calf_joint,RL_hip_joint,RL_thigh_joint,RL_calf_joint,RR_hip_joint,RR_thigh_joint,RR_calf_joint,FL_foot_joint,FR_foot_joint,RL_foot_joint,RR_foot_joint
0.01,0.0,0.8259446621,0.0,-0.523845373591082,0.0,0.8518133742594206,0.0,0.27,-0.52,0.0,0.27,-0.52,0.0,0.6572093368,0.8119390607,0.0,0.6572093368,0.8119390607,0.0,0.0,0.0,0.0
0.011614942461174489,-0.0008396153640685771,0.8269172380488876,9.038914149215017e-05,-0.524642775505884,1.535936235752328e-05,0.8513224710433619,0.0015758023327630951,0.2765771703885327,-0.5228179197406526,0.001575802332763098,0.2802359206615414,-0.5300796261234832,0.0033539151704842975,0.6672847722514752,0.8031757951557794,0.0033539151704842967,0.6666161418038253,0.8078713121585785,0.0,0.0,0.0,0.0
0.014720550395600402,-0.0026397242502378955,0.8295051766925813,0.00034995665374107414,-0.5262752416585463,-0.00047605676247572523,0.850314071927272,0.005979753990597063,0.2870809440622263,-0.5203055788760227,0.005984974279391572,0.2985000378794701,-0.5443727397256173,0.008022550139323386,0.691597357744118,0.7789047608366938,0.008049611872770451,0.6879642620052081,0.7929611081111184,0.0,0.0,0.0,0.0
0.017642630959269046,-0.004615386718288324,0.8309244966771859,0.0006187961053333158,-0.5262708705366268,-0.00039278629710673153,0.8503166666806702,0.009544608294605926,0.3026593270590132,-0.540381042146472,0.00523062959979572,0.29384824783000485,-0.5390128990185271,0.006409538323022239,0.6824454305254004,0.8022427105350624,0.016335684633959062,0.7008572551577384,0.7841367514832004,0.0,0.0,0.0,0.0
0.0210005989818732,-0.00671617123612547,0.8319697226837713,0.0008647590947221423,-0.5262490482188246,-0.0004425874580931837,0.8503299333534199,0.013716684554545402,0.321321215520475,-0.5668252760954818,0.0034579727847186075,0.28863455548040584,-0.5383070372247061,0.0032849777094427013,0.6763565586377912,0.8204491370352119,0.024991579511633687,0.7126197300011273,0.7790393213492304,0.0,0.0,0.0,0.0
0.024683789589889142,-0.008786063222613069,0.8327638760655931,0.001076308572105793,-0.526153152300986,-0.0005591503871708814,0.8503889634951982,0.01806560612132576,0.3420743064794328,-0.5977869715450629,0.0008837908542199012,0.2845124730105275,-0.5403539095493688,-4.198005805430621e-05,0.6735255074255277,0.835335912969527,0.03369517531729148,0.7237459631029926,0.7758133589173538,0.0,0.0,0.0,0.0
0.02816651469049134,-0.01090007987820801,0.8335908124847563,0.001320858411305493,-0.5262199253594784,-0.0007259250680432554,0.8503471752881395,0.022617953170883213,0.3597185123967216,-0.6219822419402733,-0.0013586176224559526,0.2818005058444923,-0.5439584739695461,-0.0024538167422522216,0.6723677000672309,0.8483875755718736,0.042507622388417196,0.7350695511985558,0.7725044379397772,0.0,0.0,0.0,0.0
0.03126087514162301,-0.013039014900204635,0.834491677733167,0.0015808006481202084,-0.5263818138216974,-0.0009179981010428963,0.8502463433773634,0.027277437070547875,0.3738115087822809,-0.6391626702238361,-0.0031583877689755893,0.27994228810910604,-0.548537350020738,-0.0038940207486819894,0.6716982084270927,0.8602015887968977,0.05149511807708411,0.7462985437244185,0.7684567080605524,0.0,0.0,0.0,0.0
0.03388938488790963,-0.015164894203845704,0.8354241301605106,0.001832792761030285,-0.5265670105350835,-0.001111068369116227,0.8501309251014926,0.03192275671811822,0.3845612183758405,-0.6504555390651536,-0.0046456700046468,0.2783676331211232,-0.5537458035936542,-0.00461859590560809,0.6709470777149479,0.8710920420596232,0.060639301401577396,0.7568935697159678,0.7638778295255104,0.0,0.0,0.0,0.0
0.036043417126508555,-0.017229644293521043,0.8363384136503239,0.0020622846091704512,-0.5267351297048074,-0.001290704438193623,0.8500259903080045,0.03642848759502025,0.3923608116097127,-0.6570694494983111,-0.006001941367147046,0.2767013008278779,-0.5593267702498768,-0.004965678744751517,0.6699424293505422,0.8812666438723487,0.0697714559668492,0.7664597399638265,0.7591432487198296,0.0,0.0,0.0,0.0
0.0377526335125376,-0.019184696242806294,0.8371948108003874,0.0022613253380970835,-0.5268678177683522,-0.0014490387775487098,0.8499429917908323,0.040679355611374854,0.397672529706764,-0.6601106065394714,-0.007387871495842545,0.2747757651492319,-0.565057213582709,-0.005226724107147532,0.6686879756719623,0.89084976665899,0.07865334341204472,0.7747771204408272,0.7545815226124789,0.0,0.0,0.0,0.0
0.039063975525180844,-0.02098773593497741,0.8379622351432113,0.002425939123940411,-0.5269588386069797,-0.0015819339402590418,0.849885871584155,0.04458046463327806,0.4009659131336804,-0.6605607617188723,-0.008914372740149726,0.27262204803503015,-0.5706943685787662,-0.005638702988296645,0.6672680891638492,0.8998434353061362,0.08704658824665996,0.7817385399066856,0.750466551229396,0.0,0.0,0.0,0.0
0.040027966094960434,-0.022606275707261675,0.8386125304024452,0.002554151498978149,-0.5270075120058716,-0.0016871399365843123,0.8498551124505493,0.048062382830964756,0.40267790797895475,-0.6592835243413406,-0.010634488894748918,0.27046668758082243,-0.5759085153974287,-0.006427758433187228,0.6658310448723264,0.9080514109569661,0.09475727085143074,0.7872792599331768,0.7470683351038299,0.0,0.0,0.0,0.0
0.040689975996937446,-0.0240191283159262,0.8391158550746485,0.002644672601268127,-0.5270151762067434,-0.001763134854071286,0.8498499285815664,0.051082386078928885,0.40318401004871,-0.6570234544044391,-0.01254717699295935,0.26870607996114915,-0.5801971603044939,-0.007860297971150374,0.6646262442526343,0.9149496647464642,0.10165969625219214,0.7913255244252527,0.7446999754200495,0.0,0.0,0.0,0.0
0.04108465914916345,-0.02521696854185904,0.8394409235552837,0.002696402518372275,-0.5269842951169293,-0.0018086738669981378,0.8498688197671537,0.05362391006079288,0.40276935374100425,-0.6543675460839846,-0.014613334356518029,0.2677913284804972,-0.582784120491939,-0.010259764963484966,0.6640995760742474,0.9194764409900809,0.10770330342077325,0.7937800598340482,0.7437166774815264,0.0,0.0,0.0,0.0
0.04123247263070026,-0.026202341348619474,0.839566482636625,0.0027098600279953223,-0.5269212491321691,-0.001824623401525637,0.8499078330154781,0.05569637426331212,0.40158361989320296,-0.6516097455545359,-0.016789394817980703,0.26793961776797987,-0.5825516803437863,-0.013915505870056012,0.6650228942292037,0.9198285464231974,0.1128894007515373,0.7945776496249686,0.7443972092882382,0.0,0.0,0.0,0.0
0.041136036032226604,-0.026987156778922793,0.8394963022771538,0.002686694320048093,-0.52682991009632,-0.0018123370528187082,0.8499645539291276,0.05732533741710033,0.39961269251939746,-0.6486821940734876,-0.01905429531594064,0.2691723494232896,-0.5795226172876217,-0.018792940360725104,0.6673738875345541,0.9160015877983742,0.11725218525500283,0.7937460358171503,0.7467495122505127,0.0,0.0,0.0,0.0
0.040782887642711034,-0.027591472909225034,0.8392590665917153,0.002629083900613795,-0.5267106703724661,-0.0017734270711108942,0.8500387124067081,0.0585498753862575,0.39669643819476397,-0.6451899176306625,-0.02142241823638136,0.27132553112086083,-0.5748741152216211,-0.024553199508887874,0.6703457518427165,0.9097961152237415,0.12085064293168502,0.7914091197579948,0.7505036421162584,0.0,0.0,0.0,0.0
0.04015374218564741,-0.0280428903736559,0.8388928636525113,0.0025390983210032076,-0.5265658956469711,-0.001710876374241297,0.85012880401928,0.05942561682567784,0.3925881875075409,-0.6405389843152417,-0.02394271016634325,0.27402799476453515,-0.5694648330444426,-0.030865395931766564,0.67347368184712,0.902295080437343,0.12377473841173404,0.7877315229953397,0.7553001530420221,0.0,0.0,0.0,0.0
0.039229830263791655,-0.028373355597094405,0.8384327844632704,0.0024167619897409102,-0.5263978288596484,-0.0016268017341349635,0.8502334023957487,0.06001781608751206,0.38702774875763724,-0.6341203981806182,-0.026684510797437916,0.27700684348330246,-0.5639076199045526,-0.03752911797033856,0.6765186441551758,0.8940835563100697,0.1261584469080316,0.7828675414219132,0.7608156359931633,0.0,0.0,0.0,0.0
0.03800245082455483,-0.028615705880094006,0.8379092833550774,0.0022597660679271833,-0.5262103312331692,-0.0015218976139876105,0.8503500835470349,0.06039464825643285,0.3798038379802774,-0.6254110710276695,-0.029730111049474494,0.2802205676554467,-0.5586856334985857,-0.044525751558455846,0.679402696957678,0.8854825200500906,0.12817355256407656,0.7769802606303717,0.7667773748254824,0.0,0.0,0.0,0.0
0.036486529294654985,-0.028799463811422222,0.8373504736080658,0.0020630235011250045,-0.5260127270194631,-0.0013943128240770778,0.8504730512128706,0.060617786535058865,0.3708350138604189,-0.6140819785154603,-0.033162335269756676,0.2838989534812705,-0.5542670327076635,-0.0521001770840253,0.6822306374890428,0.8767190215358212,0.13002635290758893,0.7702974447806069,0.7729391898763112,0.0,0.0,0.0,0.0
0.03474042252107658,-0.028944686190516346,0.8367832970306417,0.0018175510701245587,-0.5258258421681427,-0.0012374366736738942,0.8505894126820235,0.06072796701598932,0.36030102728316454,-0.6001906593102169,-0.03703415994936666,0.2885485865129438,-0.55122533576174,-0.060930823152533904,0.6853998498915342,0.8680660328543899,0.13196039653388633,0.7631817756442614,0.7790753597634242,0.0,0.0,0.0,0.0
0.03289400296160082,-0.029053120380075965,0.8362254537757293,0.001508947429668554,-0.5256885328374266,-0.0010359353562505997,0.8506751532511256,0.0607234534257687,0.3488716527224235,-0.5845837763191617,-0.04131534386531963,0.2949275723823904,-0.55037559982356,-0.07237942380350902,0.6897938793560016,0.8599627072092563,0.13426685324423135,0.7561731842335855,0.7850746341211293,0.0,0.0,0.0,0.0
0.03121924005589022,-0.02907321022734803,0.8356407066110789,0.0010997733566987754,-0.5255639142010807,-0.0007478104241952593,0.8507530801400441,0.06049027687326349,0.338684584438651,-0.5712871321094075,-0.04600938442069362,0.30367576998030654,-0.5528113060010877,-0.0887107686168852,0.6967588147367607,0.8529525607094126,0.1372481315913337,0.7497346259012949,0.7910362010689946,0.0,0.0,0.0,0.0
0.030048718935625378,-0.02898008724211609,0.8351519475206822,0.0006095521244506728,-0.525587044827222,-0.00038487368419864044,0.8507395245480502,0.05999754262630437,0.3316872491702532,-0.5624182615780196,-0.05057271980172394,0.31573320120523507,-0.560819768364912,-0.11102440367960487,0.7072252694429176,0.8477698848270122,0.1409300619277349,0.7455523952127273,0.7960474517689121,0.0,0.0,0.0,0.0
0.0295639330409848,-0.028861647150091777,0.8349301641850764,0.00012356847133941312,-0.5258764882792522,-1.6904747710838106e-05,0.8505609346308728,0.05947422158235346,0.3284278294052091,-0.5574264707283291,-0.053418077570690156,0.3312844445282057,-0.578438961922096,-0.13405246050291755,0.7192420176233338,0.8445592308177792,0.1451558295813847,0.7449905556401162,0.7989925202593893,0.0,0.0,0.0,0.0
0.02952219543326587,-0.028778183273740456,0.8349107905475117,4.017429266662038e-05,-0.5258842599979123,-1.8515269689004295e-05,0.8505561375533417,0.05939511635737217,0.3283435541609448,-0.5574302616325245,-0.05344293765020637,0.33132304493847015,-0.578436982858214,-0.13405691402626219,0.7192766565183069,0.844570741941451,0.14516014160182178,0.744907878410519,0.798960594070119,0.0,0.0,0.0,0.0
0.02952219543326587,-0.028778183273740456,0.8349107905475117,4.017429266662038e-05,-0.5258842599979123,-1.8515269689004295e-05,0.8505561375533417,0.05939511635737217,0.3283435541609448,-0.5574302616325245,-0.05344293765020637,0.33132304493847015,-0.578436982858214,-0.13405691402626219,0.7192766565183069,0.844570741941451,0.14516014160182178,0.744907878410519,0.798960594070119,0.0,0.0,0.0,0.0
0.03022669383754627,-0.028711454631545116,0.8352038476536482,1.3924681107061719e-05,-0.5259322178635346,3.1557032345771965e-05,0.8505264846102093,0.05924672312826481,0.3329301199126462,-0.5639035459807352,-0.05370492717995439,0.3355333051674722,-0.5839947679133314,-0.1343919096132049,0.72236545034581,0.8419127765016703,0.1456871340971359,0.7482658929133272,0.795882772832314,0.0,0.0,0.0,0.0
0.031818528024040366,-0.02867089959952812,0.836236501277308,0.00016473758432410606,-0.5268208986026567,-0.00040592426457388705,0.8499762048919423,0.05993787510243878,0.33996635607457204,-0.5662939933871187,-0.05309260795436158,0.34279349268434034,-0.5883593366069007,-0.13963767671065241,0.7341153638189424,0.8346130830172709,0.14412587797501372,0.7586761844312727,0.7876449402182663,0.0,0.0,0.0,0.0
0.033050291903622644,-0.02884848720989699,0.8368958074230244,-0.0005810507365587443,-0.5262943643379392,0.0003271378075642794,0.8503021800671929,0.053143371476832416,0.32589759263714546,-0.5510223565574625,-0.05354667190352495,0.35137208530840747,-0.601038221396079,-0.13030082903062665,0.7371936846173172,0.8256930001583443,0.1151300382185606,0.7362063001040821,0.8095463536871419,0.0,0.0,0.0,0.0
0.03463691229071449,-0.02916220707720926,0.8375784183299689,-0.001210752138444703,-0.5260290532749173,0.0008964418250605623,0.8504652641830869,0.043528383773749735,0.3145372697882569,-0.5442612201331583,-0.05352012095539383,0.361882033914248,-0.6158726435325708,-0.12234933826926038,0.7422728276406714,0.8168929598560647,0.08539340001602852,0.7185678764125515,0.8250429676961949,0.0,0.0,0.0,0.0
0.03627137445604784,-0.029623995036320606,0.8382653325895078,-0.0016182674105262055,-0.5260694777658668,0.0011562303179998125,0.8504392682050776,0.03360708041239559,0.30631193360367637,-0.5429351449824686,-0.05277161668745508,0.3722388656781321,-0.6295574226802425,-0.11689992387026163,0.748948335573792,0.8085929703245481,0.06129399585190781,0.7065827046104202,0.8371345824428674,0.0,0.0,0.0,0.0
0.037760527177728126,-0.030258537210264565,0.8389224941590827,-0.0018727443946927518,-0.5262708339379586,0.0012466149833550895,0.8503140291243941,0.024617734688653796,0.30030481392657005,-0.5447898116624124,-0.05145591179214273,0.38163031461361574,-0.6413837219093489,-0.11236933481705161,0.7559675260481986,0.8006307322565522,0.04269204056447369,0.698386916980447,0.8474856403904706,0.0,0.0,0.0,0.0
0.03897311641259103,-0.03108284534759288,0.8395214365526668,-0.0020372149762801967,-0.5265282940257491,0.0012626868379383926,0.8501542277536612,0.016909200211284354,0.29563680523300945,-0.5484813982062299,-0.04966114170614805,0.3895444958033153,-0.6509859519123562,-0.1076177216013888,0.7624111466007287,0.792958458332936,0.027830648615937075,0.6922127258092576,0.8568122538980958,0.0,0.0,0.0,0.0
0.039839621412880465,-0.032115894421694574,0.8400458244695863,-0.002147984320136137,-0.526787244186593,0.0012521711087676237,0.849993539736138,0.010404809790009028,0.29163390715195986,-0.5532219818515605,-0.047405322528359606,0.39575191334718285,-0.6582592886203249,-0.10199112567330489,0.7677753964775275,0.7855723708723992,0.015226608886736064,0.6868691501533674,0.8654644248207295,0.0,0.0,0.0,0.0
0.0403349365156007,-0.03337982910243233,0.8404846764810813,-0.0022204656392949902,-0.5270225655883733,0.0012308029285101843,0.8498474980943019,0.004886181251926969,0.28781788936303454,-0.5585260746539136,-0.04465983706706437,0.40023387574583164,-0.6633379825517679,-0.09517880299292793,0.7718332081397149,0.7784891401057596,0.003971782876619147,0.6816737331570044,0.8736296536691981,0.0,0.0,0.0,0.0
0.04046055293190793,-0.034898340933277074,0.8408257651232092,-0.002258595689621832,-0.5272238376030485,0.0011986559352756563,0.8497225941638682,0.0001315005836607392,0.28390218095901504,-0.5640536627054537,-0.04137590761907867,0.40309502658839846,-0.6665137604961754,-0.0870645926493826,0.7744969500077371,0.7717586771177749,-0.0063831653513815225,0.6763016906213637,0.8813862172656001,0.0,0.0,0.0,0.0
0.04023071266431692,-0.03669427787461852,0.8410513864252789,-0.0022614865222221813,-0.5273867719859292,0.0011506422381862753,0.8496215360002423,-0.004034263983729567,0.27980400550194917,-0.5695007514116099,-0.03750310972101409,0.4044927843635886,-0.6681565494243805,-0.07762769327821353,0.7757207472223823,0.7654865364690704,-0.015992315638597085,0.6706608073293009,0.888689566079085,0.0,0.0,0.0,0.0
0.039662902345805724,-0.03878695585146301,0.8411360608610695,-0.002226889935181092,-0.5275089008264094,0.0010816717902614864,0.8495458966390622,-0.007737133237153275,0.2756571679333558,-0.5745045795519965,-0.03300087335613092,0.4045871760304599,-0.6686527023193249,-0.06689494923303434,0.7754407315265027,0.7598562142372685,-0.024816091014214336,0.6648245029660488,0.8953095620167912,0.0,0.0,0.0,0.0
0.0387717762680107,-0.04118895099453778,0.8410462998510668,-0.0021521662014121544,-0.527588565342602,0.000987818084835387,0.8494967322572864,-0.011070789880078827,0.271793611528798,-0.5785463837593214,-0.02784561763256938,0.40350301806593325,-0.6683471285973746,-0.05493711055389197,0.7735501704137185,0.7551426280211934,-0.03266333428299127,0.6590329817094368,0.9007082048487771,0.0,0.0,0.0,0.0
0.03756523884977537,-0.04390239218746065,0.8407447351027517,-0.002034380063862685,-0.5276259652447186,0.0008658775820839682,0.8494739268237417,-0.0141113007710273,0.26862925524071257,-0.5808479315718703,-0.02203663159842322,0.401293977686313,-0.6674632500219791,-0.04188331603938045,0.7699119713321763,0.7516853476506271,-0.03922556794759949,0.6537668077887082,0.9038352177696896,0.0,0.0,0.0,0.0
0.036041493419178776,-0.04691597737800314,0.8402044283747319,-0.0018723892702302788,-0.5276250568553533,0.0007157080333172809,0.849475003339602,-0.016916144562981468,0.2663667943406865,-0.5803060277277358,-0.015604078003673742,0.3978970171792239,-0.6659564424807889,-0.02790320692957593,0.7644258364755998,0.749748280575626,-0.0442033904237617,0.6498499100221333,0.9029220644579671,0.0,0.0,0.0,0.0
0.03418512379666428,-0.05020747631284929,0.8394245271168295,-0.0016713429743586289,-0.5275836911674022,0.0005444412106032,0.8495012413237601,-0.019532771147121732,0.2650069295472021,-0.5769717398361196,-0.00860827688327254,0.39311211806731106,-0.6634604585147262,-0.013137312910417824,0.757074350923795,0.7493071614520935,-0.047631886937155636,0.6473074124960876,0.8979526615895387,0.0,0.0,0.0,0.0
0.031970336532754544,-0.053741993741699294,0.8384304574923971,-0.0014426299631601664,-0.5274932506892216,0.00036563991902861885,0.8495579177451982,-0.022012072561822086,0.26434530153708097,-0.5720519700999479,-0.0011436934001964778,0.3866209125660558,-0.6593190603984845,0.0022742298415153947,0.7479397441415,0.7500451165381378,-0.04990497695539302,0.6453565427088236,0.8906440591927948,0.0,0.0,0.0,0.0
0.029370849718366555,-0.05746420554612838,0.8372605122091372,-0.0011995724949879234,-0.5273485156401796,0.00019432105347705258,0.8496482015029848,-0.024426574685119596,0.2639626232644241,-0.566430099995455,0.0066484315152433296,0.378033030165577,-0.652669599030477,0.01809102579453614,0.7371867742956167,0.751557311669214,-0.0514905391093729,0.6435288642408984,0.8819837090394234,0.0,0.0,0.0,0.0
0.026369581038781297,-0.061295495153536536,0.8359548132671953,-0.0009556602371656636,-0.5271472409161889,4.384135059572829e-05,0.8497734234405642,-0.026893132619750845,0.26353497275257065,-0.5607291604705958,0.014578162372513782,0.3669541615378674,-0.6426011490615232,0.03394916069391433,0.7250207893619127,0.753494256541146,-0.052851999819209204,0.6415576500381439,0.872451429993207,0.0,0.0,0.0,0.0
0.02297153277111484,-0.06513305939219054,0.8345520592456873,-0.0007248192436772797,-0.5268913980420473,-7.454752418022698e-05,0.8499323053920398,-0.029565613601842223,0.2629732588669086,-0.5554050466941519,0.022408338772101,0.3530600109630114,-0.6282792005350951,0.04938700977284413,0.7116877012863331,0.755621995554766,-0.05449599307632624,0.6392965653863342,0.8622412573290459,0.0,0.0,0.0,0.0
0.019222393807339748,-0.0688503808956238,0.8330807507338654,-0.0005218099942889308,-0.5265888269052343,-0.00015120329616009738,0.8501199399087533,-0.03259468608657022,0.2624638049421335,-0.5508150968228426,0.02985971674707983,0.33621821393621304,-0.6091726287536932,0.06389212779725725,0.6974492184728864,0.757941647010154,-0.05705977616576131,0.6367147700374778,0.8514027395069415,0.0,0.0,0.0,0.0
0.015234665710972744,-0.07230015218821992,0.8315219889176628,-0.00036170758465028306,-0.5262315800237227,-0.0001419851110845308,0.8503412098643625,-0.03613012621480019,0.26241698929998003,-0.5474480482173707,0.03655064643284289,0.31679106290639597,-0.5857916708162616,0.07710970422139145,0.6823171723180017,0.7609939056359322,-0.061186031713353135,0.6339259030693057,0.8400044999252332,0.0,0.0,0.0,0.0
0.011425206427502731,-0.07543475782334388,0.829801137718257,-0.00024434358202693956,-0.5257526562250953,-0.0001099021178857198,0.8506374507920488,-0.04021004709008295,0.2629509972676834,-0.5445190106755591,0.04255054054325998,0.29775553106800157,-0.5638214070477179,0.08871781371542377,0.666650332489618,0.765599685921638,-0.06798608998547753,0.63180414921965,0.8279672819110941,0.0,0.0,0.0,0.0
0.008091282946515125,-0.0780891011545622,0.8280078217867958,-0.00017116905283149852,-0.5252427978418182,-5.595340011099604e-05,0.8509523904929531,-0.04480409915532125,0.26435653483047833,-0.5423000723676277,0.04756627714055789,0.28088221941686103,-0.5454811039161104,0.09831416098362156,0.6514897921927799,0.7718752247131837,-0.07862669223242552,0.6304214026611547,0.8152296467836618,0.0,0.0,0.0,0.0
0.005464229437781956,-0.08004927130499179,0.8263006226982358,-0.00011926688820254914,-0.5247825975725762,-9.091673791021819e-06,0.8512362838705423,-0.04946858618936829,0.26631873792994737,-0.541451635213848,0.05123690052873043,0.26750112198573567,-0.5321157817948077,0.10510669685040691,0.6380472545526263,0.7795379513831833,-0.09333082541185107,0.6294919572577743,0.8015473624243848,0.0,0.0,0.0,0.0
0.003879609146263139,-0.0811435097449331,0.8250013477341327,-5.78106038129174e-05,-0.524489627062582,-1.4515536842245353e-05,0.8514168353697189,-0.052913787389669974,0.2680923252640889,-0.5423068480048199,0.0533113157963751,0.2594853861524725,-0.5252178145071231,0.10845330906583078,0.6286695567359675,0.7868040379490562,-0.10820570473516551,0.6297355721146805,0.7875448762229739,0.0,0.0,0.0,0.0
0.0038029100810739614,-0.08140008965240604,0.8248940840223042,0.00012839529429261605,-0.5245157487955064,2.062932047396355e-06,0.8514007357149053,-0.052944416256492655,0.26813444893302896,-0.5423116267488076,0.05358298362847699,0.25924885647583973,-0.525223454618479,0.1085218717404381,0.6284754677744882,0.7867040231072323,-0.1082308567287459,0.6297881651107391,0.7875573806777514,0.0,0.0,0.0,0.0
0.00380291008104082,-0.08140008965239312,0.8248940840223333,0.00012839529416104565,-0.5245157487955731,2.0629320313590408e-06,0.8514007357148642,-0.05294441625645697,0.26813444893314936,-0.5423116267488788,0.05358298362851314,0.2592488564773001,-0.5252234546207677,0.10852187174070742,0.6284754677746878,0.7867040231076018,-0.10823085672896833,0.6297881651109518,0.7875573806778771,0.0,0.0,0.0,0.0
0.00380291008104082,-0.08140008965239312,0.8248940840223333,0.00012839529416104565,-0.5245157487955731,2.0629320313590408e-06,0.8514007357148642,-0.05294441625645697,0.26813444893314936,-0.5423116267488788,0.05358298362851314,0.2592488564773001,-0.5252234546207677,0.10852187174070742,0.6284754677746878,0.7867040231076018,-0.10823085672896833,0.6297881651109518,0.7875573806778771,0.0,0.0,0.0,0.0
0.005418769213850951,-0.0828798316546147,0.8258012443449698,0.00026410630228761807,-0.5253211438192228,1.3223588242495278e-06,0.850904005221844,-0.05012377333461108,0.27425421566880126,-0.5443308219427572,0.05647455351347759,0.27022821724696594,-0.5369745546002354,0.11490728613940475,0.6385258325169968,0.7760437933839659,-0.10386553379878449,0.6378767953956043,0.7870089800732438,0.0,0.0,0.0,0.0
0.008674199637648056,-0.08581066410424108,0.8287299433420617,0.0004814120293568898,-0.5270642995129742,-0.0006263902275096376,0.8498250408505498,-0.04310661486992748,0.28463768977654785,-0.5394253571300517,0.0635496455033963,0.2898986214642922,-0.5519595294904629,0.12561668455948527,0.6657886820183968,0.7442603394686919,-0.09712858330387347,0.6597496870823293,0.7739570690920361,0.0,0.0,0.0,0.0
0.01180337153185125,-0.0887309397524623,0.830950405439134,0.0006873184169064327,-0.526945805311757,-0.0003067056741304204,0.8498985538223766,-0.038234082057755296,0.29999733615467267,-0.5567634716478214,0.06043437844699591,0.28555372430880754,-0.5435585239612375,0.11103138291419117,0.6567342688000349,0.7770668020355588,-0.08489112639763077,0.6764196699254562,0.7613073723607217,0.0,0.0,0.0,0.0
0.015381321766990416,-0.09195013745674611,0.8325223598592344,0.000785733412531158,-0.5268525642541041,-0.0001449518129621966,0.8499563148485053,-0.03229980310810672,0.3186313952512272,-0.5816730965398582,0.05522719297408623,0.2806492110887108,-0.5411739878330752,0.09349679491392834,0.6523745127700875,0.8015315963263893,-0.07135144903087759,0.6905028111416602,0.7556632447332506,0.0,0.0,0.0,0.0
0.019295166498953714,-0.09529795772445114,0.8335898133749088,0.0008990760430002153,-0.5267768610457113,-0.00015152530752284983,0.8500031219761357,-0.02572002611388044,0.3391798270154863,-0.6110873088171094,0.04929025956658996,0.27685412191562775,-0.5425874307473494,0.07906923406848819,0.6511451351403068,0.8201486409237638,-0.05769725984883224,0.7025114479195835,0.7550857820172102,0.0,0.0,0.0,0.0
0.0231134158532612,-0.09871330641714483,0.8345517161221769,0.0010692107297507487,-0.5267795125879993,-0.0002728106937103565,0.8500012514580733,-0.018725774309843048,0.3577193250006536,-0.6364533630691078,0.04370229401653288,0.2744997459068481,-0.5459918813321151,0.06883512860634498,0.6511890329646112,0.835500535320823,-0.044002393996637794,0.7140141648275172,0.7553927727491196,0.0,0.0,0.0,0.0
0.026610677177021674,-0.10214717887140251,0.8355930329656721,0.0013003542106596296,-0.5269024176460457,-0.0004569814602194809,0.8499246687357791,-0.011534249573530587,0.37290326993387174,-0.654807955501611,0.03896364485026321,0.2732233251492368,-0.5504018263242367,0.061977078444582244,0.65165438325558,0.8488870325724033,-0.03026542154738189,0.7257158967862564,0.7546953131793412,0.0,0.0,0.0,0.0
0.029675267233354046,-0.10555328550165377,0.836700194140228,0.0015568269237592489,-0.5270701591086081,-0.0006658438975031872,0.8498200870296371,-0.004311584057578846,0.3847229083649824,-0.6668604224518847,0.035018272268643534,0.2723500865876904,-0.5554549789534686,0.057267294217405715,0.652011816320563,0.8609442783770092,-0.016357232634673,0.7372134990493757,0.7528569045850716,0.0,0.0,0.0,0.0
0.032274691597798805,-0.10888026601881501,0.8378157240209285,0.0018115453406144018,-0.5272306663080384,-0.0008751914989719939,0.8497198225578245,0.0027876282272416304,0.3934808770144126,-0.6737985051407559,0.03159049385257464,0.27140144357578205,-0.5608974081099162,0.053653515713820904,0.6521275380114507,0.8720348349623062,-0.002341313174581505,0.748015972199785,0.7502955283823941,0.0,0.0,0.0,0.0
0.03442426805999986,-0.11207657233452434,0.8388854107459595,0.0020474742008298017,-0.527357336323319,-0.0010713250409976859,0.8496404533318945,0.009625885016332427,0.39959862561407455,-0.6767890051293886,0.02837413691956521,0.27015729846275016,-0.5665091662167093,0.05040667877857032,0.652030905005444,0.882376340426812,0.011582330781553879,0.757773805751391,0.7474749400472201,0.0,0.0,0.0,0.0
0.03616358107819369,-0.11509712027972112,0.8398662146701085,0.0022548130633481345,-0.527439279854661,-0.0012469484673481312,0.8495888223158105,0.016091245683898418,0.4035341718113368,-0.6768851064515771,0.025123333322404854,0.26863321283000324,-0.5720471250951911,0.04705800013005444,0.6518156451618294,0.8920356049771415,0.025164926617871668,0.766273407258394,0.7447963818143251,0.0,0.0,0.0,0.0
0.03754035157260539,-0.11790766705070518,0.8407224102474697,0.002427970277057418,-0.5274734894873719,-0.0013980613774515166,0.8495668709835229,0.022102509329168185,0.4057304694950265,-0.6750152448418749,0.021684362496949886,0.26705808830213507,-0.5771784750259856,0.04327195235637252,0.6516298240161341,0.9008645941934367,0.03817879973975352,0.7733768218682352,0.742625109477106,0.0,0.0,0.0,0.0
0.03859974542840233,-0.12048680331394397,0.8414204675400012,0.0025634183708536976,-0.5274604447374978,-0.0015220129787466628,0.8495743590763962,0.027610523758948805,0.4065772996397846,-0.6719755716723408,0.017994349405468076,0.2658356272211427,-0.5813949000878224,0.03873024847629847,0.6517208670625592,0.908377340061477,0.05045995249961696,0.7789665773540382,0.741338419709473,0.0,0.0,0.0,0.0
0.039377282885500485,-0.12282642130295242,0.8419282263243254,0.0026586287488679383,-0.5274025702421783,-0.0016166186948664524,0.8496098205288797,0.03259691864763057,0.4063761586405425,-0.6683906042120079,0.014058487740754093,0.26542273133180055,-0.5839116496496604,0.033076908149585825,0.6525323878282179,0.9135443378011844,0.06192549203952152,0.7829236708824882,0.7413313681379077,0.0,0.0,0.0,0.0
0.039894155278953576,-0.1249308747682489,0.8422252349110697,0.002713301184509949,-0.5273065412057242,-0.0016818559845956432,0.849669124400072,0.037072020270772436,0.40529245266778563,-0.6645817950852285,0.009907810433150751,0.26603795596080265,-0.5835986781105691,0.025998958125525932,0.6548271160052702,0.9145879667517257,0.07255118032504355,0.785174346559407,0.7429051012468546,0.0,0.0,0.0,0.0
0.04015305451020264,-0.12681233367286254,0.8423161938463257,0.0027286332760808395,-0.5271765089350321,-0.001718274961921102,0.8497496869776839,0.04106033547058078,0.40332952196433697,-0.6605119577537032,0.005564153413926137,0.2676981951030399,-0.5804658615790399,0.01754388173977589,0.6585557221715509,0.9114948959067909,0.08234690166126618,0.7857418092748889,0.7460824486393746,0.0,0.0,0.0,0.0
0.04014071047898139,-0.1284892607506838,0.8422306134649667,0.0027064505929276913,-0.5270132043108648,-0.0017267199224419692,0.8498510316787832,0.04459654027317289,0.40034402679107983,-0.655816967671464,0.0010176783017188254,0.2702312031972106,-0.5756785576802805,0.008087659643246523,0.6628712075889828,0.9060342389169211,0.0913437994700032,0.7847453288937641,0.7506043582853131,0.0,0.0,0.0,0.0
0.03983627122344105,-0.1299864386417312,0.8420077537902421,0.0026482915109493424,-0.5268195111095263,-0.0017092439333451967,0.8499713334881177,0.04772877898738939,0.3961016285128424,-0.6499250850414188,-0.0037831345194807666,0.27325542353148785,-0.5700819703145367,-0.002022175662999601,0.6672711085289895,0.8992693705113055,0.09959804448046596,0.7823450390851892,0.7561158159848134,0.0,0.0,0.0,0.0
0.039219173366987006,-0.1313307499599041,0.8416837718007202,0.002553165752902771,-0.526598299145176,-0.0016667204365917428,0.8501087781719655,0.050509141097947345,0.390353621521374,-0.642249351666016,-0.008924353347646491,0.27648428598397823,-0.5642721301484743,-0.01259947682601823,0.671488476391545,0.8917800077282358,0.1072001120924913,0.7786901322446705,0.7622924600918917,0.0,0.0,0.0,0.0
0.03827916447165508,-0.1325463294477019,0.8412895938130031,0.002417155245605293,-0.5263539498153811,-0.0015980850599514786,0.8502606206325253,0.05298396043040089,0.3829060851148081,-0.6323036767447042,-0.01451990297978848,0.2798568453678644,-0.5587073982519334,-0.023672273865812533,0.6754300044774827,0.8838951016186516,0.11426380613465077,0.7739370340815392,0.7688554431321248,0.0,0.0,0.0,0.0
0.037030389579183795,-0.1336489035850246,0.8408530351660907,0.0022330415993447677,-0.5260959656595294,-0.001498993538060102,0.8504209554452169,0.05518131951102002,0.3737090867754233,-0.6198278571400574,-0.020691633088664684,0.28357417070316054,-0.5538139944249542,-0.035568171907505226,0.6792014519288606,0.8758645366626665,0.12091874826429042,0.7683064044755248,0.7755445254357003,0.0,0.0,0.0,0.0
0.03553195931518196,-0.13463813458013443,0.8404001419141224,0.0019893675193867573,-0.5258444180930869,-0.0013592435415053137,0.8505773585243205,0.05709329755222674,0.3630002203225092,-0.6050047277403612,-0.02752169864177757,0.2880989349653086,-0.5500895724962,-0.04908959504901119,0.6832220076733544,0.8680038816051225,0.12731110345521165,0.7621567033719951,0.7821048268487896,0.0,0.0,0.0,0.0
0.03391695384077131,-0.13548677975759463,0.8399478364740793,0.0016695192947640686,-0.5256328278290584,-0.0011587633227697048,0.8507091161385975,0.058650799808316376,0.3515575677299067,-0.5889212017304021,-0.03497232666047348,0.29410995561032366,-0.5482034525661296,-0.0657668209146284,0.6884144000728912,0.8608087485118656,0.13360469250344292,0.756025635563694,0.7883573486547545,0.0,0.0,0.0,0.0
0.03242756316666291,-0.1361218432794964,0.8394677634625177,0.0012345532601066625,-0.5254239010927024,-0.0008489774561878451,0.8508392793448437,0.05968059099778742,0.3413614494250053,-0.5753391307510911,-0.04286973178284064,0.3021471570345702,-0.5491209763442775,-0.08784881882008819,0.6960163193687371,0.8549222150478046,0.14002767439374691,0.7503609022896406,0.79428186705329,0.0,0.0,0.0,0.0
0.031395766880189725,-0.13647359956481173,0.8390783618823133,0.0007090161141551874,-0.5253372887565955,-0.00043819313735523116,0.8508936703988306,0.06005271019527119,0.33450702122494397,-0.5667459657500857,-0.050398234314111695,0.3129751126400416,-0.5547731665185668,-0.11630916742124885,0.7068719268613792,0.8512084216881403,0.14637459626884977,0.7467992244836792,0.7988660959959325,0.0,0.0,0.0,0.0
0.03098069031212739,-0.1365935089472681,0.8389412078343218,0.00020503657102382403,-0.5255041488814888,-1.3983789781595291e-05,0.8507910126892504,0.05992977255541778,0.3314320036414623,-0.562341537378305,-0.055380229783509365,0.32666846733176225,-0.568910022090694,-0.14466201035691992,0.7186756174990366,0.8499635941565726,0.15210267638789213,0.746601414686106,0.80105789653866,0.0,0.0,0.0,0.0
0.030957280541449708,-0.13655496133027603,0.8389279976794236,0.0001563347189266084,-0.5255008008934665,-1.5292089971577337e-05,0.8507930909368816,0.059903132882440646,0.3313622470472294,-0.5623401411756439,-0.055414536491685595,0.3267070460035006,-0.568906578404089,-0.14466957323903604,0.7187089079498495,0.8499755844442329,0.152121693394733,0.7465226450087161,0.8010262803567904,0.0,0.0,0.0,0.0
0.030957280541449708,-0.13655496133027603,0.8389279976794236,0.0001563347189266084,-0.5255008008934665,-1.5292089971577337e-05,0.8507930909368816,0.059903132882440646,0.3313622470472294,-0.5623401411756439,-0.055414536491685595,0.3267070460035006,-0.568906578404089,-0.14466957323903604,0.7187089079498495,0.8499755844442329,0.152121693394733,0.7465226450087161,0.8010262803567904,0.0,0.0,0.0,0.0
0.031686987045428563,-0.136618415656425,0.8392080814745658,0.00012204786407740363,-0.5256002312581518,9.377386851909156e-06,0.8507316744530914,0.060077007495846727,0.3356881137783897,-0.5680452746342711,-0.055350329126809934,0.33130632347751654,-0.5750211587036111,-0.14453985609996467,0.7219622254488243,0.8473445441614134,0.15333615720328064,0.7499700312275598,0.7984862880825203,0.0,0.0,0.0,0.0
0.03329059424665837,-0.13674496907969863,0.8401700213573772,0.0002564583154202308,-0.5265030555045958,-0.0004211543452055798,0.8501730937888322,0.06111522038376265,0.34249657489929514,-0.5701790146311952,-0.05439907776357246,0.339102596685221,-0.5805758578138515,-0.14898740534535554,0.733433716511342,0.8404278075647668,0.15291941008898155,0.7601320510983325,0.7913514872396515,0.0,0.0,0.0,0.0
0.034547542890062045,-0.13708375918173027,0.8408045852142476,-0.00049900318830899,-0.526017337443375,0.0003086003140964965,0.850473642431467,0.05472405465451923,0.3279370032161411,-0.553604400319657,-0.05450634313978111,0.3482082357312027,-0.5941292168061584,-0.13877475523924765,0.7365321039201235,0.8316038496783301,0.12305697117600517,0.7380821798315086,0.8125235183389711,0.0,0.0,0.0,0.0
0.03615115910098016,-0.1375469897021872,0.8414474731009762,-0.0011456323656249489,-0.5257916883585677,0.000881903045084449,0.8506121385370354,0.045396737952136626,0.31624912638665814,-0.5459806898801668,-0.05416326680507912,0.35916981866210973,-0.6097507023471875,-0.12996448861814608,0.7415240455710608,0.8230530944978747,0.09237990792048947,0.7207404798485721,0.8276337502744364,0.0,0.0,0.0,0.0
0.03779653804065819,-0.1381428499686435,0.8421036320407025,-0.0015667294600364954,-0.5258651283706332,0.0011502071541379332,0.8505657465158346,0.03570127227827702,0.30782541561403787,-0.5441298348825687,-0.05314161882760955,0.36988483127595384,-0.6240481037749463,-0.12374291076460048,0.7481221177867735,0.81491165857673,0.06775960329402182,0.7089777528456399,0.8395821502365146,0.0,0.0,0.0,0.0
0.039290787624063246,-0.1388938243188829,0.842739727006138,-0.0018291185494705574,-0.5260909458783859,0.0012466510318878367,0.8504254328577678,0.026901804853338526,0.3016919202206424,-0.5456602471942106,-0.051589258982552136,0.3795510073015594,-0.6363481213749588,-0.1185619729204704,0.7550823725998584,0.8070198028341142,0.04898183786134017,0.7009522108896464,0.8499196218798539,0.0,0.0,0.0,0.0
0.04050458116524499,-0.13981621713516626,0.843324901285756,-0.001996482416833809,-0.5263662647578221,0.0012653501939413447,0.8502546490738785,0.019357673386524943,0.29694542876605606,-0.5491538494854349,-0.049593640657828474,0.38767111613190314,-0.6463103262614551,-0.1132793156437998,0.7614817934437752,0.799366724428516,0.0341457893684829,0.6949140508828319,0.859299709887298,0.0,0.0,0.0,0.0
0.04137092286432772,-0.14092960033496063,0.8438405740637908,-0.00210653728161419,-0.5266382043633827,0.0012546639073413252,0.850085989782253,0.012997447830750793,0.29289905970156016,-0.553778145808351,-0.04717199923982535,0.39403490234346733,-0.6538607013347832,-0.10722746124174526,0.7668125575516208,0.7919775623635231,0.021655624225491235,0.6896848058976147,0.8680388464248153,0.0,0.0,0.0,0.0
0.04186678753676728,-0.1422572783788297,0.844274337989611,-0.002176342501197369,-0.5268827123751155,0.0012317322604594174,0.8499343232092685,0.007603609995544568,0.2890649872081982,-0.5590191645063108,-0.04429495731713409,0.3986401679204401,-0.6591585050255062,-0.10007575457026681,0.7708443886082569,0.7848846098502491,0.010538221856612306,0.6845905473417028,0.8763064313359424,0.0,0.0,0.0,0.0
0.04199501653786069,-0.1438239748662569,0.8446132775902199,-0.0022108781688672235,-0.5270907622144942,0.0011973186552031673,0.8498052758331781,0.0029532357137596853,0.2851513739150473,-0.5645179180543552,-0.040912160832356624,0.40160132350311534,-0.6625062361117866,-0.09169680618969675,0.7734913204105299,0.7781467631830737,0.0003075442232329615,0.6793127751461177,0.8841705783270609,0.0,0.0,0.0,0.0
0.04177037710437842,-0.14565348228439323,0.8448394806340846,-0.002210151013711615,-0.5272591002954009,0.0011470439553836218,0.8497009124852964,-0.0011313056720909523,0.28107053920614694,-0.5699576743394925,-0.036971778824774086,0.4030803504044813,-0.6642759956874662,-0.08205815783100015,0.7747089217736193,0.7718725347929369,-0.009205394012841336,0.6737613403850241,0.8915800824741414,0.0,0.0,0.0,0.0
0.04121031039916964,-0.14776596827527247,0.8449275600436751,-0.0021725430344303586,-0.5273862205749237,0.0010762653938559202,0.8496222078413814,-0.00477892510339073,0.27695246870819,-0.5749664992368192,-0.03243163232262725,0.403238112907185,-0.6648500147789502,-0.07117714540463227,0.7744354432191186,0.766245182834846,-0.017966707761908486,0.6680084863135654,0.8982992205884162,0.0,0.0,0.0,0.0
0.04032917440625416,-0.15017492009192648,0.8448442833785624,-0.0020958313059442216,-0.5274713405887356,0.0009812813780513433,0.8495696730907455,-0.008085845732283256,0.2731264054887384,-0.579018420801297,-0.027266132618752367,0.4021990173562027,-0.6645674070568555,-0.05911621422213274,0.7725669350838484,0.7615370352274324,-0.025787875623642896,0.6622910938759453,0.9037838137864818,0.0,0.0,0.0,0.0
0.03913470324745303,-0.15288363583320222,0.8445525687509297,-0.001977262853286139,-0.5275153817084502,0.0008588727785554804,0.8495427445574163,-0.01112939897930457,0.27000684205055775,-0.5813291677154532,-0.021471823115159903,0.4000179904722605,-0.6636498525043669,-0.045997044164799245,0.7689698173387117,0.7580834285592688,-0.03236356733281781,0.6570861714818076,0.9069754695547396,0.0,0.0,0.0,0.0
0.03762541457313063,-0.15588249629580747,0.8440256471260773,-0.0018156586220735439,-0.5275224125992138,0.0007088377976691222,0.8495388779439406,-0.013965872680339254,0.2677955239966284,-0.5807915652366875,-0.015075290086595323,0.3966383447512401,-0.6620632756450019,-0.031980106080732026,0.7635461793476376,0.756142671930033,-0.037396125164183,0.6532159605659326,0.9060957008743977,0.0,0.0,0.0,0.0
0.03578682526022554,-0.15915153412665053,0.8432625448435767,-0.0016159875758218788,-0.5274895843669114,0.0005385373306436476,0.8495597900949181,-0.016638711110119896,0.26649257527694004,-0.5774572010084192,-0.008132844837329095,0.39187271222757614,-0.6594675255441882,-0.017192128762689288,0.7562771060508352,0.7556860755287022,-0.04091253118875766,0.6507070847357803,0.9011286065956438,0.0,0.0,0.0,0.0
0.03359471600737873,-0.16265847547348558,0.842288292356047,-0.001388803351999686,-0.5274074201171755,0.0003612333292434889,0.8496112957941865,-0.019191073916419794,0.26589606018298967,-0.5725383458123902,-0.0007337108984204624,0.3854201814641039,-0.6552438160104447,-0.001764565911816002,0.7472430140922846,0.7563962828825638,-0.04329678598975462,0.6487823712445109,0.8938020757968175,0.0,0.0,0.0,0.0
0.031024751861534458,-0.16635087770014964,0.8411407446088308,-0.0011462092994198167,-0.5272700868797131,0.00019112127153088948,0.8496969490110938,-0.021684890803064745,0.26559183547147974,-0.5669264715266541,0.00698756579629087,0.3769096285682081,-0.6485701146203394,0.01406599710200671,0.736609071989489,0.7578691981779483,-0.04501188553752558,0.6469836292163907,0.8851132413865245,0.0,0.0,0.0,0.0
0.028061448304011218,-0.17015322349032666,0.8398600692855578,-0.000900576676357162,-0.5270739550797447,4.105994099534445e-05,0.849818941394181,-0.024225731447901206,0.2652590146225139,-0.5612548543302963,0.014847949829688054,0.3659653721715564,-0.6385772262514388,0.029941348478405967,0.7245814278058165,0.759746724631409,-0.04651512291746336,0.6450521050314133,0.875548936038681,0.0,0.0,0.0,0.0
0.02471045527342529,-0.17396575717309012,0.8384861166080866,-0.000664932702864125,-0.5268191155524096,-7.789331710968571e-05,0.849977159272947,-0.026956782472436963,0.2648096183747038,-0.5559927649925781,0.022616898620924433,0.3522768483303379,-0.6244629532317838,0.045405031560221645,0.7114107572776174,0.7617709054527873,-0.04830316676725167,0.6428443968881752,0.865309448866556,0.0,0.0,0.0,0.0
0.021016610766617486,-0.1776647117223755,0.837050886332933,-0.0004533705810985334,-0.5265118819137072,-0.00015640534960090243,0.8501676353497404,-0.03001998157789317,0.2644320542496009,-0.551513023503312,0.030021571813026338,0.3357148372803938,-0.6057011246158157,0.05994502755912383,0.6973767455493425,0.763892648598553,-0.05099475897931286,0.6403264745521079,0.8544537676308817,0.0,0.0,0.0,0.0
0.017089653730527794,-0.18110560690887043,0.8355439438439464,-0.00028148959367478327,-0.5261437777248062,-0.00015148606632350305,0.8503955685309337,-0.03355638219888271,0.264537813309909,-0.5483000810019193,0.03668942827137693,0.3166278415860054,-0.5827551210711319,0.07320760665214296,0.6825386259981457,0.7665487796108225,-0.055187184563799146,0.6376069644039032,0.8430594298857377,0.0,0.0,0.0,0.0
0.013303751535849798,-0.18422868106920984,0.8339108907675474,-0.0001516008369625798,-0.5256660597280537,-0.00012409117806742124,0.850690986944465,-0.03766656131712655,0.2653022771461246,-0.5456799654678208,0.04265865900722953,0.2976094362156417,-0.5604779093655479,0.08482117340454678,0.6673146429883087,0.7704308291023377,-0.061955886877321405,0.6354704620356382,0.8310855426452864,0.0,0.0,0.0,0.0
0.009998449754826912,-0.1868867995248422,0.8322350484584354,-6.779324925988468e-05,-0.5251607889213205,-7.733431722729568e-05,0.8510030171527095,-0.04224645788658594,0.26704018274898256,-0.5437761995910991,0.04768133392018799,0.28075388926003886,-0.5417009916933976,0.0944634977806099,0.6527971445264694,0.7756342131846836,-0.07232396702289061,0.6341346483229269,0.8185469301951146,0.0,0.0,0.0,0.0
0.007404879105753116,-0.18886687948095082,0.8306720624117877,-8.031722211806936e-06,-0.5247106767714175,-4.0221427413586884e-05,0.8512806258806841,-0.04685885320285699,0.2695193304093467,-0.5433532536251183,0.05139879429548717,0.2673929655952512,-0.5277734300661521,0.1013397529242202,0.6401852957601805,0.7819150922091795,-0.0865011305650805,0.633293450051184,0.8053116115775661,0.0,0.0,0.0,0.0
0.005852691179344703,-0.18998943707224478,0.8295086047309848,5.60273224460497e-05,-0.5244276852829468,-5.5126359125799195e-05,0.8514549880826314,-0.05023923016514786,0.27199097976382586,-0.5449169308162466,0.05354220590032232,0.2594204526746077,-0.5203847059809183,0.10478941858408349,0.6316057196990675,0.7878478086358249,-0.10075242444663628,0.6335675644451257,0.7920461408499426,0.0,0.0,0.0,0.0
0.005776306494627641,-0.1902461632511714,0.8294042401370925,0.00024207101133629918,-0.5244527565773476,-3.894935591296372e-05,0.8514395140014318,-0.05026934176613212,0.2720327500226145,-0.544922268946232,0.053813952982341304,0.25918651998312087,-0.5203893307741362,0.10485674924987422,0.6314137592478426,0.7877489393100651,-0.10077676600163624,0.6336199119939531,0.7920587706254616,0.0,0.0,0.0,0.0
0.005776306494624923,-0.19024616325117072,0.8294042401370948,0.00024207101132359146,-0.5244527565773535,-3.894935591407497e-05,0.8514395140014283,-0.050269341766126276,0.2720327500226224,-0.5449222689462309,0.05381395298234646,0.25918651998324493,-0.52038933077433,0.104856749249899,0.6314137592478611,0.7877489393100902,-0.10077676600163399,0.6336199119939682,0.7920587706254715,0.0,0.0,0.0,0.0
0.005776306494624923,-0.19024616325117072,0.8294042401370948,0.00024207101132359146,-0.5244527565773535,-3.894935591407497e-05,0.8514395140014283,-0.050269341766126276,0.2720327500226224,-0.5449222689462309,0.05381395298234646,0.25918651998324493,-0.52038933077433,0.104856749249899,0.6314137592478611,0.7877489393100902,-0.10077676600163399,0.6336199119939682,0.7920587706254715,0.0,0.0,0.0,0.0
0.007374403550094697,-0.19169396243054315,0.8303088264157096,0.00037157174875587144,-0.5252523713671196,-3.8930629865742545e-05,0.8509464182849935,-0.04750505452000761,0.27802578985819226,-0.546762370794725,0.056641692362357846,0.2700096816063955,-0.5318916160319838,0.1111377625478605,0.6413932549969877,0.7771863496040803,-0.09637180238682691,0.6417784403110348,0.791248501280917,0.0,0.0,0.0,0.0
0.01059497881456058,-0.19455627151383287,0.8332116838012491,0.0006003168632602657,-0.5269893319896901,-0.0006792295190015741,0.8498714151187722,-0.04061158876811903,0.2881659494940547,-0.5415339234236758,0.06358129545060485,0.2893539504957769,-0.5464401943860465,0.12143343461374126,0.668448456848904,0.7458507311331402,-0.08980604039986737,0.6636029157132115,0.7779313891211538,0.0,0.0,0.0,0.0
0.013697966744168032,-0.19741023442670086,0.8354066228092947,0.0007874800925624406,-0.5268783879335865,-0.00035937754097348175,0.8499402420472818,-0.03584169770056788,0.3033226218785035,-0.5585741495199825,0.06042546491847007,0.28566341712929844,-0.5394792065552857,0.10691673473430048,0.6593790340972967,0.7785202253940061,-0.0775578331913437,0.6802574662799055,0.7651327162818848,0.0,0.0,0.0,0.0
0.01723544610990047,-0.20055522653616728,0.8369450162680734,0.0008751978825845857,-0.5267908336837416,-0.00019940821431272968,0.8499944775184242,-0.030027799824135615,0.32168343948997263,-0.5830989251047656,0.0551418303336839,0.28113530256439073,-0.5379985056540831,0.08942202527347073,0.6549415548641813,0.8028933457440801,-0.06405550957343628,0.6942824762708064,0.7593437667252086,0.0,0.0,0.0,0.0
0.02110691857534622,-0.2038138961983616,0.8380027713432147,0.0009814173285326638,-0.5267107106273401,-0.00020787273990330042,0.850044011166124,-0.02360266019501655,0.3419894953941276,-0.6121482444797505,0.049068710947070084,0.2775516743004257,-0.5398976982473912,0.07499241526674505,0.6536114069057012,0.821499890016906,-0.0505086787626372,0.706362729922712,0.7582763154117765,0.0,0.0,0.0,0.0
0.024872973852933543,-0.20714362200368025,0.8389635550343374,0.0011484084502972967,-0.5267172437009099,-0.0003314743079930446,0.8500397146433398,-0.016762459835349075,0.3602139568470684,-0.6369570908170965,0.04335926706059868,0.2753001064309773,-0.5435614116982757,0.0647002727188332,0.6535588461648958,0.8368639533851399,-0.03694425661609271,0.7179603686158859,0.7580659271597849,0.0,0.0,0.0,0.0
0.02831519488913138,-0.2104988742064377,0.8399991614527806,0.0013763965359002604,-0.5268401725420179,-0.0005178995685473975,0.849963099145198,-0.009716311815923254,0.375105479815263,-0.6548453819730132,0.03850857442166468,0.2740377811472177,-0.5481108721301347,0.05772233691895304,0.6539272216966782,0.8502616415502735,-0.023324050717003823,0.7296937864934712,0.7569446924044307,0.0,0.0,0.0,0.0
0.03132669274619509,-0.21383425579078325,0.8410953398967933,0.001629280989037933,-0.5270046499699331,-0.000728487637467771,0.849860526003702,-0.002627760619027159,0.38666774211577026,-0.6665380314697645,0.03445881658574082,0.27312999279910116,-0.5532299910548594,0.052852032257403266,0.6542015516661507,0.8623293099623515,-0.009514936145817972,0.7411651928087531,0.7547907394707032,0.0,0.0,0.0,0.0
0.03387788338018933,-0.21709881118955085,0.8421968811304531,0.001880168949902768,-0.5271600380027658,-0.0009389826268533087,0.8497634244948818,0.004350598825526721,0.3952056820132608,-0.6732054869458046,0.03093532142816201,0.2721266820021285,-0.558694099347252,0.049062486673412405,0.6542506122386555,0.8734319116353519,0.004419589565549905,0.7519064650695905,0.7520009440684602,0.0,0.0,0.0,0.0
0.03598566504191279,-0.22024145301414627,0.843251856706529,0.0021123870373640063,-0.5272808216279394,-0.0011358647220422935,0.8496876972015674,0.011083375829590179,0.4011401143670865,-0.6759949829464771,0.027634305760682605,0.2708237112619182,-0.5643023723058779,0.045644701471041084,0.6541008489431088,0.8837867338373967,0.01827976399821958,0.7615886736804246,0.7490145170858922,0.0,0.0,0.0,0.0
0.037690346170411636,-0.22321761686623062,0.844218835014185,0.002316458765123112,-0.52735676036452,-0.0013120698622821772,0.8496397823720969,0.01746069491452395,0.4049269064859706,-0.675943455936626,0.02431255544677763,0.26924435568356225,-0.5698246595677595,0.04214250757132874,0.6538417716915866,0.8934583367081671,0.03181855119260468,0.7700128120645116,0.7462133161514861,0.0,0.0,0.0,0.0
0.039039835525881444,-0.22599353769089414,0.8450630274538702,0.002487076086878409,-0.5273852231343178,-0.0014638343021996234,0.8496213851247152,0.023403127460557487,0.40700588211103683,-0.6739662367558744,0.0208187779150041,0.26762060197361426,-0.5749368490423176,0.03822721258753014,0.6536177544776225,0.9022955502462776,0.04481084570655769,0.7770501438090075,0.7439494069956039,0.0,0.0,0.0,0.0
0.04007916262847419,-0.22854815031711498,0.8457512968653863,0.0026209180226920703,-0.5273667776004518,-0.00158870408476159,0.8496322078943129,0.02886282562760085,0.40776362518030956,-0.6708505361333529,0.017091946378463927,0.2663566864326012,-0.5791368152114398,0.033584884077053595,0.6536726701610727,0.9098086566673976,0.05709565035128561,0.7825880111067156,0.7425919477772345,0.0,0.0,0.0,0.0
0.040843525968312346,-0.23087350997113848,0.8462514989578096,0.0027156171112390133,-0.527303722231091,-0.0016846571482011744,0.8496708609074661,0.033822186933184374,0.4074987611073366,-0.6672155596589676,0.013138383931329059,0.2659086367924261,-0.5816440392670286,0.027863653609665643,0.6544467905778402,0.9149635737058995,0.06859262966785624,0.7865089539173867,0.7425315255139823,0.0,0.0,0.0,0.0
0.041353727104669315,-0.23297395467040122,0.8465429999374214,0.002770989754620315,-0.5272024703777483,-0.0017517913191180691,0.8497333746950002,0.03829176949094607,0.4063742298183169,-0.6633800253271177,0.008989348717162383,0.2664935077939103,-0.5813307463986518,0.020754351697724945,0.6567005351030331,0.9159776542870577,0.07927914159115039,0.7887386640485622,0.7440670522572913,0.0,0.0,0.0,0.0
0.041612054181743977,-0.23486156409470382,0.8466303785563533,0.0027882413183020613,-0.5270670089467172,-0.0017906946230018027,0.8498172669480653,0.04229598982910043,0.4043905144651815,-0.659303105035314,0.004665883986399373,0.26812775181219684,-0.5782069836696181,0.012303544162573007,0.6603845547607929,0.912838505018997,0.08916593957622815,0.7892993229010388,0.7472199621015718,0.0,0.0,0.0,0.0
0.041604803518952425,-0.23655462446413003,0.8465430778692609,0.002769086667758421,-0.526897985306556,-0.0018021458083653272,0.8499221126135054,0.04586906959819275,0.4014009813106012,-0.6546161704356838,0.00015636344720659084,0.2706395235163802,-0.573435993886133,0.0028810730871257385,0.6646541132997077,0.9073217250870679,0.09828434020371998,0.7883087571997708,0.7517304015875862,0.0,0.0,0.0,0.0
0.04131057371406102,-0.23807751132820237,0.8463201107523365,0.002714907251606444,-0.5266980374092413,-0.001788056881041986,0.8500462396366794,0.04905804869815528,0.39716831532226077,-0.6487454571055276,-0.004593327806736526,0.2736465661844083,-0.5678585118498949,-0.00717266959719408,0.6690096616189795,0.9004962345330709,0.10668927965862202,0.7859237623012015,0.7572439492604537,0.0,0.0,0.0,0.0
0.04070799957736114,-0.23945639756458909,0.8459971056863724,0.0026245322591004565,-0.5264695473880157,-0.0017490925252865472,0.85018813693136,0.05191314359520136,0.39144112562252426,-0.641105238683093,-0.009672338509266458,0.27685951951363974,-0.5620635294630939,-0.017679706557854426,0.6731865561794274,0.8929461935090762,0.11446822882707733,0.7822874997327542,0.7634386383796266,0.0,0.0,0.0,0.0
0.03978565236189312,-0.24071433112761448,0.8456041404806407,0.0024938796280307794,-0.5262161203111503,-0.0016839405803190485,0.8503455413143552,0.054477923115165236,0.38402279997858485,-0.631213773360327,-0.015197684935964169,0.28021106445579796,-0.556498515796289,-0.028680857861185446,0.6770930214376975,0.8850044751975079,0.1217296546807994,0.777547272460275,0.7700395772798052,0.0,0.0,0.0,0.0
0.03855601663912726,-0.24186546956748284,0.845167841043122,0.002315553186656302,-0.5259460224571115,-0.001587922779316506,0.850513314520255,0.05677658095013725,0.37486086585516215,-0.6188196937740379,-0.02129383707425193,0.2838896956536378,-0.5515729409293424,-0.04052707395899775,0.6808350676913851,0.8769250043693382,0.12859591434977727,0.7719113017572081,0.776790971438754,0.0,0.0,0.0,0.0
0.03707595124932783,-0.24290722442683882,0.8447129143828795,0.0020779221665631364,-0.5256774037916824,-0.0014503913343965327,0.8506802253181176,0.058795788454295214,0.3641909022479405,-0.6041203143422552,-0.028044403464769316,0.2883351805975211,-0.5477578987342494,-0.05406443365553218,0.6848299661177346,0.8690283139286843,0.13520395545948458,0.7657232470235286,0.7834389303791365,0.0,0.0,0.0,0.0
0.03547562212108371,-0.2438090343050282,0.8442555605449091,0.001764234603152784,-0.5254409969119967,-0.0012506032897577958,0.8508272928343352,0.06045860102453751,0.3527898968693301,-0.5882215933577959,-0.03541153926142829,0.29418830648610295,-0.5456796697703532,-0.07089900169403655,0.689994274210683,0.861817475838262,0.14170618370042184,0.7595081308053483,0.7897917543297378,0.0,0.0,0.0,0.0
0.03399377053205856,-0.24449306768025053,0.8437694254292271,0.001335937679627948,-0.5251980797235742,-0.0009364555212852757,0.8509784458940443,0.06157495197412099,0.3426316792191037,-0.5748817747748539,-0.04322596325732314,0.3019352250220317,-0.5462200123145459,-0.0933755728846258,0.6975560877834475,0.8559455771878809,0.14832548943574017,0.7537216261320849,0.7957892825632278,0.0,0.0,0.0,0.0
0.0329611855278327,-0.24488482102769427,0.8433706150397687,0.0008193159592766271,-0.5250604837372187,-0.000522665573060278,0.8510643594697732,0.06201748048841436,0.335835992899004,-0.5666689946782547,-0.050731972866669986,0.3122636069262889,-0.551214051355704,-0.12262081913110147,0.7083269834785321,0.8523055699605651,0.15479117196966513,0.7499642580445904,0.8003975241386639,0.0,0.0,0.0,0.0
0.03253473627842981,-0.24502616227407842,0.8432255486981313,0.0003332546582489781,-0.5251637727817566,-9.664572665564061e-05,0.8510011112557772,0.06191984042626857,0.33281382576255547,-0.5626926219672972,-0.0557638852641519,0.3251921150172154,-0.5642574144108735,-0.15199666740977158,0.7199388571257958,0.8512404939751081,0.1604834210006527,0.7495266576635555,0.8025083559804148,0.0,0.0,0.0,0.0
0.03251398141419232,-0.24499540198218545,0.8432134226112041,0.0002904402616725648,-0.5251585595555381,-9.725096444389416e-05,0.8510043440031646,0.06190129282896135,0.3327462444785446,-0.5626913297485161,-0.05579860234381914,0.3252306646399439,-0.5642534194114103,-0.15200498998633571,0.7199718672094856,0.8512524914565814,0.1605042593544867,0.7494483613500895,0.802476812804076,0.0,0.0,0.0,0.0
0.03251398141419232,-0.24499540198218545,0.8432134226112041,0.0002904402616725648,-0.5251585595555381,-9.725096444389416e-05,0.8510043440031646,0.06190129282896135,0.3327462444785446,-0.5626913297485161,-0.05579860234381914,0.3252306646399439,-0.5642534194114103,-0.15200498998633571,0.7199718672094856,0.8512524914565814,0.1605042593544867,0.7494483613500895,0.802476812804076,0.0,0.0,0.0,0.0
0.033252641693041096,-0.24508512314097192,0.8434949284583336,0.0002435167032949644,-0.5252976402130974,-7.246183912538258e-05,0.8509185182116137,0.06214123979232528,0.3369645629459892,-0.5679992522891426,-0.05566547664219917,0.32984609853265684,-0.5701882555924422,-0.1517529458522089,0.7233521487138004,0.8486720424416723,0.1620293901325016,0.7530493763182449,0.8000728365094816,0.0,0.0,0.0,0.0
0.03485960124653108,-0.24525387622877348,0.8444391305209957,0.00035486538448607416,-0.5262213124518434,-0.00047754005006990594,0.8503474444881449,0.06323803196578942,0.3436687162028501,-0.5699501032563469,-0.054657454338939995,0.337714692584016,-0.5757897644241893,-0.15586246464913125,0.7347693951409934,0.8418748327193889,0.16226128165954137,0.7632885993381531,0.7932290362693996,0.0,0.0,0.0,0.0
0.03613020076796467,-0.24562957228772467,0.8450915563923012,-0.0004152171777188902,-0.5257748740930904,0.0002611081940966791,0.8506236189935013,0.056906653455838584,0.3291579771311075,-0.5532093374690215,-0.05468596535566231,0.3468911889834645,-0.5891891237730559,-0.14533168272740069,0.7380613839816103,0.832936593523315,0.1311749678701129,0.7412503286835664,0.8141245148520575,0.0,0.0,0.0,0.0
0.03773427717351066,-0.24612640728229465,0.8457417051363935,-0.0010827249465589614,-0.5255901276578545,0.0008490187204902878,0.8507368127585068,0.04758786787973908,0.3174892715951773,-0.5454774951470343,-0.05427480977404311,0.35784175851811856,-0.6045381384256932,-0.13617370771268292,0.743160514700437,0.8243750073495821,0.09936775134175665,0.7238679873983772,0.8290855231259164,0.0,0.0,0.0,0.0
0.039378847978687966,-0.2467558816424618,0.8464032623274991,-0.0015214693433150432,-0.5256924072803304,0.0011344958174382995,0.8506726109250777,0.037911535547718006,0.3090625002447714,-0.5435619615740805,-0.053195851737046204,0.3685758385070297,-0.6186841803388688,-0.129615038679621,0.7498244688406942,0.8161917912256209,0.07410198480964514,0.7120872227756162,0.8409800414561651,0.0,0.0,0.0,0.0
0.04087239027839741,-0.24753838636018685,0.8470430997643452,-0.001796013203029313,-0.5259371527967612,0.0012444028391583805,0.8505206270903631,0.02914740420941974,0.3029190589107897,-0.5450476109569314,-0.051590711994942556,0.3782829126985537,-0.630935800841759,-0.12415262055713387,0.7568270833060154,0.8082460884212052,0.05503134414312301,0.7040792712895285,0.8513219827529173,0.0,0.0,0.0,0.0
0.04208638256214067,-0.24848843239078663,0.8476304861119499,-0.0019704834943162996,-0.5262253859485415,0.0012718430138644419,0.850341897587938,0.021648519432240342,0.2981704066429884,-0.5485126108372007,-0.04954753665808132,0.3864527284361075,-0.6409088908762605,-0.11865051178990131,0.7632559344107565,0.8005484016663507,0.04009806932272997,0.6980895562074019,0.8607411441655115,0.0,0.0,0.0,0.0
0.04295457342065345,-0.24962471286896412,0.8481472484890946,-0.0020839770980516834,-0.5265064278597281,0.001266135536221047,0.8501676513268707,0.01533673885932869,0.2941340662374119,-0.5531232474299398,-0.04708561677114368,0.39287027411949366,-0.6485048456565595,-0.11243027372950301,0.7686081128196744,0.7931320134625626,0.027602315650951434,0.6929289190710403,0.8695393555045291,0.0,0.0,0.0,0.0
0.043454576938062525,-0.2509700104226815,0.8485816165053697,-0.002154587522928306,-0.5267580348951065,0.0012451512727686847,0.8500116352288124,0.00998962519138229,0.29032341350087865,-0.5583634442735144,-0.04417691748478179,0.39753159463350995,-0.6538659385173601,-0.10515438431826181,0.7726596881405751,0.7860313373266288,0.01650891881656179,0.6879157456014303,0.8778773931390409,0.0,0.0,0.0,0.0
0.04358947632282357,-0.2525488970235338,0.8489213801172576,-0.0021884828690154775,-0.5269718954617161,0.0012109622864238843,0.8498790299251765,0.005379890698057667,0.2864432896123637,-0.563871833751948,-0.04077273193034515,0.4005508141630846,-0.6572848665641218,-0.09668206808716458,0.7753270675961664,0.7793014436789043,0.006305551199092827,0.6827247338464812,0.8858179439276265,0.0,0.0,0.0,0.0
0.04337399615754503,-0.254385083585308,0.8491493334580765,-0.002186434658604187,-0.5271454574928527,0.0011599730809919758,0.8497714637539825,0.0013267440224852458,0.2824032527882971,-0.5693289247056894,-0.03682208205058245,0.4020887828896866,-0.6591240217923315,-0.08697274173600908,0.7765688816751964,0.7730466173679138,-0.0031890606936723024,0.6772607654840419,0.8933059553478984,0.0,0.0,0.0,0.0
0.042825312806618034,-0.2564987775248509,0.8492407270240158,-0.002147350946488768,-0.5272778140732421,0.0010880375070038656,0.8496895385047643,-0.002301286398005909,0.27833101809861177,-0.5743599269639645,-0.03228303785167534,0.4023047660574499,-0.6597567569999496,-0.07603777410384542,0.7763260496516344,0.7674460234045734,-0.01194623715980704,0.6715914844575568,0.9001022300508525,0.0,0.0,0.0,0.0
0.04195743277390726,-0.2589037038493444,0.8491628263592745,-0.002069386699634652,-0.5273686427872438,0.000991777192210051,0.8496334789904579,-0.005602634067031798,0.27455392194229916,-0.5784358435996684,-0.0271296603764781,0.4013219912216362,-0.6595157644721044,-0.06393429356008172,0.7744964866545607,0.762768473410464,-0.019780439456884673,0.6659488278344486,0.9056584704894028,0.0,0.0,0.0,0.0
0.040777836892066745,-0.26160370439175795,0.8488787884671178,-0.001950085899884687,-0.5274190529597365,0.0008682443408687236,0.8496026046875106,-0.008656302413641306,0.2714844318651078,-0.5807693159889131,-0.021357530331881883,0.39919607863271234,-0.6586220254379705,-0.05077790877187478,0.7709469329105086,0.7593468065318922,-0.026388760365664805,0.660804869950871,0.9089105622611102,0.0,0.0,0.0,0.0
0.0392851309047273,-0.26459007746488256,0.8483616751582508,-0.0017883684482821625,-0.5274329442027668,0.0007173706229064864,0.849594477669955,-0.01151866367958099,0.26932236734641796,-0.580251056875486,-0.014991467583132861,0.39587434818501593,-0.6570500654392137,-0.03672319850603864,0.7655779792417042,0.7574390405773712,-0.03147542030411737,0.6569788252396846,0.9080728929938839,0.0,0.0,0.0,0.0
0.03746538996505019,-0.2678440332152993,0.8476099848740698,-0.0015888325490398688,-0.5274073513799497,0.0005462313419667248,0.8496108891444591,-0.014230542699039892,0.26806898615659475,-0.5769338675410851,-0.008085084744054307,0.3911761778770513,-0.6544750112280273,-0.0218941468894716,0.758369047422948,0.7570200805211558,-0.03506704982793355,0.6544987332604536,0.9031304998184756,0.0,0.0,0.0,0.0
0.03529531084009102,-0.2713347680297395,0.8466479448278469,-0.0013615262405028575,-0.5273324761185795,0.0003678885581005348,0.8496578549833769,-0.016830318834878698,0.26752541736214025,-0.572034621033805,-0.0007244960371424886,0.38480974665463114,-0.6502993988268069,-0.0064176348145048665,0.7493971621455792,0.7577780224128876,-0.03754193101254206,0.6525929923403546,0.8958206211867772,0.0,0.0,0.0,0.0
0.03275158914758414,-0.2750115265138132,0.845512381240338,-0.0011178140074040964,-0.5272015055669028,0.00019628521755135536,0.8497395392071321,-0.019373253449615633,0.2672801177857224,-0.5664507555792128,0.006959342978119855,0.37641522718109294,-0.6437309187351186,0.009472816777851249,0.7388222083876482,0.7593135108427116,-0.03935814509586933,0.6508091113718991,0.8871480838971365,0.0,0.0,0.0,0.0
0.02981956025937738,-0.2788004920449906,0.8442423078621991,-0.0008694267164556108,-0.5270096034015317,4.417745041944306e-05,0.8498588824434902,-0.02195741387957477,0.2670146634533295,-0.560822312973284,0.014787038102683364,0.36562788813622293,-0.6339313846610422,0.02542149822419372,0.7268438088017983,0.7612726412712854,-0.04096761447357218,0.6488939787882093,0.8776057732085699,0.0,0.0,0.0,0.0
0.026505140561732105,-0.2826033360882071,0.842876548218026,-0.0006287599774753776,-0.5267556725017974,-7.754125824833132e-05,0.8500165058017539,-0.02471786720976292,0.26664385375288463,-0.5556265793354221,0.022531409575641405,0.3521456165648051,-0.6201256777574938,0.04097038135885808,0.713706845974206,0.7633996137122888,-0.04285983292364568,0.6467084361111419,0.8673995520679394,0.0,0.0,0.0,0.0
0.02285249273044048,-0.2862972512890507,0.841446837122656,-0.0004094222356170197,-0.5264450471489854,-0.00015976482779173654,0.850209044400808,-0.02778842561412829,0.2663585953830214,-0.551244171907199,0.029922277827600558,0.33584282642610347,-0.6018034884680139,0.05560163145552793,0.6996893598204108,0.7656392913385721,-0.04563733638623339,0.644220618021377,0.8565950811890968,0.0,0.0,0.0,0.0
0.01896936288659443,-0.2897385380727844,0.8399446239625332,-0.00022759091194918555,-0.5260677857006628,-0.00015946724539437078,0.8504425951353659,-0.03130095274113579,0.2665642576774604,-0.548151890687684,0.03658984283260052,0.3170671511400095,-0.5794305346159171,0.06896094690986637,0.6848577320518398,0.7683958480144214,-0.04985116504247307,0.6415409796433184,0.8452715390990125,0.0,0.0,0.0,0.0
0.015193805085691995,-0.2928555221180111,0.8383270381112071,-8.662129916358682e-05,-0.5255878719610084,-0.00013662441618883915,0.8507393035930678,-0.035414804210234754,0.26747266296797734,-0.5457872047886647,0.04254326548184999,0.2981052892680511,-0.5572231351423634,0.08061682656239266,0.6696458889489094,0.7723040796916736,-0.05656051363927955,0.63937122230321,0.8334063720288453,0.0,0.0,0.0,0.0
0.011897744895552205,-0.2955128436849573,0.8366696403549113,5.983942600942501e-06,-0.5250830726879039,-9.520276937804288e-05,0.8510509724318834,-0.039978611555672304,0.2693984479310493,-0.544137306052909,0.04756520060734816,0.28129728913964197,-0.5384739842033395,0.09031098067640247,0.6551758676072272,0.7774748007466064,-0.0666703204895962,0.6380561733934602,0.8210568701091985,0.0,0.0,0.0,0.0
0.009312580969116049,-0.29749655755977916,0.83512877910557,7.046672281387407e-05,-0.5246397760638032,-6.362101798262515e-05,0.8513243191396153,-0.04457057314761762,0.2721534825927552,-0.5440293348814856,0.05129530945339002,0.26796076260105467,-0.5244825108392178,0.09724837327455832,0.6426607825425223,0.7836609596544613,-0.0803966221744833,0.6372747803268038,0.8081622019031885,0.0,0.0,0.0,0.0
0.007767831367074656,-0.29862504473101603,0.8339859492082198,0.00013212102834945328,-0.5243676579451938,-8.230379020336788e-05,0.851491946568605,-0.047939659707624,0.274989633677941,-0.5460597566965676,0.05345945206675346,0.25999439736524044,-0.5169725233687481,0.10077166722402428,0.6341946651633484,0.789474887163159,-0.0941489349754527,0.6375688547014148,0.7954309128816488,0.0,0.0,0.0,0.0
0.007691201774914966,-0.2988821880084784,0.8338825204641301,0.0003186139217835543,-0.5243927491385956,-6.655640929178916e-05,0.8514764463602497,-0.04796955232837665,0.2750316760517408,-0.546065200478574,0.0537317770049243,0.25976188925238775,-0.5169774288060607,0.10083825762094904,0.6340033803768368,0.7893769046458727,-0.09417242313619627,0.6376212192250491,0.7954436082234906,0.0,0.0,0.0,0.0
0.0076912017749144815,-0.29888218800847843,0.8338825204641306,0.00031861392178367807,-0.5243927491385952,-6.655640929024982e-05,0.8514764463602499,-0.04796955232838069,0.27503167605173906,-0.5460652004785775,0.05373177700492025,0.25976188925239435,-0.5169774288060741,0.10083825762095537,0.6340033803768373,0.7893769046458714,-0.0941724231361897,0.6376212192250512,0.7954436082234853,0.0,0.0,0.0,0.0
0.0076912017749144815,-0.29888218800847843,0.8338825204641306,0.00031861392178367807,-0.5243927491385952,-6.655640929024982e-05,0.8514764463602499,-0.04796955232838069,0.27503167605173906,-0.5460652004785775,0.05373177700492025,0.25976188925239435,-0.5169774288060741,0.10083825762095537,0.6340033803768373,0.7893769046458714,-0.0941724231361897,0.6376212192250512,0.7954436082234853,0.0,0.0,0.0,0.0
0.009273684600873317,-0.3003041097912344,0.8347817775665133,0.000443419894166901,-0.5251867440722102,-6.589837629636756e-05,0.8509868876116906,-0.04525176197504672,0.28091815986742247,-0.5477716207688456,0.05650780749655708,0.2704506699769703,-0.5282802156623309,0.1070306880022956,0.6439057054893852,0.7789224214838179,-0.08972560061586424,0.6458227131253365,0.7944368800310476,0.0,0.0,0.0,0.0
0.012463351806543257,-0.30310863309690533,0.8376548102593506,0.0006822542247375115,-0.5269153530076874,-0.0007162103506074238,0.8499171914584919,-0.03846600904928277,0.29085249203089814,-0.5423190885199902,0.06333261342665827,0.28952082958167197,-0.5425074296232211,0.11696604827895685,0.6707272464592243,0.7480538002385062,-0.08329653680053159,0.6675663624117587,0.7809446433657024,0.0,0.0,0.0,0.0
0.015541456207017107,-0.3059072513997775,0.8398178618851906,0.000856539781208893,-0.5268097574006597,-0.0003982434303244657,0.8499826982058113,-0.03378092581176164,0.3058470410922338,-0.5591692239686107,0.06013242433910916,0.2862267866275638,-0.5365157673901113,0.10259731753034304,0.661711833069313,0.7803822457114792,-0.07104577201999221,0.684148522456653,0.7681044698513085,0.0,0.0,0.0,0.0
0.01904267609732197,-0.3089904589462318,0.8413174691873194,0.0009381265286651434,-0.5267263302030412,-0.00024176884628710111,0.8500343725622382,-0.02806666145491402,0.32399565328543245,-0.583445579225354,0.05478101877008735,0.2819059689047142,-0.5356447174798539,0.08522151354847182,0.6572456910716284,0.8045389740810346,-0.0575809774774815,0.6980646975686225,0.7622876886030813,0.0,0.0,0.0,0.0
0.022877174317875157,-0.3121744935281268,0.8423589703106223,0.0010404588477169131,-0.5266417638836238,-0.00025318077819595536,0.8500866461005168,-0.021771140048177453,0.3441186786238537,-0.6122603234779807,0.048592142928385915,0.27842955594466406,-0.5378569971742259,0.07083775473749547,0.6558571534294032,0.823057501319589,-0.044127416347160484,0.7101599506019354,0.7608807436004618,0.0,0.0,0.0,0.0
0.026597285839828236,-0.31543282524983524,0.8433139578909326,0.0012066161992482292,-0.5266521207494366,-0.00037989732481337414,0.8500799629831839,-0.015059622411523234,0.3620792643538875,-0.6366191039263153,0.0427827047528238,0.27622195356148743,-0.541679210605068,0.06051638428824536,0.6557408593618219,0.8383897749842347,-0.030672010919009007,0.7218117831372439,0.7602791474990857,0.0,0.0,0.0,0.0
0.029990795370640703,-0.31872266447252734,0.8443415651908888,0.0014331055360237242,-0.5267753783591369,-0.0005689960578435954,0.8500031312922306,-0.008134822808938968,0.37671762705121553,-0.6541148358123197,0.03783992011846698,0.27494451347357246,-0.5463111418728942,0.05344263599882791,0.6560352132970321,0.8517746135230996,-0.017143004299161768,0.7335554016987753,0.7588275704031633,0.0,0.0,0.0,0.0
0.032955211979947364,-0.3219992173625361,0.8454261240167913,0.0016836415621552926,-0.5269370110817814,-0.0007815376736966203,0.8499023125643048,-0.0011583467270198785,0.3880534712779716,-0.665499039865589,0.03370331370095295,0.2739897766589917,-0.5514662408187222,0.04843546435367625,0.6562412227333769,0.86383912363018,-0.003405917231093042,0.7449924571176181,0.7564251717820017,0.0,0.0,0.0,0.0
0.035463659467497584,-0.3252117744463589,0.8465139781236323,0.0019316827358778893,-0.5270876999579368,-0.000993346362365598,0.8498081185878753,0.005718776428702607,0.39639626777276826,-0.6719324816184431,0.030098990543486026,0.27292828934085855,-0.5569382557645483,0.04449344116983337,0.6562329626074663,0.8749454787416913,0.010473447053121155,0.7556722218684325,0.7534552906707155,0.0,0.0,0.0,0.0
0.0375345090512353,-0.3283096110132039,0.8475549781688657,0.0021609879842014977,-0.5272029648711056,-0.0011911275473784305,0.8497358090472672,0.012362929973228971,0.402167568750366,-0.6745477898063346,0.026725546788432784,0.2715673663067375,-0.5625386177845911,0.04092647178767098,0.6560362126876477,0.8853081535692752,0.02429399710496398,0.7652825272683531,0.7503383022971862,0.0,0.0,0.0,0.0
0.03920872560046422,-0.3312486300650901,0.8485089939830511,0.0023624444456272773,-0.5272732176398348,-0.0013680608827416655,0.8496914152946339,0.018666067560151184,0.4058219039417999,-0.6743685509891587,0.023342517273417032,0.2699355169624341,-0.5680456261489895,0.03728978052163088,0.6557378665199315,0.8949883593327402,0.03780924394340531,0.7736365553542732,0.7474405342268505,0.0,0.0,0.0,0.0
0.04053435589655498,-0.3339955276143152,0.8493419996728513,0.0025310181869310643,-0.5272961688289778,-0.0015205984952162488,0.8496764278626517,0.024550390404997346,0.40779662431087504,-0.672299305904079,0.01980108298950655,0.268266444285444,-0.5731411130970517,0.0332608037965387,0.6554792762923718,0.9038312988601436,0.05079603860416378,0.7806132361322201,0.7451032355347895,0.0,0.0,0.0,0.0
0.04155624443588922,-0.336529596851732,0.8500211878451575,0.002663596180086821,-0.5272724888963434,-0.0016464694996553958,0.8496904829681403,0.02996930006857466,0.4084753915113164,-0.6691192266184096,0.016042125449664605,0.2669642431366204,-0.5773271533707574,0.02852949336764966,0.6555011512941636,0.9113432555933443,0.06309584919299573,0.7861039206683113,0.7436887896133101,0.0,0.0,0.0,0.0
0.04230921673453786,-0.33884309043873245,0.8505144340410359,0.0027579726390106036,-0.5272043853015886,-0.0017438033468153518,0.8497322453900311,0.03490596666267794,0.4081539528959198,-0.6654422052206949,0.012073093759865774,0.26648379195431715,-0.5798260563072616,0.022747811922085366,0.6562405727169089,0.9164853962348127,0.0746305175094677,0.7899923465605082,0.7435840124558711,0.0,0.0,0.0,0.0
0.042813633003099684,-0.34094036975655884,0.8508009482539329,0.002814070817547866,-0.5270980387179277,-0.0018128082970039923,0.8497978890955343,0.039371219302265864,0.4069925920128775,-0.6615837952673391,0.007925295950883274,0.2670405427707423,-0.5795115036535442,0.015610258334281682,0.6584555674199978,0.9174698733240758,0.08537878436778197,0.7922034856935112,0.7450859559837163,0.0,0.0,0.0,0.0
0.04307133922617253,-0.34283344732874443,0.8508851946092724,0.0028330862607997094,-0.5269572798980864,-0.0018541028996273937,0.8498850281579775,0.04338941848966787,0.40498873438509403,-0.6574991895414165,0.0036185381406705353,0.2686504060368808,-0.5763936900098156,0.0071624452163144645,0.6620963718086289,0.9142851514794028,0.09535219003805573,0.792758305634939,0.7482150273432772,0.0,0.0,0.0,0.0
0.04306817284480965,-0.3445404357292309,0.8507965387926493,0.002816596677967407,-0.5267826630846408,-0.001868395564156587,0.8499932951233341,0.04699435431586225,0.40199226319036213,-0.6528150364067777,-0.0008613313670520137,0.2711418398011095,-0.5716345034915518,-0.002231853549753922,0.6663197874352673,0.9087133269428027,0.10458224495140571,0.7917729745820155,0.7527109426582876,0.0,0.0,0.0,0.0
0.04278215967372818,-0.3460852978613476,0.8505737581976288,0.0027657881574992124,-0.5265765708233355,-0.001857452804385904,0.8501211768594428,0.050231992794968615,0.39776258181647095,-0.6469550086215611,-0.005571947639450214,0.2741319520269729,-0.5660715082279695,-0.012239213898511719,0.6706282203367475,0.9018288510155427,0.11312274792128146,0.7894008915811223,0.7582199550391476,0.0,0.0,0.0,0.0
0.042191120007445064,-0.34749348945381126,0.8502520188904964,0.0026792684352232167,-0.5263409141169335,-0.0018217299976961857,0.8502674549499224,0.053150720039656346,0.3920451756204806,-0.6393334686145655,-0.010606348149402095,0.2773290123258392,-0.5602883905471694,-0.022689582408728738,0.6747582869787816,0.8942203305341203,0.12105826135207619,0.7857795143702446,0.7644220434325875,0.0,0.0,0.0,0.0
0.04128247867470491,-0.3487869666690357,0.8498606780333618,0.002552714006175913,-0.5260785458203899,-0.0017596331242647916,0.8504303328139081,0.05579136835691406,0.38464043704132195,-0.6294718809048182,-0.01608485474260202,0.2806604071360229,-0.5547242093150418,-0.03363578693447404,0.6786185776648206,0.8862248222747426,0.12849238238304514,0.7810478761698447,0.7710451862941016,0.0,0.0,0.0,0.0
0.04006719262108523,-0.3499783048335187,0.8494253860898912,0.002378463700636555,-0.5257965697158044,-0.001666101670901683,0.8506053928178096,0.05817424427436413,0.3754934871404578,-0.6171267320421708,-0.022133202316967256,0.2843042940145802,-0.5497749930997949,-0.045450933469946275,0.682314788614809,0.8781012716408491,0.13554067590213,0.7754034124735052,0.7778361766125024,0.0,0.0,0.0,0.0
0.03860022731086433,-0.35106262123949805,0.8489697627456751,0.0021445939709122917,-0.5255113618188211,-0.0015299513164884814,0.8507825036782298,0.06028051540645345,0.3648394813381844,-0.6025108892760707,-0.028832283713530117,0.2886817402612574,-0.5458898593510235,-0.05902333844459957,0.6862635278615166,0.8701778178275411,0.14233146916277814,0.7691775219819387,0.7845400786102893,0.0,0.0,0.0,0.0
0.03700963074289412,-0.3520059141224544,0.8485093623795164,0.001834004012259842,-0.5252510396576399,-0.0013295372165438234,0.8509443072837618,0.062024989147939774,0.3534598722873065,-0.5867581665094306,-0.03613606080970615,0.29440215680104337,-0.5436579097198323,-0.07603441237745955,0.6913805706713423,0.8629701934575088,0.1490070253650093,0.7628853372729204,0.7909523394817921,0.0,0.0,0.0,0.0
0.035532242549879356,-0.35272519709722894,0.8480191112416758,0.0014078537477191998,-0.524974000604548,-0.001007331406705618,0.851116503141913,0.0631972736762067,0.34334161757569853,-0.5736710641412541,-0.04387220955992952,0.30190038189773716,-0.5438773024527456,-0.09892079989435854,0.6988899374725875,0.8571455554031076,0.15579611020966616,0.7569897526296108,0.7969760124546335,0.0,0.0,0.0,0.0
0.034497237790168715,-0.35314459933664766,0.847614523435382,0.0008940557000686784,-0.5247863494959656,-0.0005853433466550146,0.8512333084532524,0.06368106872642364,0.3366137175441921,-0.5658530883547331,-0.05134759973611477,0.31180498742533835,-0.5483176361829561,-0.12895008843269484,0.7095575295241247,0.8536408383035642,0.16237378647141312,0.7530655324561226,0.8015516514843695,0.0,0.0,0.0,0.0
0.034060439999207645,-0.3533002965521547,0.8474658002835941,0.0004180468920036126,-0.524828177007393,-0.00015341575104921548,0.8512080746324602,0.06359464947999913,0.3336604311874088,-0.5623206701443397,-0.05642261428265209,0.3240924028220315,-0.5604610583498013,-0.15932481982067123,0.7209397690209831,0.8528612304442104,0.16805022720348065,0.7524267002803903,0.8035333793911231,0.0,0.0,0.0,0.0
0.03404220102265913,-0.35327692942458033,0.8474546588350012,0.0003806762645986882,-0.5248211612569705,-0.00015344419215842925,0.8512124178119973,0.06358417422990144,0.3335947200935745,-0.5623193291321624,-0.05645810070525557,0.32413090493228,-0.5604566172981982,-0.1593339252846447,0.7209723683101278,0.8528731948327786,0.16807291770021107,0.7523486188108384,0.8035017175997711,0.0,0.0,0.0,0.0
0.03404220102265913,-0.35327692942458033,0.8474546588350012,0.0003806762645986882,-0.5248211612569705,-0.00015344419215842925,0.8512124178119973,0.06358417422990144,0.3335947200935745,-0.5623193291321624,-0.05645810070525557,0.32413090493228,-0.5604566172981982,-0.1593339252846447,0.7209723683101278,0.8528731948327786,0.16807291770021107,0.7523486188108384,0.8035017175997711,0.0,0.0,0.0,0.0
0.03478855843871505,-0.35339590748159355,0.8477380978293458,0.00032710347741376176,-0.5249991015600769,-0.00013129660323671593,0.8511027077419205,0.06389485620169799,0.33768756008687484,-0.5671908081827841,-0.056250951688315766,0.32876275592270726,-0.5662254956076049,-0.15899614398135598,0.7244872785346678,0.8503320792661919,0.1698789913775207,0.7560939044557045,0.80123011324846,0.0,0.0,0.0,0.0
0.036398232726206826,-0.35361358029549483,0.848670069817573,0.00041847671644750845,-0.5259445938683568,-0.0005129407149074356,0.8505185747235094,0.06506439158075358,0.34425485903498665,-0.5688691957853154,-0.055170934772579255,0.33670451783286154,-0.5718585554441518,-0.16276006411517216,0.7358825626113236,0.8435974143494058,0.1707680996290296,0.7664337495255039,0.7946317137336938,0.0,0.0,0.0,0.0
0.037684056234251584,-0.35403220251556233,0.8493435696506466,-0.0003587018068514622,-0.5255392879608534,0.00022963689492410343,0.8507692257066598,0.058792808687807105,0.32995266526691125,-0.5522357616028146,-0.05510713637944122,0.3459631658665483,-0.585115522087267,-0.1519582679830005,0.739406383652667,0.8345111386339324,0.13853203932399674,0.7443775068689857,0.815382413887428,0.0,0.0,0.0,0.0
0.039289527196206785,-0.3545702376360937,0.8500056616187026,-0.0010413853989146504,-0.5253942469511322,0.0008294099523775603,0.8508578687808173,0.04949348246172685,0.3184112444468718,-0.5445761569794983,-0.054613550672348986,0.3569150183891652,-0.6002106337417946,-0.1424605385316276,0.7446439918306993,0.8258773197076755,0.10569059829907343,0.7269320313734371,0.8302715180629784,0.0,0.0,0.0,0.0
0.04093357666186815,-0.35524120137054804,0.8506763419420315,-0.0014940721341856437,-0.5255236352994017,0.0011303853390253757,0.8507769382859085,0.039850794883556626,0.3100462170971994,-0.5426999355755562,-0.0534620381670298,0.3676791342783398,-0.6142252787313703,-0.1355510500596202,0.7513941063480645,0.8175971766481854,0.07985008432421078,0.7151166834709004,0.8421507389133828,0.0,0.0,0.0,0.0
0.042426122413947186,-0.35606253465649634,0.8513227157877056,-0.0017782899193164179,-0.5257860957020749,0.0012525860460556666,0.8506140430768402,0.03113563947084506,0.3039313640572894,-0.5441990263904651,-0.05178943911185957,0.37743395711503824,-0.6264408931939509,-0.1297863701839578,0.7584527406015188,0.8095535001638838,0.06053000170738833,0.7071141313646231,0.8525138095220951,0.0,0.0,0.0,0.0
0.043639482513244746,-0.3570466071243901,0.8519144602268575,-0.0019582273122164522,-0.5260865410133508,0.0012879779453882792,0.850427808707602,0.02369297353872584,0.2992022832540877,-0.5476660935996469,-0.04968551761787281,0.38565593703838674,-0.6364286100330715,-0.12404231692171135,0.7649202174216401,0.8017760963381544,0.045525661961886454,0.7011631817787141,0.8619766944301088,0.0,0.0,0.0,0.0
0.04450825553922249,-0.3582110601603544,0.8524340725577341,-0.002073968385291778,-0.5263766145950859,0.0012864994135353353,0.8502480245092088,0.01743779967782143,0.2951879213607798,-0.5522768150348604,-0.0471717393171029,0.3921254241635785,-0.6440646885730124,-0.11763525615236976,0.7703014587351037,0.7943046944923634,0.033039126235760954,0.6960635474957979,0.870832179344081,0.0,0.0,0.0,0.0
0.04501077887840308,-0.35957828870484526,0.852870565607713,-0.002144729310015352,-0.5266353477015134,0.0012671377824826212,0.8500876455103515,0.012142695873215155,0.2914053819508719,-0.5575198311704906,-0.0442218855881022,0.3968383455465833,-0.6494786740143269,-0.11021706143170572,0.7743779106904719,0.7871723436402852,0.021981566313552005,0.6911244385292806,0.8792353944783007,0.0,0.0,0.0,0.0
0.04515061160067041,-0.36117278600866776,0.8532124932271776,-0.0021775661648597558,-0.5268552697365365,0.0012329093163298463,0.8499513297189767,0.007577034665665758,0.28756002983807843,-0.5630355984060954,-0.04078835760795935,0.3999097523177284,-0.6529554357160146,-0.10163751211743012,0.777070458299099,0.7804300175177303,0.011814337549468104,0.6860142185688386,0.887245402723103,0.0,0.0,0.0,0.0
0.044942659182484926,-0.36301835461166443,0.8534433137082165,-0.0021739051144989666,-0.5270344146837943,0.0011809272906756125,0.8498403410560113,0.0035577212835966173,0.28356057358126885,-0.5685048600144764,-0.03682068094873707,0.40150114887986377,-0.654851565015511,-0.09184811375401063,0.7783410803177119,0.7741774859912771,0.0023449112666125566,0.6806329983645897,0.8948044372412248,0.0,0.0,0.0,0.0
0.04440402570129857,-0.36513541807900923,0.8535388001168426,-0.0021331187432739734,-0.5271723149454451,0.0011075298132954604,0.8497550079506446,-4.84810741579883e-05,0.2795334219177592,-0.573552118833983,-0.03227688548679286,0.4017719408976327,-0.6555357269834606,-0.08085365120300038,0.7781328934162606,0.7685901594090363,-0.0064026281190311864,0.6750440033942016,0.9016706557422927,0.0,0.0,0.0,0.0
0.043548490146406785,-0.3675380595805677,0.8534665548544407,-0.002053697704293436,-0.5272689676578146,0.001009656897103879,0.8496953563858943,-0.003341530403862144,0.2758044136602692,-0.5776470125225778,-0.027130484499684044,0.40084544257480925,-0.6553376547053997,-0.06870538636195546,0.7763447654504068,0.7639344147774323,-0.014245497527518676,0.6694744054919743,0.9072924083003782,0.0,0.0,0.0,0.0
0.04238329313462563,-0.37023068566565215,0.8531898252811159,-0.0019334534996753446,-0.5273255941737887,0.000884610931888513,0.849660636342725,-0.006401631009265096,0.27278408618108163,-0.5800003223641387,-0.021376030431202456,0.3987783119875724,-0.6544792188635261,-0.05551279061727044,0.7728427616117984,0.7605420888417559,-0.020883349328336943,0.6643913554281425,0.9106006874719528,0.0,0.0,0.0,0.0
0.040906991282539794,-0.3732054184362383,0.8526814761622601,-0.0017714217024385843,-0.5273459445720452,0.0007324526984784413,0.8496485039836261,-0.009285218134935321,0.2706702064165372,-0.579501076337038,-0.015036705955260944,0.39552089641536425,-0.6529419479822955,-0.04142465727308928,0.7675253872801618,0.7586717681654014,-0.026022440206369943,0.6606107249237153,0.9098035165006876,0.0,0.0,0.0,0.0
0.03910591318754516,-0.37644446609389487,0.8519396567794233,-0.0015719360810656456,-0.5273269360108539,0.0005600642049475887,0.8496608252134779,-0.012031115052798571,0.2694644292787936,-0.5762024957220874,-0.008163828389764774,0.3908971085272556,-0.6504117201899002,-0.026561704326373885,0.7603702941984117,0.7583006676935509,-0.029688456320196486,0.6581610795767289,0.9048863972299742,0.0,0.0,0.0,0.0
0.036957258529328865,-0.3799182138533304,0.8509881492158836,-0.0013445469913145006,-0.5272585228615165,0.0003802397568147812,0.84970377054654,-0.014673803549333503,0.268970217727921,-0.5713241266584915,-0.0008408204747869658,0.3846210811925765,-0.646305563822257,-0.011047752413183294,0.7514523263403986,0.7591196584287873,-0.03225466886045218,0.6562747931924908,0.8975942403665932,0.0,0.0,0.0,0.0
0.03443832618123736,-0.3835772814005592,0.849863144468969,-0.0011000762138615554,-0.5271333244742941,0.00020671357728069956,0.849781857496675,-0.017263369048384623,0.26877827051829495,-0.5657665931730819,0.006804402047609819,0.3763402736751795,-0.6398503721685408,0.004886807707094723,0.7409278079776577,0.7607322471799755,-0.034173844591730514,0.6545047642960794,0.8889383473284297,0.0,0.0,0.0,0.0
0.031534900435664405,-0.38734926627848615,0.8486028725113177,-0.0008497491805049629,-0.5269457063309391,5.211986618280594e-05,0.8498985220538023,-0.019892005204281207,0.2685720032382787,-0.5601732299284853,0.01459557704249078,0.3656972701501159,-0.6302291751552284,0.02088852328197066,0.7289916066692426,0.7627871635635862,-0.035892444981311805,0.6526029378495393,0.8794165728594872,0.0,0.0,0.0,0.0
0.02825297006863386,-0.39113711023790537,0.8472453517077307,-0.000605462402709313,-0.5266937240053307,-7.278760517098179e-05,0.8500549095268141,-0.022688280589773215,0.2682677964650125,-0.5550249078723823,0.022308501954240015,0.35239594097087645,-0.6166867235883395,0.036498591772037965,0.7158838762421976,0.7650302558636838,-0.03789239510020918,0.6504344256302019,0.8692392354140251,0.0,0.0,0.0,0.0
0.024636174129163836,-0.3948190140970751,0.8458218499244794,-0.0003804233985641643,-0.5263820345670526,-0.0001590844784168119,0.8502480718326957,-0.02577890010446627,0.2680573484573702,-0.550704824512446,0.0296755988010908,0.3363140421658734,-0.5987265649041043,0.05119508703426688,0.7018804084008768,0.7674035791008861,-0.04076076601675055,0.6479714706746816,0.8584773238163288,0.0,0.0,0.0,0.0
0.02079090564459824,-0.39825232387717857,0.84432462629825,-0.00019118361965363197,-0.5259994355140507,-0.00016370598609412147,0.8504848796351842,-0.029286287623464705,0.268338228603676,-0.5476790270677452,0.03633003913721629,0.3178015682278167,-0.5768245329817978,0.0646243751149447,0.687050433453847,0.7702901729923884,-0.045007899297726306,0.6453301653545014,0.8472108752575375,0.0,0.0,0.0,0.0
0.017026394937304973,-0.40135639594853056,0.8427190083754842,-4.1461098295161495e-05,-0.5255183928617945,-0.00014564111182301527,0.8507822258566528,-0.03341395111719751,0.26934778569376644,-0.5454826100097979,0.0422580194815199,0.29890454414422085,-0.5547086432288785,0.0763053546440928,0.6718329809506687,0.7742811529065898,-0.05167757984939037,0.643143537475839,0.8354309692788898,0.0,0.0,0.0,0.0
0.013739932735536402,-0.4040058951042007,0.8410743989204374,5.801316256597524e-05,-0.5250138646430278,-0.00010906687245468035,0.8510936650401545,-0.03797176857290262,0.2713954215317686,-0.543982170962063,0.04726728272700575,0.2821570899993435,-0.5360319135984042,0.08603527063418952,0.6573762395413997,0.7794945853923562,-0.06156821838974617,0.6418661451778749,0.8232250098104645,0.0,0.0,0.0,0.0
0.011162758631892592,-0.40598691970697526,0.8395483409980381,0.00012579316332339953,-0.5245748902087983,-8.137806104529678e-05,0.8513642945978639,-0.04254981927951599,0.27432106603756895,-0.5440413865717065,0.050996577568458774,0.26886171612066356,-0.522045705779209,0.09302203757489727,0.6449082954286617,0.785666506240899,-0.07489620614023217,0.6411660997461002,0.8105826489545972,0.0,0.0,0.0,0.0
0.009623870673543703,-0.4071170229090371,0.8384198289796647,0.0001846062768601432,-0.5243092986220325,-0.0001012348344165325,0.8515278709769301,-0.04590817160161295,0.27737100476835674,-0.546309807626008,0.05316872598117014,0.26091356938073873,-0.5144812584883687,0.0966124180525835,0.6365070949018327,0.7914166774869277,-0.08819527452686662,0.6415170658168152,0.7982356441543553,0.0,0.0,0.0,0.0
0.009547083310197556,-0.4073739523412161,0.8383174356748376,0.0003711199173435851,-0.5243344247650082,-8.58956978586967e-05,0.8515123404263052,-0.04593782649406228,0.2774132120231559,-0.5463152443659547,0.05344092475117854,0.2606828041784931,-0.5144864125426991,0.09667812478621837,0.6363167316981546,0.7913196850828719,-0.08821796322488704,0.6415694242628098,0.7982483944234171,0.0,0.0,0.0,0.0
0.009547083310197253,-0.407373952341216,0.838317435674838,0.0003711199173431382,-0.5243344247650086,-8.589569785841526e-05,0.851512340426305,-0.04593782649406333,0.27741321202315666,-0.5463152443659574,0.053440924751177454,0.260682804178501,-0.5144864125427118,0.09667812478621954,0.6363167316981566,0.7913196850828742,-0.08821796322488865,0.6415694242628115,0.7982483944234168,0.0,0.0,0.0,0.0
0.009547083310197253,-0.407373952341216,0.838317435674838,0.0003711199173431382,-0.5243344247650086,-8.589569785841526e-05,0.851512340426305,-0.04593782649406333,0.27741321202315666,-0.5463152443659574,0.053440924751177454,0.260682804178501,-0.5144864125427118,0.09667812478621954,0.6363167316981566,0.7913196850828742,-0.08821796322488865,0.6415694242628115,0.7982483944234168,0.0,0.0,0.0,0.0
0.0111161883623233,-0.4087735243535848,0.8392120113114816,0.0004921928684026451,-0.525123246170434,-8.466133901321673e-05,0.8510260436144499,-0.04326087376057609,0.28320923248403235,-0.5479115077693449,0.05617214416533639,0.27125353635959143,-0.5256143991849648,0.1027902771212995,0.646150574806224,0.7809646130597949,-0.0837308176227829,0.649810428831673,0.7970660263356004,0.0,0.0,0.0,0.0
0.014278477833626867,-0.41152717416976015,0.8420555941708058,0.0007400544643117371,-0.5268426610131705,-0.0007432122570666339,0.8499621818007507,-0.03657235626470372,0.2929659555179297,-0.5422917499459095,0.06289531460311949,0.2900872080899688,-0.5395876555752351,0.1124006546417778,0.6727402503064748,0.7505479490885487,-0.07741796045499659,0.6714675891206408,0.7834365725821879,0.0,0.0,0.0,0.0
0.01733341532260574,-0.41427751526080264,0.8441854901314157,0.0009049749605034614,-0.5267406282147098,-0.00042812684158896516,0.8500254750980709,-0.031961059329161476,0.3078288967752958,-0.5590201257835438,0.059648883447217416,0.2870335377917476,-0.5342701928383287,0.09822786745144048,0.6638157243857674,0.7824231108665951,-0.06516965450587778,0.6879553963430156,0.7706000623170995,0.0,0.0,0.0,0.0
0.02080201124377387,-0.417306981866303,0.8456458696747686,0.000983329400352912,-0.5266604297881881,-0.0002760988303840171,0.8500751428715271,-0.026333315226387235,0.3258068387138294,-0.5831280435260191,0.05423604243055724,0.2828200467024458,-0.5338214504792074,0.0810168269509984,0.6593503349354307,0.8062950162327516,-0.05174467613471252,0.701746315577796,0.7648055878950558,0.0,0.0,0.0,0.0
0.024603840888613532,-0.4204260399163714,0.8466689214876507,0.0010842699685004965,-0.5265723646554642,-0.000291263723856574,0.8501295691276898,-0.02015091839195812,0.3457849190267157,-0.611778509910756,0.047946441614052315,0.2793901470945814,-0.5362332262264118,0.06670402710744151,0.6579337209257846,0.824681702791423,-0.03838064837728897,0.713831937690032,0.7631427942860599,0.0,0.0,0.0,0.0
0.028282981334502584,-0.42362246974252565,0.8476159140477976,0.001250741166229487,-0.5265860576749152,-0.00042137880243627853,0.8501208043265562,-0.013551356616076381,0.3635214202791334,-0.6357677440483719,0.04205088907754206,0.2771921237484809,-0.5401533259321375,0.05637221918736021,0.657772564925567,0.8399563262442831,-0.025019605979979327,0.72551573939783,0.7622262769790923,0.0,0.0,0.0,0.0
0.031632768151565,-0.42685562940004285,0.8486344999171161,0.001476522381231495,-0.5267094313832903,-0.0006132164223484047,0.8500438922427288,-0.006732177729689654,0.3779384245481848,-0.6529302431669977,0.037028379671858735,0.2758829426047682,-0.5448338654998407,0.04921922903013618,0.6580067240363378,0.853313367366359,-0.011565245172457697,0.737257569582587,0.7605032958369904,0.0,0.0,0.0,0.0
0.03455473086119903,-0.4300811266881064,0.8497074883516328,0.0017254381797537192,-0.5268684725509539,-0.0008277695483281246,0.849944674842126,0.00014652698095442458,0.3890722685953218,-0.6640450279764543,0.03281594183939929,0.2748751589725119,-0.5500062582260934,0.044090941907979055,0.6581546852120801,0.8653659260898157,0.0021152590805469627,0.7486570966853585,0.7578950906931775,0.0,0.0,0.0,0.0
0.03702453635087673,-0.4332483861504835,0.8507822877575303,0.001971226733570517,-0.5270148127294563,-0.0010409250007429934,0.8498531743213317,0.006934931387128574,0.39723932133782497,-0.6702717077702808,0.02914007077265223,0.2737547352951085,-0.5554773308498887,0.04001197573484482,0.6580957818871868,0.8764704253109413,0.015953779862124675,0.7592770975227259,0.7547755646097423,0.0,0.0,0.0,0.0
0.03906196062521643,-0.4363069630671219,0.8518101589828343,0.0021980803549665837,-0.5271248761077806,-0.001239616504667674,0.8497840883318724,0.01350090847164176,0.40286312974636407,-0.6727329224213925,0.025701539911072185,0.2723374401332263,-0.5610667578174371,0.03631025906560921,0.6578562721196232,0.8868370187286913,0.029747170272306517,0.7688193758279976,0.7515500198666443,0.0,0.0,0.0,0.0
0.040708594074216654,-0.43921317546628347,0.8527520559093862,0.002397262685249667,-0.5271897035002371,-0.0014172696497139418,0.8497430558714145,0.019738041894658415,0.4063975964191335,-0.6724413415496291,0.022262577532648924,0.2706554596919703,-0.5665585249596898,0.032551456678914896,0.6575214744995656,0.8965229777983106,0.043248708429532746,0.7771076273309734,0.7485718375167214,0.0,0.0,0.0,0.0
0.042012603195928803,-0.4419341598394756,0.8535746095815316,0.002564027222685281,-0.5272073601896039,-0.0015705525434121684,0.8497313448914421,0.025570047719502803,0.4082780139862344,-0.6702919643586307,0.018676872846810032,0.2689434317341892,-0.5716385166481929,0.02841847149210293,0.6572303868901052,0.9053696761688087,0.056236553558319684,0.7840275198288265,0.7461730252547857,0.0,0.0,0.0,0.0
0.0430186370373402,-0.4444495774831902,0.8542453022564801,0.0026954707692370236,-0.5271786364800531,-0.0016973680292132897,0.8497485149255264,0.03095153322318192,0.4088853869314712,-0.6670566119089061,0.014887291079170771,0.2676049550457055,-0.5758117564299654,0.02360483344915962,0.6572208890067198,0.912879348635063,0.06855427455383836,0.7894739357321324,0.7447101235952286,0.0,0.0,0.0,0.0
0.04376114582344215,-0.44675191217484317,0.8547320300975219,0.002789547073749715,-0.5271056671343048,-0.0017959867141792256,0.8497932739988857,0.03586646038756445,0.40851273882888417,-0.663344149318397,0.01090252420239514,0.26709364850968825,-0.5783025500057849,0.017766215794678616,0.6579270640535022,0.9180084123470481,0.08012571971260586,0.7933316258523573,0.7445666837428354,0.0,0.0,0.0,0.0
0.04426005579793172,-0.44884559911913147,0.8550138646701667,0.0028462821151697152,-0.5269944147033208,-0.0018667183277893684,0.8498619304994841,0.04032600009624717,0.4073177733227682,-0.6594670149963714,0.006754079154391052,0.26762338126088125,-0.5779855766411157,0.010600810948103119,0.6601046649726839,0.9189638393451706,0.09093100020045193,0.7955248087383363,0.7460381883645749,0.0,0.0,0.0,0.0
0.04451679629345834,-0.4507426408292001,0.8550951627469745,0.0028668571728469434,-0.5268485502196565,-0.001910205626055247,0.8499521971122038,0.04435456134234261,0.40529497301770545,-0.655376605636602,0.002460688608049151,0.26920953676950504,-0.5748711855944488,0.0021535061189708257,0.663703529381642,0.9157348392094418,0.10098260344848092,0.7960732159274861,0.7491443020812806,0.0,0.0,0.0,0.0
0.04451678875188976,-0.4524610433522704,0.8550052103887255,0.00285270879185722,-0.5266685154531908,-0.0019270823287118603,0.8500637759818844,0.04798564620598139,0.40229088855652945,-0.6506951484230658,-0.0019941404621903174,0.27168088762773746,-0.5701203650443369,-0.00721755563168076,0.667881904137798,0.9101097693962382,0.11031258130195472,0.7950913427635696,0.7536246126093411,0.0,0.0,0.0,0.0
0.04423753751526739,-0.4540244510226663,0.8547825653766591,0.002804819655837887,-0.5264564196969462,-0.0019189660358249299,0.8501953238614786,0.051264363209158836,0.3980617051762846,-0.6448437870359445,-0.006671321547397049,0.2746540427085247,-0.5645682742394743,-0.017185360749636377,0.672143989305051,0.9031684022039631,0.1189741519528512,0.79272931667817,0.7591261965701404,0.0,0.0,0.0,0.0
0.043656108845687776,-0.4554577369121385,0.8544619873358604,0.0027215627910758735,-0.5262136993677703,-0.0018860996249819182,0.8503459168608177,0.054237578765008725,0.39234971303381905,-0.6372365198237884,-0.011667466268855581,0.27783527460782975,-0.5587943465502446,-0.02758715266066151,0.6762274320372742,0.8955036246414448,0.1270497714665521,0.7891192911917789,0.7653308202309934,0.0,0.0,0.0,0.0
0.04275885809344507,-0.4567819502264431,0.8540722253601993,0.0025983487587346236,-0.5259424679414422,-0.0018266009945476988,0.8505142165350322,0.05694381001755128,0.3849521150938503,-0.6273970376787483,-0.017105860101131062,0.2811474364044035,-0.5532307136438389,-0.03848700143341824,0.6800407856489651,0.8874565933600441,0.13463925326293552,0.7843927975138905,0.7719687335239752,0.0,0.0,0.0,0.0
0.04155532582397539,-0.4580083267721119,0.8536381369235507,0.002427210007063728,-0.5256487117492623,-0.0017350158272311747,0.85069649711751,0.059400019959783265,0.3758113718360595,-0.6150881595048333,-0.023113239024728185,0.284759781503352,-0.548262114528642,-0.050279108515257756,0.6836888155818858,0.87929138157977,0.1418527419164879,0.7787377368390549,0.7787882333642575,0.0,0.0,0.0,0.0
0.04009876856617522,-0.4591299924115683,0.8531825002456574,0.00219586223360852,-0.5253471295407425,-0.0015996035366840878,0.850883665926711,0.06158254158901438,0.36516215624790005,-0.6005366244828216,-0.02976780163492946,0.289077237928732,-0.5443189392932529,-0.06389242082661513,0.6875867121778839,0.871344253563278,0.1488115704199686,0.7724750357416634,0.7855319428504871,0.0,0.0,0.0,0.0
