zhuoxili-jackie/tripod-support-walk/examples/pcbA样数据/trajectory_trotting_acc_015.csv
root_pos_x,root_pos_y,root_pos_z,root_rot_x,root_rot_y,root_rot_z,root_rot_w,FL_hip_joint,FL_thigh_joint,FL_calf_joint,FR_hip_joint,FR_thigh_joint,FR_calf_joint,RL_hip_joint,RL_thigh_joint,RL_calf_joint,RR_hip_joint,RR_thigh_joint,RR_calf_joint,FL_foot_joint,FR_foot_joint,RL_foot_joint,RR_foot_joint
0.01,0.0,0.8259446621,0.0,-0.523845373591082,0.0,0.8518133742594206,0.0,0.27,-0.52,0.0,0.27,-0.52,0.0,0.6572093368,0.8119390607,0.0,0.6572093368,0.8119390607,0.0,0.0,0.0,0.0
0.011550574048350705,-0.0005013187407068551,0.826898530396192,0.00011725891838948284,-0.5246358041492947,-3.7799754559733464e-05,0.8513267632502501,0.000972334079541357,0.2768000898066722,-0.5233776250623849,0.0009723340795413577,0.27911175032029156,-0.5281832862380944,0.0014753780152499134,0.6670340783027295,0.8042938812658319,0.0014753780152499162,0.6663936939030927,0.8070357782193596,0.0,0.0,0.0,0.0
0.014401483768168724,-0.0015459810203662162,0.828877617888638,0.00024940363014893004,-0.5262201445115456,-0.00020713499488219406,0.850348313576955,0.0033058123639315806,0.2882056361163769,-0.5259768306541872,0.0033078435718833068,0.2949989332522646,-0.5401653214060279,0.00478596418975685,0.6867740563376618,0.7878002710253688,0.004794586541874436,0.6847631013843571,0.796153874331701,0.0,0.0,0.0,0.0
0.01712952061906697,-0.0025954352428107807,0.8300654143827972,0.0005690810078291587,-0.5263188075290459,-0.0003001163857058914,0.8502870685351887,0.0052992250853090925,0.3042922997468983,-0.5474610557088555,0.006574402397095829,0.2915492959397353,-0.5378755741501444,0.011240021528495688,0.6776537470902956,0.8062562135040929,0.007654775449714612,0.6961432549141722,0.7874895895740235,0.0,0.0,0.0,0.0
0.020240220736991867,-0.003571679492214621,0.8310276222422036,0.0008803157508612586,-0.5263992642414536,-0.0004365852503172668,0.8502369370025947,0.007266465426815949,0.3231455775384066,-0.5743835135172292,0.010953192838054973,0.2872609200466704,-0.5391223111669684,0.019126928226816976,0.6704158238485172,0.8207785629627296,0.010081844265930213,0.7071760502768746,0.7806268430904817,0.0,0.0,0.0,0.0
0.02361360011809677,-0.004348840430218698,0.8317385334322153,0.0011155273564192273,-0.5263596436568099,-0.000546576314138341,0.8502611259974938,0.008881570160514527,0.34416668004670237,-0.6064636030821372,0.015107103751988961,0.2835650189917306,-0.5425917730868749,0.026734117525838028,0.6659355301092069,0.8328816970704067,0.012163446765772714,0.7174950094595494,0.7751408720800302,0.0,0.0,0.0,0.0
0.026729901826543875,-0.005034271199953236,0.8324600057479017,0.001355043524094307,-0.5265002199482022,-0.0006550004033407887,0.8501736606282355,0.010312058187333181,0.3620316745714418,-0.6318881127111924,0.019287408679472772,0.28093360652679356,-0.5471522436114421,0.03416211376968673,0.6630837907907076,0.843707495154018,0.013843414441805212,0.7278505544432683,0.7696180577995877,0.0,0.0,0.0,0.0
0.02940166355412839,-0.005630708908064582,0.8332149513496238,0.0015887479401160045,-0.5267409651642796,-0.0007629662401949974,0.850024028707602,0.011563659644992999,0.3763420080246882,-0.6505735715621948,0.023267744819125573,0.2788892596832116,-0.5524074107357926,0.04141858615517303,0.6606549637146033,0.8536339980902674,0.015145473753210988,0.737782731015179,0.7636023990364317,0.0,0.0,0.0,0.0
0.03155381447792112,-0.0061168454763035176,0.833964513829022,0.001803444083575512,-0.5270111686550621,-0.0008647890485067517,0.8498560041808051,0.012587243257634672,0.3872788249882876,-0.6635388291555988,0.026904977323406513,0.2769492704648054,-0.5581110939748354,0.04849415860349937,0.6580414236579688,0.8628537899567947,0.016029457097545174,0.7467525726597852,0.7573048354708912,0.0,0.0,0.0,0.0
0.03318152584371312,-0.006456118427164016,0.8346667224631067,0.0019897975685264973,-0.5272692223840171,-0.0009544017319668849,0.8496954142217811,0.013300703665659146,0.39522371042072857,-0.6719233858747979,0.030131530372625105,0.2747919767138495,-0.5640659480027025,0.05532854787749531,0.6550312482227274,0.8715051771468572,0.016369330494192015,0.7544128934511746,0.7510330102977908,0.0,0.0,0.0,0.0
0.03431902101572571,-0.006606592706045643,0.8352879470598872,0.0021417423763004173,-0.527494370988067,-0.0010261523080213528,0.849555206285582,0.013610620755160958,0.4006374325898476,-0.6768048030836967,0.03292387474997032,0.2722762984327796,-0.5700833855180576,0.06183541302414033,0.651616088527521,0.8796731981330455,0.0160007109781033,0.7605975884595007,0.7450396918543383,0.0,0.0,0.0,0.0
0.03501837996838451,-0.006528310696675758,0.835799992602226,0.00225533534155232,-0.5276778151745145,-0.0010753100324365388,0.8494409223386181,0.013429322824803197,0.40399517523197276,-0.6791665198954078,0.03528073642691153,0.2694457572792093,-0.5759432557806904,0.0678992814839656,0.6478967601546155,0.8873434225017875,0.014762693929215021,0.7652446281729586,0.7395354313204243,0.0,0.0,0.0,0.0
0.03533588518671808,-0.006188031739570359,0.8361748955533508,0.002327756821481343,-0.5278168641252319,-0.0010981826127166054,0.8493543038615485,0.012685633888841846,0.40574441931289823,-0.6798915262464146,0.03721401524157112,0.2665353982892089,-0.5813338353676026,0.07334596247322371,0.6440618186073286,0.8943242861371083,0.012528242891481096,0.7683239414256583,0.7347421251733345,0.0,0.0,0.0,0.0
0.03532332692445578,-0.005562448047693402,0.8363815842197722,0.002356467274182523,-0.5279119076199659,-0.001091819354102303,0.8492951623467145,0.011331235657317173,0.40627257275404155,-0.6797462910572221,0.03874811517191327,0.26395260025204975,-0.5857700738426217,0.07790246874795795,0.640422291152219,0.900119544125186,0.009226776068700294,0.7697904374104823,0.7309364037182549,0.0,0.0,0.0,0.0
0.035022140111631225,-0.004640813452850985,0.8363875501647258,0.0023389938588145405,-0.5279659467847917,-0.0010538136681094432,0.8492616661666296,0.00934508396681335,0.4058720696231074,-0.6793235676793752,0.03991958708007859,0.26216587912739003,-0.5884948750778262,0.08118774678767526,0.6375031539594195,0.9037219920013009,0.004857517502468682,0.76957569651942,0.7284438657230985,0.0,0.0,0.0,0.0
0.034459024992514874,-0.0034265072802849177,0.8361710483903995,0.0022750081313405476,-0.52798721723623,-0.0009844182639168635,0.8492486995538032,0.006737705437015752,0.40469063136918515,-0.6788964310629603,0.0407671367996837,0.2614157268872927,-0.5884114999054038,0.08283114771883175,0.6361553919925472,0.9034037667184669,-0.0005297462833983441,0.7676443189915784,0.7275183237577945,0.0,0.0,0.0,0.0
0.033641966046692444,-0.0019326595235108213,0.8357345228222315,0.002167694825276821,-0.5279815514491863,-0.0008864043439453736,0.8492526106617475,0.0035401522635022825,0.40271197965258254,-0.6783744003524079,0.04133007515296921,0.2617413193451348,-0.5855666051420458,0.08285322582109793,0.6364093638334505,0.8991656796785493,-0.0068677987310207175,0.7640456711415844,0.7281530564076579,0.0,0.0,0.0,0.0
0.032563272178466426,-0.00018204066239042556,0.8351047478726383,0.0020235316879778278,-0.5279513243586683,-0.0007649477089931962,0.8492718759516522,-0.0001953326457615522,0.3997771973510314,-0.6773431116343975,0.04165315983796253,0.26298942535468783,-0.5811634125624232,0.08167386402263223,0.6374774379479967,0.8927258910042982,-0.014068683574342829,0.7589221614372218,0.7300731813246992,0.0,0.0,0.0,0.0
0.03120856920249031,0.0017876656649058744,0.8343204458121544,0.001850637226933026,-0.52790239034468,-0.0006276776643451844,0.8493028007907292,-0.004381042827692423,0.3956349623021961,-0.6751576832285309,0.04179579812031377,0.26480804392486645,-0.5760932551370855,0.07975337385968802,0.6389016003922643,0.885075953490867,-0.02198599582320478,0.7524728283829908,0.7329158404710191,0.0,0.0,0.0,0.0
0.029565337669597166,0.003923581996757735,0.8334216302056583,0.0016570869863969655,-0.5278428245298028,-0.0004828907981924715,0.84934031664086,-0.008894008417186261,0.3900115051605858,-0.6711077798463296,0.04184696800201452,0.2669630890024426,-0.5710207030165299,0.07750542445117235,0.6404498154091307,0.8766981594931205,-0.030398812369108553,0.7449097370500943,0.7363549739032516,0.0,0.0,0.0,0.0
0.027632557046352965,0.006158085846258635,0.8324488418946661,0.0014519467997864005,-0.5277853793988003,-0.00034067456744304206,0.8493764589887067,-0.013575816330703976,0.3826648661548959,-0.664493049769838,0.041923384873476376,0.26948489982352863,-0.5665182671019529,0.07535710887614569,0.6420326592754538,0.8677785040839825,-0.039034839896763734,0.7364718680626477,0.7401234954979384,0.0,0.0,0.0,0.0
0.02543267044180843,0.008409250123170911,0.8314444463428129,0.0012471740627775512,-0.5277524852317029,-0.00021497657037202397,0.8493972643431885,-0.018232329115160633,0.3734433454593105,-0.6546829851951006,0.042153747633519256,0.27272759163393834,-0.5632153137706735,0.07386769871112288,0.6436732476128284,0.8583396285433755,-0.04760742190466471,0.7274563360843599,0.7440207878396806,0.0,0.0,0.0,0.0
0.02302709617288888,0.01058045893276539,0.8304469949227884,0.0010598039992629434,-0.5277836589535491,-0.0001268101296980137,0.8493781667056659,-0.022630688658487184,0.36236871487438804,-0.6412326129666824,0.04265409862209727,0.27739717526167934,-0.56198883138285,0.07385809289747472,0.6455286848093171,0.848318503176582,-0.05585973752967458,0.7182175574901722,0.7480076707290259,0.0,0.0,0.0,0.0
0.020535795218859215,0.012556315773808635,0.829459895576262,0.0009075407346393286,-0.5279382009783338,-0.00012451649462634845,0.8492822951252533,-0.026448136806180612,0.34979787171803034,-0.6242439262198761,0.04355556453878362,0.28459347358690185,-0.5644189823717815,0.07644848328367182,0.6479215075852155,0.8377190411588764,-0.06363872237560017,0.7090006571059589,0.7525572406246519,0.0,0.0,0.0,0.0
0.018492109870890235,0.014353313797149964,0.8284080588957838,0.0008104889381784476,-0.5282129344541678,-0.0002082869348961771,0.8491115330741603,-0.02976614953414475,0.33933869832644664,-0.6100249609912043,0.04462501018045932,0.2953842242970838,-0.5717178971457427,0.0827657535208583,0.6523560683215458,0.826416013476343,-0.0713105448754323,0.7004328073798182,0.7584414737624536,0.0,0.0,0.0,0.0
0.017097186754956563,0.01578447895945465,0.8274057361818039,0.0007649079904817295,-0.5288383956994746,-0.0003999520447813409,0.8487221018614597,-0.032163917090768754,0.3315604769418768,-0.597866792200358,0.046286897525692185,0.3114670908831412,-0.5881132844733659,0.09405667875094077,0.6593086917526972,0.8141375687613464,-0.07836200061816966,0.693784365404374,0.7659182703079813,0.0,0.0,0.0,0.0
0.016580040473327853,0.01663001938174494,0.8266169773481922,0.0006771259231267068,-0.5299082364984888,-0.0006389577502039889,0.8480544759179914,-0.033236273846979116,0.32746856069083063,-0.5884686814659797,0.048774091251909256,0.3337266751555349,-0.6188826789750599,0.10865690126473376,0.6691555302099826,0.8004027582695044,-0.0833039283570159,0.6905871339060214,0.7744811271240157,0.0,0.0,0.0,0.0
0.016484248409479794,0.016943200588727145,0.8265281990891659,0.000418405430302858,-0.5299767710465945,-0.0006428625428988165,0.8480118123090459,-0.033580380204403355,0.3273160482003518,-0.5885102829129837,0.048801148380307226,0.3337699709534284,-0.6188857857203639,0.10867724907940816,0.6691874296071219,0.800410694126942,-0.08340388866347419,0.6904809132249986,0.7744402104357349,0.0,0.0,0.0,0.0
0.016484248409479794,0.016943200588727145,0.8265281990891659,0.000418405430302858,-0.5299767710465945,-0.0006428625428988165,0.8480118123090459,-0.033580380204403355,0.3273160482003518,-0.5885102829129837,0.048801148380307226,0.3337699709534284,-0.6188857857203639,0.10867724907940816,0.6691874296071219,0.800410694126942,-0.08340388866347419,0.6904809132249986,0.7744402104357349,0.0,0.0,0.0,0.0
0.017272274062935574,0.018460795263345185,0.8271025689492901,0.00035231443275107554,-0.5296033799121217,-0.0005887082821857439,0.8482451233474648,-0.03676555938216613,0.33548250620325804,-0.6027865101470148,0.045706120588381395,0.3371584389106299,-0.6236626976824231,0.1023777519370465,0.6722996419647812,0.7985525282997554,-0.08960386356049566,0.6952032546586032,0.7624575415439883,0.0,0.0,0.0,0.0
0.019393667938870977,0.021446934934453456,0.8297882071947589,1.5289060538885898e-05,-0.5301797694700411,0.00014801129832018093,0.8478852457164202,-0.04409514322673115,0.3498923345814223,-0.6158675946773015,0.03839209518398671,0.3425873543604634,-0.6170658123458727,0.09472230768334161,0.6889607101296784,0.7828400841404939,-0.09868770533465232,0.7178049095506936,0.7273465637388379,0.0,0.0,0.0,0.0
0.02086109059288197,0.02451650946058878,0.8315245692115125,-0.0002171597219650276,-0.5289566731459606,-0.00012667071182893106,0.8486487935126894,-0.04254098077282791,0.3277399415685255,-0.582063250266891,0.03300631707253226,0.3483062755573141,-0.6251603554318088,0.07998754396755028,0.698005585668168,0.7713225238648912,-0.08646203585031453,0.6958769726438694,0.7672215963691198,0.0,0.0,0.0,0.0
0.022873166602683077,0.02786179836694454,0.8327106005073686,-0.0004386128423567268,-0.5281754778897024,-0.00017640351659877444,0.8491351135458705,-0.04024769190868116,0.3107277221828061,-0.5638942276629464,0.02656178792569093,0.3567422151605281,-0.6372009464859913,0.06556551082626412,0.705668828547314,0.767069487268529,-0.07302183479154548,0.6821058450769533,0.7947709229207042,0.0,0.0,0.0,0.0
0.025356953920403193,0.031192471059979465,0.8336566226020038,-0.0006986396205086623,-0.527686273776458,-4.1067452411808874e-05,0.8494390541316439,-0.0371759016110118,0.29909367317006796,-0.555512940730634,0.019768413468392296,0.3675924551542795,-0.6522887475257452,0.05235814805881506,0.7133498901340464,0.7657160734847127,-0.06264314430035693,0.6742999949205463,0.8145556672834344,0.0,0.0,0.0,0.0
0.02781289206618799,0.03447946768323467,0.8346543471118045,-0.0009959474717686093,-0.5274988094028303,0.00018064057757870018,0.84955516685864,-0.03431529459771028,0.29158846396726273,-0.5530932821441608,0.012857651984677438,0.3771383465258309,-0.6631170242284049,0.03975202426615084,0.7218521793033084,0.764274050322085,-0.05605007003559748,0.669489010125095,0.8299881068379303,0.0,0.0,0.0,0.0
0.030098929281207745,0.03764949757205624,0.835709311267158,-0.001295575721996711,-0.5274550652800881,0.0004291267075198627,0.8495818332828189,-0.03175903219821282,0.2866385363479196,-0.5540853427962159,0.006091937840523478,0.3851119921238241,-0.6702534322304923,0.027521267841194803,0.7307757849231528,0.7619928373083795,-0.05214480008891509,0.6662516082619508,0.8428359854470439,0.0,0.0,0.0,0.0
0.03213152705868888,0.04065529517378592,0.8367728579739174,-0.0015737448456057943,-0.5274685765948125,0.0006689578019521918,0.849572820026431,-0.029441401280554537,0.2831005518316695,-0.5570607086537501,-0.000363416297465116,0.39141733674595697,-0.6743221057760338,0.015608125487588451,0.7395743118875051,0.7590358697891987,-0.04977362971002627,0.6638567796454752,0.8541169573279519,0.0,0.0,0.0,0.0
0.03387043429259302,0.043459630929183986,0.8377967930339806,-0.0018174315223760881,-0.5274943886132508,0.0008823984392666081,0.8495561125065186,-0.027212934569123565,0.28020804238259295,-0.5611764903706585,-0.0063947202775141475,0.39608966561857656,-0.6758969670171284,0.004095364347807939,0.7478136704644925,0.7557423602569943,-0.048057416190995676,0.6619077689081426,0.8644179236320131,0.0,0.0,0.0,0.0
0.03530372001107603,0.04603239915156463,0.8387442111289809,-0.002020915241000484,-0.5275112964854896,0.0010621994104545562,0.8495449486131967,-0.024909894586069552,0.2775167690418732,-0.5658856768394088,-0.011921346879980033,0.3992474088639411,-0.6754871106436738,-0.006860530985747281,0.7551982277115781,0.75243326787191,-0.046421211854855135,0.6601874691030233,0.8740550664166838,0.0,0.0,0.0,0.0
0.036435158254780574,0.04835106840929746,0.8395864304765155,-0.0021826283077642475,-0.5275103185469154,0.0012066398887694296,0.849544962895067,-0.02240081747045509,0.2748656254349711,-0.5707584660897835,-0.016888704150895908,0.4010476602664722,-0.6735460460333162,-0.017088036859953935,0.7615242688675217,0.7493994955653556,-0.04449922302581579,0.6586023367303743,0.8831238813216886,0.0,0.0,0.0,0.0
0.03727440770822016,0.050401609002956496,0.8402968774214503,-0.0023028664664574003,-0.5274878407429657,0.0013164061900762228,0.8495584392783724,-0.01961034627442252,0.27235061588591963,-0.5753493138282698,-0.021265473918681756,0.40164853781748727,-0.6704768917593154,-0.02644267620549101,0.7666225618390601,0.746944215090182,-0.04201769013068352,0.6571742025706435,0.891473923028473,0.0,0.0,0.0,0.0
0.0378296241016791,0.0521792490589295,0.8408463185738035,-0.0023823327186100235,-0.5274420175190003,0.0013928310949227,0.8495865480737353,-0.016524260669888116,0.27027908241929577,-0.5790777301522663,-0.02504252542639382,0.4011769788362405,-0.666621877417024,-0.03483300810122636,0.7703139438483066,0.745423668190914,-0.03869606341410662,0.6560701230951775,0.8986079392495165,0.0,0.0,0.0,0.0
0.03810199404687254,0.053689078786284816,0.8412029355912015,-0.0024215002928130373,-0.5273716567543345,0.0014371602413067596,0.8496300409937028,-0.013175851723521146,0.26903818748771746,-0.5811119782163866,-0.028232544407395213,0.39969604879922854,-0.6622167722433092,-0.042232510797425286,0.7723971929016218,0.7452428440297759,-0.03420277264276591,0.6556830482948321,0.9034884864348599,0.0,0.0,0.0,0.0
0.038081804095226,0.05494600727519895,0.8413433579120957,-0.0024215595457364467,-0.5272780374145973,0.0014519681126844962,0.8496881187224973,-0.009610126086054346,0.2687939712701868,-0.5802981817245387,-0.030870359712725802,0.3971599839103665,-0.6572621939926125,-0.04866422300334354,0.7727022002941658,0.7467356662579472,-0.028242978288745328,0.6567401022292602,0.9043361004361694,0.0,0.0,0.0,0.0
0.037744323434482585,0.05597130041489568,0.8412669577560964,-0.0023820609919005713,-0.5271571778935221,0.001437868863328229,0.8497632423880784,-0.005851098338502295,0.2695204159722516,-0.5766448351085308,-0.03300036751484927,0.39338948465132756,-0.6514741478492498,-0.05420504726895663,0.7711511726510821,0.7499704224856524,-0.020898931315656646,0.6591605848865465,0.9011138392753718,0.0,0.0,0.0,0.0
0.03705230397590614,0.056792334641988726,0.8409959078309941,-0.002300117984279582,-0.5269988000106989,0.0013930430296979367,0.8498617732759012,-0.0018857299182529286,0.2709987626910864,-0.5713293618445632,-0.03467560400150174,0.38808409799359017,-0.644308594722954,-0.05898499135305574,0.767762963957837,0.7547412197005955,-0.012605963272117594,0.6620566731029675,0.8955407125121033,0.0,0.0,0.0,0.0
0.03596489213338551,0.05744422813716036,0.8405606878411371,-0.0021714402197523363,-0.5267928571738602,0.0013158320330315285,0.8499899052718413,0.0023325733143210433,0.2727829117910032,-0.5652097102644238,-0.03596595561700542,0.3808711824006829,-0.635055920282963,-0.06317876414778344,0.7626013816496021,0.7607501030977778,-0.003789161150243723,0.6648626570939656,0.888629288484174,0.0,0.0,0.0,0.0
0.034447019968592056,0.05796689838027174,0.8399883450416855,-0.0019893389876613865,-0.5265283421253031,0.0012031928541644402,0.8501543976220599,0.006864000332585114,0.2744944687936118,-0.5588772556801743,-0.03695129353048373,0.37138042039494573,-0.6230155119633539,-0.06700709863969598,0.755733184446569,0.7677242388281633,0.005249174117378932,0.6672187626875066,0.8809083809594489,0.0,0.0,0.0,0.0
0.03248293625255961,0.05840022375020303,0.8393007206731213,-0.0017463508444504326,-0.5261959951409318,0.0010515178299172645,0.8503608759030638,0.01176368268099441,0.27594971142700786,-0.5527394428955134,-0.037712257375144165,0.3593262564544049,-0.6076206051478551,-0.07070107346684859,0.7472534908652241,0.7754282934958144,0.014345648439916012,0.668908908296574,0.8726547251206128,0.0,0.0,0.0,0.0
0.03009684286731605,0.05877658008030319,0.838514253684166,-0.0014383275339300008,-0.5257943220839245,0.0008591928750494459,0.8506100892099827,0.017053317106420888,0.27719590587067644,-0.5470674594039983,-0.0383166497304367,0.3446380197656393,-0.5886196546291249,-0.07443502264948325,0.7373376551111052,0.7836654487167415,0.023521488493524118,0.6699117167863267,0.864067150213818,0.0,0.0,0.0,0.0
0.027384543181017712,0.05910905053888107,0.8376312859438602,-0.001071762784277016,-0.5253376515775809,0.0006306119275185069,0.8508929459621128,0.02268430611710523,0.27848995843713115,-0.5419684147857203,-0.03879773719554515,0.32770512939050733,-0.5664811023795218,-0.07822636299538005,0.7262702000521315,0.7923733969396536,0.03315739109157588,0.6706021901575541,0.8554031110837118,0.0,0.0,0.0,0.0
0.024559663289928514,0.05937093807768728,0.83660302297384,-0.0006584041873533444,-0.5248095542373143,0.0003655172648019197,0.8512193399367091,0.028586625446108245,0.28002688667799774,-0.5372021574004651,-0.03910468031974619,0.3100324336554568,-0.5439531751891611,-0.08192878472856753,0.7142670207799799,0.8018365739812182,0.044263253918391796,0.6718900239234813,0.8470279780980942,0.0,0.0,0.0,0.0
0.022039779236898496,0.059467945527405745,0.8354078711926028,-0.00025506827077851214,-0.524195689206808,9.558712104788654e-05,0.8515977954529234,0.03477071414903198,0.2816578181884809,-0.5318113801978336,-0.03908033195113442,0.29496168571294384,-0.5268280009050396,-0.0847528142325046,0.7020496399069304,0.8119435036231382,0.05872141125351942,0.6752898962948571,0.839350667569248,0.0,0.0,0.0,0.0
0.020017603515008937,0.05943847539578519,0.8342647963329692,5.8051895069386715e-05,-0.5236003004565845,-0.00010670244642310016,0.8519640312867321,0.04035556589142868,0.28297248257693797,-0.5260575049166135,-0.038868313984794976,0.2834582358337487,-0.5152706452656447,-0.08625824313691771,0.6911925614082515,0.8209766606426382,0.07637939352960914,0.6804563967096826,0.83283472863681,0.0,0.0,0.0,0.0
0.018751711603716446,0.059315495164933896,0.8334747429465376,0.00015239082622557865,-0.5230910129586718,-0.00013843632669767293,0.8522768034941993,0.04412703508252354,0.2826417662667952,-0.5202172193014099,-0.038618156497237405,0.2768124697756561,-0.5097512123182607,-0.08558315263989372,0.6836041675351255,0.8264194519217734,0.09383341922489356,0.6856006002175459,0.8279646329931857,0.0,0.0,0.0,0.0
0.01870341990529483,0.05922432431769031,0.8334348220371801,0.00024499530994012567,-0.5230864387133803,-0.0001358238070346008,0.8522795897845639,0.04416609190091794,0.28267930815559866,-0.5202157559990189,-0.03853567316821903,0.27665549748905877,-0.5097412091459598,-0.08558693991754272,0.6834607348932481,0.8263547896546899,0.09383447916944465,0.6856484061734947,0.8279807677582796,0.0,0.0,0.0,0.0
0.018703419905293166,0.05922432431769067,0.8334348220371816,0.0002449953099368308,-0.523086438713382,-0.00013582380703477574,0.8522795897845629,0.04416609190091919,0.28267930815561154,-0.5202157559990314,-0.038535673168215774,0.2766554974891044,-0.5097412091460296,-0.08558693991754124,0.6834607348932443,0.8263547896547137,0.09383447916945564,0.6856484061734981,0.8279807677582846,0.0,0.0,0.0,0.0
0.018703419905293166,0.05922432431769067,0.8334348220371816,0.0002449953099368308,-0.523086438713382,-0.00013582380703477574,0.8522795897845629,0.04416609190091919,0.28267930815561154,-0.5202157559990314,-0.038535673168215774,0.2766554974891044,-0.5097412091460296,-0.08558693991754124,0.6834607348932443,0.8263547896547137,0.09383447916945564,0.6856484061734981,0.8279807677582846,0.0,0.0,0.0,0.0
0.020069469443678024,0.059082405463233865,0.8342425879406095,0.0003314819179413733,-0.5238084778874911,-0.00018426470924929038,0.8518359787303215,0.04449069091246616,0.2890261183636047,-0.5238889281476914,-0.038274227342708717,0.2838121161023017,-0.5152742250494609,-0.08645417407993801,0.6922225344430077,0.8205890881237616,0.09475337188781087,0.6940769642570872,0.8229197501296451,0.0,0.0,0.0,0.0
0.022575419857198416,0.05895771604934481,0.8358097108406817,0.0004307958314379663,-0.5252174065182998,-0.00022627333203557677,0.8509679424664138,0.04476923019783392,0.3005449931271354,-0.5298163158892464,-0.03809140859921277,0.2961604506150535,-0.5231032781338835,-0.08824186601285829,0.7088581476565087,0.8095939957904489,0.09642978856540861,0.7104143678269739,0.8125241945980007,0.0,0.0,0.0,0.0
0.025027117092577742,0.0588770789533371,0.836779024779739,0.0008155858750706615,-0.5254269136597087,-0.0005101166452194266,0.8508381943723035,0.04524336627524415,0.3160507322653904,-0.550480912977011,-0.0330576734403837,0.2945906248981692,-0.525469993715976,-0.0685681512812003,0.6987126384163228,0.8229346472392051,0.09433730470277714,0.720590885659813,0.8034032315015422,0.0,0.0,0.0,0.0
0.027803126592835948,0.05896696986687654,0.8375978418787375,0.0012191752685464362,-0.5256009071597001,-0.0008078933503100306,0.850730008470901,0.04541184359851994,0.3340796460457158,-0.5760347934364308,-0.026126329658394003,0.29141873632053833,-0.5296568627779801,-0.048058104663068,0.689858253326481,0.8340468824178643,0.09126437301356773,0.7307048100031356,0.7950541457068904,0.0,0.0,0.0,0.0
0.030625392340622497,0.05923955706586395,0.8382566822969482,0.0015253355152013927,-0.5257223864984422,-0.0009989532285236665,0.850654246905519,0.04510531391430333,0.35256720690768073,-0.603330472922229,-0.01912606702285894,0.2881986275722478,-0.5349007572361283,-0.03139610330363268,0.6837687213040495,0.8440430306470875,0.08826722145872525,0.7403355152499068,0.7875044195632167,0.0,0.0,0.0,0.0
0.033190881700661756,0.059620599631991934,0.8389001588224207,0.0017864005536952943,-0.5259576221871215,-0.0011357746985190052,0.8505081413203316,0.0444797130793533,0.36857379150594094,-0.6258510646510889,-0.012555070905479216,0.28553088433559015,-0.5405587012169548,-0.018144897136867885,0.6796543158945906,0.8535690399408672,0.08515647415743414,0.7497765158699266,0.7800359081650451,0.0,0.0,0.0,0.0
0.03533503219642983,0.060085590780423394,0.8395385657731136,0.0020071954447592414,-0.526253689725749,-0.0012379040995443447,0.8503243456528349,0.04360814585444797,0.38149267908283135,-0.6429341212807161,-0.006669649471057794,0.28319776200776065,-0.5464951994257313,-0.007030206143019777,0.6762575410910134,0.8627051280993387,0.08182718616031553,0.7585279275655432,0.7724900799517187,0.0,0.0,0.0,0.0
0.036993178598822236,0.06064269099860776,0.8401474323394295,0.0021899490182657917,-0.5265609009053371,-0.001315382501769631,0.8501335727577938,0.04249198415722937,0.3913655434114188,-0.6551121655273643,-0.0014963749150597788,0.280878971179742,-0.5526134124189912,0.0028716742275894432,0.6728489879184176,0.8714402359157332,0.07812830692136208,0.7661512563921236,0.7650263859581351,0.0,0.0,0.0,0.0
0.03816432349142995,0.06131972873822022,0.8407001631431507,0.0023354945175109473,-0.5268494278556503,-0.001371404154721105,0.849954319410271,0.04108428012767093,0.3984985220304798,-0.6632299373265356,0.0030444088292842135,0.27833181109576016,-0.5588157412563618,0.012075521063357306,0.6691071374684162,0.8797819509462808,0.07389509889449014,0.7724038727215932,0.7578348886881098,0.0,0.0,0.0,0.0
0.0388828509891357,0.062153239279215164,0.8411732664596857,0.0024436814803932886,-0.5271040648431491,-0.001405216320765759,0.8497960688387206,0.0393150299074003,0.4033078457082168,-0.668196913238956,0.007055711189287111,0.27544367246329676,-0.5649811785759248,0.020803675374478685,0.6649563703706379,0.8877286455549849,0.06897122167818892,0.777193129385813,0.7510712718771879,0.0,0.0,0.0,0.0
0.03919884746271334,0.06318063249715002,0.8415436276367686,0.0025138715873081903,-0.5273182183860919,-0.0014145953360278154,0.8496629778493328,0.03711073291852164,0.40623682578653714,-0.6708984197066277,0.010626249694667248,0.27226277633807533,-0.5709337436191139,0.02908873048211055,0.6604657911970157,0.8952070661031665,0.06322299808708497,0.7804992605270041,0.7448834685372373,0.0,0.0,0.0,0.0
0.03916539753334447,0.06443497748261862,0.841784741882056,0.0025450629353663324,-0.5274895721728042,-0.001397189273514619,0.8495565441839295,0.03440715578363044,0.40770686422814084,-0.6721588388461498,0.01382324310229347,0.2690203515784809,-0.576390975435332,0.036823302010015296,0.655811253977178,0.901983710244106,0.05655233894643945,0.7823102380300458,0.7394584426399722,0.0,0.0,0.0,0.0
0.03883058890807408,0.06594117140077017,0.8418647567012757,0.002535762720936499,-0.5276179661671111,-0.0013508743155521545,0.8494769136496223,0.03115748637970493,0.4080823668385672,-0.6727078752541265,0.016700726147085433,0.2661181321271636,-0.5808877703739938,0.043767568659523096,0.6512982151701502,0.9075288532062759,0.04891125196114508,0.7825827149659341,0.7350559146534914,0.0,0.0,0.0,0.0
0.038232294583411104,0.06771252894161209,0.841749182767475,0.0024841221825419742,-0.5277054280488976,-0.00127381983032118,0.8494228556659821,0.02733854086620634,0.4076350949717959,-0.6731137776124461,0.019308764897147803,0.2640194182508506,-0.5836816597522144,0.049563106206887746,0.6474492359396992,0.9108042682060118,0.04031437067710073,0.7812406940526382,0.731994939755173,0.0,0.0,0.0,0.0
0.037394431890630395,0.06974815949098974,0.8414140842981882,0.0023900993969773027,-0.527759251567678,-0.001166654163232829,0.8493898390772404,0.022957156096125305,0.40649358990161105,-0.6736286731175068,0.021690856251713127,0.2629614362379166,-0.5836872864437926,0.05385489883849601,0.6451209478602566,0.9100533720494473,0.030823349126369082,0.7782392413256705,0.7305268962822083,0.0,0.0,0.0,0.0
0.036323151083699996,0.07203562651387446,0.8408608109096343,0.0022571088058138305,-0.5277848422164889,-0.0010325633038214255,0.8493744754814441,0.01804326886516841,0.4046206429125007,-0.6741303590477713,0.02388734981658088,0.26298486887995076,-0.580957318467256,0.05665388848461836,0.6443626326029095,0.9052820634398976,0.02051615262846218,0.7736226326150618,0.7306397803552226,0.0,0.0,0.0,0.0
0.035009938596594584,0.0745508056329756,0.840116119440224,0.0020919893848918045,-0.5277845375485991,-0.000877248411832615,0.849375262142858,0.0126517976650562,0.4018369758287723,-0.6741664480664712,0.025945452493504363,0.2639415985539809,-0.5766951906791229,0.05835493431243314,0.644415341932661,0.8982394436740585,0.00949422261226995,0.7675338964196642,0.7320503737662516,0.0,0.0,0.0,0.0
0.03344051038004942,0.07725310645802295,0.83921894913518,0.0019034260670369762,-0.5277641430505957,-0.0007088537336130519,0.849388535245009,0.006876301665594134,0.39787570537463685,-0.6730608580261175,0.027933530030080644,0.2654855443319724,-0.5717891037879681,0.05940718163338946,0.6448510525828524,0.8899378055000281,-0.002075703146560703,0.7601756366538281,0.7343901063237062,0.0,0.0,0.0,0.0
0.03160283513018797,0.08008462860134977,0.8382095995373197,0.0017005024720112218,-0.5277315868349661,-0.0005363159116314985,0.8494093200061054,0.0008504545844163986,0.392450662205331,-0.6700770796204355,0.029956184278629165,0.26738962341304184,-0.5668971795906949,0.06023461940512576,0.6454629214663677,0.8808679620881151,-0.013945095634386284,0.7517633979124279,0.737334415003753,0.0,0.0,0.0,0.0
0.029496275919773333,0.08296984805359528,0.8371286663118199,0.0014938747612574664,-0.5276993748669315,-0.0003707032162401723,0.8494298091557495,-0.005249921591873631,0.3853074628078577,-0.6644889999590863,0.03214485158145833,0.269692620792199,-0.5625814233235295,0.061296961365258584,0.6461794748832133,0.8712128700950611,-0.025807001380261412,0.742535246777888,0.7406322467917215,0.0,0.0,0.0,0.0
0.02714283445591637,0.08581528343438823,0.8360169378176145,0.0012979189180583426,-0.5276890783885593,-0.00022787905415087075,0.8494365779898178,-0.011204207316686088,0.3762791308935757,-0.6556429640257959,0.034625068271685426,0.2727535950640229,-0.5594551516362254,0.063205928088927,0.6470306732672106,0.8609767940004406,-0.037336049214044785,0.7327702978311745,0.7441303067669486,0.0,0.0,0.0,0.0
0.024601000517895905,0.08850877038155562,0.8349056239748703,0.0011329497797631172,-0.5277318613353592,-0.0001384909804521043,0.8494102541037293,-0.016729706969207433,0.36537889226081033,-0.6431326167381352,0.03747729718928039,0.27725488174081203,-0.5584011491022097,0.06680915748166705,0.6481468161332683,0.8500571274910848,-0.04826404489014548,0.7227373500607202,0.7478844501253491,0.0,0.0,0.0,0.0
0.021969613614691776,0.09091685625606628,0.8338029434893625,0.0010199729851018589,-0.5278900992323281,-0.00015081565054378215,0.8493120628145063,-0.021468236897261093,0.35279528633195645,-0.6267382406398738,0.040858934737272874,0.28425801574507364,-0.561014977574104,0.0733630179013724,0.6497497848233271,0.8383973541229883,-0.05837184346089831,0.7126594286203722,0.7523899643710672,0.0,0.0,0.0,0.0
0.0198060551207358,0.09305743765227513,0.8326396308464676,0.0009845425917116666,-0.528167853348265,-0.0002643579130624467,0.8491393757683507,-0.025506843344368486,0.34226405138791177,-0.6129097082531287,0.044426004741003694,0.2947930174065587,-0.5683963719539195,0.08398228008483993,0.6534014963993131,0.8257877978866874,-0.06807813535224012,0.7032544502251654,0.7583810707600094,0.0,0.0,0.0,0.0
0.01831181311795231,0.0947292773297856,0.83152085058308,0.0010218647427626916,-0.5287878762268061,-0.0005055758055683592,0.8487532516232832,-0.02838938364855031,0.3343650266211815,-0.6010246994876272,0.04831823634685506,0.31046690754688633,-0.5847194106307135,0.09963019887233052,0.6596133881329809,0.8118475355052004,-0.07684404879730686,0.6957080790932862,0.7662350226045642,0.0,0.0,0.0,0.0
0.01772463254356503,0.09570640019711989,0.83062634960901,0.0010234187933633432,-0.5298502271580426,-0.0007977555743147527,0.8480902387013941,-0.029718334129458467,0.3301308614091527,-0.5917661806355752,0.05225565583616777,0.33215896386457305,-0.6151266760121229,0.11762230973580123,0.6690930579425799,0.7960742717932094,-0.0830422955224562,0.691691898322218,0.7753476956733587,0.0,0.0,0.0,0.0
0.017618749769804685,0.096051941969973,0.8305278093497875,0.0007418970674746394,-0.5299288989324289,-0.0008006813324816347,0.8480413731501598,-0.030104283708743747,0.32996791591673696,-0.5918141422411386,0.05229372586515104,0.33220226392153424,-0.6151297319135123,0.11764466430941214,0.6691249320129747,0.7960814284844393,-0.08315340005485014,0.6915776844397338,0.775303107751601,0.0,0.0,0.0,0.0
0.017618749769804685,0.096051941969973,0.8305278093497875,0.0007418970674746394,-0.5299288989324289,-0.0008006813324816347,0.8480413731501598,-0.030104283708743747,0.32996791591673696,-0.5918141422411386,0.05229372586515104,0.33220226392153424,-0.6151297319135123,0.11764466430941214,0.6691249320129747,0.7960814284844393,-0.08315340005485014,0.6915776844397338,0.775303107751601,0.0,0.0,0.0,0.0
0.018420404629002067,0.09764422911244805,0.8311372171636072,0.0006218653395434469,-0.5295794465998835,-0.0007188557604031338,0.8482598105939337,-0.03343665993281134,0.3382651025655604,-0.6061544811658945,0.049048432972864285,0.3354916418129945,-0.619391909257126,0.11146015908048808,0.6723442092989927,0.794235685551387,-0.08931281154849184,0.696670168683278,0.7628278220939295,0.0,0.0,0.0,0.0
0.020567110680146997,0.10075150842338655,0.8338971343720213,0.00028005157265444157,-0.5301335282746826,1.007449984296e-05,0.8479141251734502,-0.04099791120023216,0.3530240015303275,-0.6197073563639404,0.041512790301931626,0.3409169131197962,-0.6126111631398974,0.10333584484216538,0.6893278058674671,0.7781846470228179,-0.09896074164346585,0.7197236291331167,0.7264336045281172,0.0,0.0,0.0,0.0
0.022039029727733046,0.1039455013167593,0.8356886925189461,-5.764895625755323e-06,-0.5289132097031463,-0.00023541312695749434,0.8486758869845079,-0.03967227819516926,0.3302341037233387,-0.5845978188565613,0.035877423171042165,0.3464411213805634,-0.62005024250316,0.08845684257555772,0.6985418433449919,0.7665753708670862,-0.08694046626400842,0.6975804026458167,0.7667991636977829,0.0,0.0,0.0,0.0
0.024053639955671984,0.107439554880948,0.8368966752553237,-0.00026447558943137233,-0.5281419095478675,-0.0002683043265720883,0.8491560406925119,-0.03767809589093134,0.31274909022670416,-0.5656085334933679,0.029146344474799753,0.35469150087165535,-0.6315678400520414,0.07370246831825218,0.706194905201647,0.7627096357721852,-0.07374479131380647,0.6836826576852504,0.7945563570414682,0.0,0.0,0.0,0.0
0.02654318943869545,0.11092152723125226,0.8378628177071982,-0.0005520646871056416,-0.5276666049748338,-0.00012413417739407765,0.8494513722454158,-0.034899403824451974,0.3008170869618259,-0.5566792529312645,0.022068765721273986,0.36538333157150865,-0.646184466413651,0.06008162238119717,0.7138802220822551,0.7617798621590278,-0.06360482245763131,0.675819129579683,0.8143923151762074,0.0,0.0,0.0,0.0
0.02900934602990357,0.11435075090453145,0.838879257101623,-0.0008646708630717524,-0.5274840488638438,9.952294482521573e-05,0.8495644888021674,-0.03228721274224973,0.29314904908995987,-0.5539645293426869,0.01489160626201183,0.37481792287132204,-0.656689427183965,0.04699465841138435,0.7224055740179588,0.760696213765238,-0.05727168207847827,0.6709466885726164,0.8298034094927916,0.0,0.0,0.0,0.0
0.03131108078653046,0.1176476197357989,0.839949630979341,-0.0011737725706190958,-0.5274403725447055,0.00034755906467779935,0.8495911692517474,-0.029930463053286987,0.2881235242091739,-0.5548083276247665,0.007887757239881669,0.3827269257163087,-0.663624543482535,0.0342906407705728,0.7313645328944189,0.7587172452002539,-0.05362828431950163,0.6676685547427345,0.8425997901859369,0.0,0.0,0.0,0.0
0.03336426920087761,0.12076182700503084,0.8410247887798077,-0.0014588301584747942,-0.5274522338764399,0.0005868665785974204,0.8495832321679501,-0.027768579571850895,0.28456721908781607,-0.5577223917133116,0.0012275535366416237,0.38900976115741126,-0.6675873640092166,0.02195414598014022,0.740205779119041,0.7560169214588484,-0.051505415183885614,0.6652630666122351,0.8538233673244708,0.0,0.0,0.0,0.0
0.03512706834110287,0.1236551560411059,0.8420568171830166,-0.0017081250731097854,-0.5274761648211043,0.0008004371211120172,0.8495677354718509,-0.02565845472609385,0.2816911604914872,-0.5618276965794207,-0.004973159082435094,0.393694598489316,-0.6691304349175451,0.010086473687154124,0.7484913919739006,0.7529397669103461,-0.05001168299110555,0.6633305006703979,0.8640729223829469,0.0,0.0,0.0,0.0
0.036585523991254865,0.12629780999013532,0.8430093631029789,-0.0019162405755320674,-0.527491563793074,0.0009809176791488806,0.8495575412823434,-0.023441879125574536,0.27903414717423797,-0.5665546323214811,-0.010633600853014853,0.39689084603158864,-0.6687438640639163,-0.0011517374868610982,0.7559223704961582,0.7498101751758466,-0.04856402161011566,0.6616452346357168,0.8736698339361317,0.0,0.0,0.0,0.0
0.037741373465580964,0.12866826529548006,0.8438544142747192,-0.002081558826758364,-0.527489648912093,0.0011262454817531462,0.8495581610311106,-0.02099192902488896,0.2764226701967743,-0.5714584004765253,-0.015700361376071482,0.39874594851988426,-0.6668633204457091,-0.01159131577401543,0.7622921662501301,0.7469212423607162,-0.04679159195002929,0.6601040727768785,0.8827113937420882,0.0,0.0,0.0,0.0
0.03860251432709064,0.13075378425157613,0.8445661168518509,-0.002204265366355153,-0.5274669133874742,0.0012367640185810005,0.8495718138629883,-0.018237167458458287,0.27394432830590437,-0.5760826685746678,-0.020143956174972718,0.399408991557033,-0.6638752511582879,-0.021092384005920947,0.7674297406269669,0.7445774079421177,-0.04441803926595771,0.6587202895329143,0.8910474201295197,0.0,0.0,0.0,0.0
0.03917581302696024,0.13255089033363598,0.8451159020652613,-0.002285009628507154,-0.5274217247408954,0.0013135227181961507,0.8495995395834472,-0.015167029475617495,0.27190159042839035,-0.579838550995978,-0.023957162441719186,0.3989995864307825,-0.6601073128601344,-0.029568300993502345,0.7711553350522817,0.74313626492953,-0.04116181606514812,0.6576547993480121,0.8981804630101463,0.0,0.0,0.0,0.0
0.03946176429389003,0.13406576454646713,0.8454723597377984,-0.002324274466139054,-0.5273531598339437,0.0013575489413295955,0.8496419243553328,-0.01181805795887686,0.27067939469917374,-0.5818877426060475,-0.02715425124880142,0.39757646232445576,-0.6557859015915182,-0.03699665406434035,0.7732674794959975,0.7430057797302061,-0.03669084652903233,0.6572973126942696,0.9030729153504681,0.0,0.0,0.0,0.0
0.039450641569093975,0.13531401983185953,0.8456119830104849,-0.002323190851836186,-0.5272624502073439,0.001371219761463553,0.8496982000345652,-0.008236999112751872,0.27044306000074425,-0.5810729626691264,-0.029771062581399277,0.39509410679957746,-0.6509132655180342,-0.04340404273004123,0.7735942825231343,0.744525850534075,-0.030710522405103375,0.6583737848667691,0.90394542652073,0.0,0.0,0.0,0.0
0.03911841781640225,0.13631705096110727,0.8455334500937743,-0.002281341367910836,-0.527145278590319,0.0013552441994914531,0.8497710362530944,-0.004447058111610497,0.2711682005955246,-0.5774054242204132,-0.03185248684723313,0.391378504309683,-0.6452182533291513,-0.04886755873512279,0.7720544397752515,0.7477731682757264,-0.02330574158991,0.6608055023996116,0.9007616175489382,0.0,0.0,0.0,0.0
0.03842907285161249,0.13710194851998422,0.8452576964676461,-0.0021959644349733394,-0.5269907357145914,0.0013081993768354675,0.849867184226797,-0.0004317406672864968,0.2726398332834843,-0.5720712788148051,-0.03345190403691293,0.3861385212326017,-0.638179295651273,-0.05351474896605989,0.7686611539309486,0.7525531099432802,-0.014916476401197027,0.6637096501834945,0.8952415391414051,0.0,0.0,0.0,0.0
0.037343060878639624,0.13770366200315579,0.8448134477553172,-0.0020628139484488743,-0.5267877523730342,0.0012288540227132765,0.8499934697785458,0.003860590697706251,0.27441622101088375,-0.5659403084664834,-0.0346401017131822,0.3790124252159106,-0.6291158619329177,-0.05751977014117228,0.7634696308580354,0.7585831553311165,-0.005971868066822792,0.6665266190311445,0.8883985938376807,0.0,0.0,0.0,0.0
0.03582616761276812,0.1381626312803503,0.8442257810920898,-0.0018752196470622894,-0.5265241365816077,0.0011146115154679996,0.8501573823648404,0.008494942752930683,0.2761238035211349,-0.5596181041031466,-0.03549943195523397,0.3696384885918535,-0.6173543742705294,-0.061107134860638235,0.7565358833013164,0.7656090791307804,0.0032232916360631254,0.6689021810158258,0.88076114101744,0.0,0.0,0.0,0.0
0.03386242329976302,0.13852057921463057,0.843514739125462,-0.0016256244713106743,-0.5261892347782791,0.0009622224195068181,0.850365404209592,0.013528935701735103,0.27758346991564875,-0.5535299588579713,-0.03611565990053197,0.3577330349157394,-0.6023447835565789,-0.06451942965073111,0.747942874569083,0.7734142943615483,0.0125035295072415,0.6706203071241102,0.8726025295064426,0.0,0.0,0.0,0.0
0.03147411156709052,0.1388137702475544,0.84269582767142,-0.0013094837572380305,-0.5257802298844751,0.0007699892655793326,0.8506190935027551,0.018981129298901347,0.2788473608938996,-0.5479702388000298,-0.03656511146382215,0.3432142491420339,-0.5838277272692023,-0.06795504992645938,0.737855692459098,0.7818156727895412,0.02188224054720753,0.6716471796051559,0.8641135981272484,0.0,0.0,0.0,0.0
0.028752960179242684,0.13906184429342405,0.8417726827369613,-0.0009327798137067079,-0.5253114355355697,0.0005418403560133136,0.8509093559401064,0.02478783588996232,0.28018194599125623,-0.543077035749248,-0.03689373755342863,0.32643700970099826,-0.5622090551221848,-0.07146688120354053,0.7265583754539777,0.7907497366129825,0.03171641469450713,0.672326869957395,0.8555406786287836,0.0,0.0,0.0,0.0
0.025906767231876127,0.1392479162305363,0.8407020031002648,-0.0005100171522827836,-0.5247772959857605,0.00027920367066846635,0.8512393620749032,0.03083601909342462,0.2818227983645084,-0.5386466835350667,-0.03706907972412811,0.308813818210984,-0.5399946413564762,-0.0749308494529764,0.7143015842142607,0.8004956124064869,0.042980591917287904,0.6735566920135315,0.8472489912754864,0.0,0.0,0.0,0.0
0.02336296679536702,0.13928131677291486,0.839454001538323,-0.0001007091766336658,-0.5241653336235219,1.2081914262663398e-05,0.8516165174179227,0.037123914429037716,0.28362539181289886,-0.533660055348791,-0.03693372390071623,0.2937604385993171,-0.523121406858143,-0.0775615169778278,0.7017908199056407,0.8110278818255754,0.057601105595138785,0.6769344958747224,0.8396342329941541,0.0,0.0,0.0,0.0
0.021318111429827008,0.13920849962542767,0.8382506202192334,0.00021778277712902378,-0.5235841889744953,-0.00019094741920268064,0.8519738923028481,0.04275169134753364,0.2852407644108057,-0.5284986730372587,-0.036641849396737244,0.28222699637325505,-0.5116966391676323,-0.07898521678468035,0.6906398685836733,0.8206255164495968,0.07537674314528119,0.6821202082123148,0.8331682867603375,0.0,0.0,0.0,0.0
0.020039122363201448,0.1390681892998594,0.8374053543895091,0.00032231115263313366,-0.5231022966283926,-0.00023392033978847398,0.8522698097779228,0.04651228380209697,0.28540570098827417,-0.5235855312986437,-0.03634548846448564,0.275530444378805,-0.5061956201418583,-0.07841965950938513,0.6828487111370161,0.8266646960050398,0.09281550880010221,0.6873308997393837,0.828348601720808,0.0,0.0,0.0,0.0
0.019989034154737444,0.1389727408920167,0.8373636505110126,0.00041830075026537715,-0.5230988919079943,-0.0002310996577264908,0.8522718585651289,0.04655124556841881,0.2854441902619457,-0.5235843195795961,-0.03625864050832453,0.27537099036119894,-0.5061868085311736,-0.07842235803488326,0.6827032858893769,0.8265994300819541,0.09281644064401066,0.6873789525353423,0.8283646223127115,0.0,0.0,0.0,0.0
0.01998903415472472,0.13897274089202058,0.8373636505110239,0.0004183007502122494,-0.5230988919080218,-0.00023109965773245988,0.8522718585651119,0.04655124556844484,0.2854441902620093,-0.5235843195796136,-0.03625864050827323,0.2753709903617631,-0.5061868085320385,-0.07842235803480428,0.682703285889421,0.8265994300820839,0.09281644064403728,0.6873789525354104,0.8283646223127349,0.0,0.0,0.0,0.0
0.01998903415472472,0.13897274089202058,0.8373636505110239,0.0004183007502122494,-0.5230988919080218,-0.00023109965773245988,0.8522718585651119,0.04655124556844484,0.2854441902620093,-0.5235843195796136,-0.03625864050827323,0.2753709903617631,-0.5061868085320385,-0.07842235803480428,0.682703285889421,0.8265994300820839,0.09281644064403728,0.6873789525354104,0.8283646223127349,0.0,0.0,0.0,0.0
0.021340379765667168,0.13886189371061863,0.8381653752509233,0.000502389629268705,-0.5238164723835943,-0.0002804875534518478,0.8518309528251482,0.04681745570835462,0.29175388468636165,-0.527251656315215,-0.03605492575261663,0.28236986198671266,-0.511477844662687,-0.079352379853905,0.6913792895607567,0.82093544282642,0.09357902134560195,0.6957560747958131,0.8232385824044468,0.0,0.0,0.0,0.0
0.023818416248449426,0.13879063198083125,0.8397137635058834,0.0005930935573290819,-0.5252141908852827,-0.00031454311278096374,0.8509698014591237,0.04698048346483869,0.3032248425629296,-0.5332687078367104,-0.035986629446401186,0.2944520602279747,-0.5189357132762502,-0.08116476579932386,0.7077872628762211,0.8101934680524172,0.09504670626555797,0.7119652872891371,0.8128038417850352,0.0,0.0,0.0,0.0
0.026258566384039894,0.13876696413950568,0.840685846889383,0.0009535531084471493,-0.5254346886016702,-0.0005838791791508431,0.8508332021234476,0.04733967513167773,0.31868120261663796,-0.5538269724203962,-0.031013613260105793,0.29350291948097235,-0.5224518709948932,-0.06236472551709625,0.6979198044228576,0.8234589182608506,0.09285319886345508,0.7222170421038651,0.8035153524585608,0.0,0.0,0.0,0.0
0.029013814570078508,0.13891379262486345,0.8415004794136884,0.001333670328914053,-0.5256083660147957,-0.0008661388885074549,0.85072517107591,0.04739145167116297,0.33663131941511326,-0.57930869403472,-0.024176270296626428,0.29071255968197074,-0.5273551285361726,-0.04261130791396829,0.6892121795647879,0.8345366467525387,0.0896631276117707,0.7323296178981367,0.7950198236279615,0.0,0.0,0.0,0.0
0.03180226467672256,0.1392363772587105,0.84215536426886,0.0016230458684431378,-0.5257312907039682,-0.0010457447615483712,0.8506485067962809,0.046982044417920754,0.35492633855466704,-0.6063162898618456,-0.017257665656656714,0.28770726952096887,-0.5330278775006945,-0.026413043189564802,0.6831391412151333,0.8445061398006548,0.08652148544194163,0.7419221985557684,0.7873427761134498,0.0,0.0,0.0,0.0
0.03432921073429991,0.13966115581969857,0.8427931696081151,0.001872236681482725,-0.5259662047315983,-0.0011747162747069142,0.8505025962639507,0.04626621519309555,0.37073130263496457,-0.6285488005487921,-0.010759247642908403,0.28514060113153383,-0.5389280816819078,-0.013423706693210224,0.6789702897444453,0.8540013818319354,0.08324686326101452,0.751287252882521,0.7797791103272574,0.0,0.0,0.0,0.0
0.0364349623001376,0.14016388878959868,0.8434248405232815,0.002084501250362305,-0.5262609160671573,-0.0012713521449188982,0.8503196379823397,0.045316053070217716,0.3834648720262271,-0.6453813510021832,-0.004936273655233622,0.2828427542055155,-0.544990598448002,-0.00245396818460091,0.6754933893409886,0.8631060484811066,0.07975219592327462,0.7599423887794027,0.7721697982892366,0.0,0.0,0.0,0.0
0.03805757498046554,0.14075294166181804,0.8440268143740035,0.002260886489148396,-0.5265661049352331,-0.001344749297804799,0.8501301177907687,0.044132346421877,0.393177146900063,-0.65735435626613,0.0001850741989559328,0.28052403747196125,-0.5511651311575673,0.0073660369931774685,0.6720011968622311,0.8718112518359308,0.07590040213556376,0.7674637245499594,0.7646659856061795,0.0,0.0,0.0,0.0
0.03919738165411763,0.14145630549393773,0.8445732604880247,0.002401603058103302,-0.5268523854819243,-0.0013975921611926322,0.8499522592186624,0.04266783567571317,0.400175407158407,-0.6653079493366181,0.00468452289250085,0.27795992188776025,-0.5573821807167794,0.0165213704792328,0.6681817664990267,0.8801246396800734,0.07153479591572386,0.7736193188189294,0.7574490150167799,0.0,0.0,0.0,0.0
0.03988931621015108,0.14231072246696427,0.8450411259545993,0.002506157756817933,-0.5271048556280531,-0.0014288789348411589,0.8497953569251934,0.040852264827075914,0.4048749530110136,-0.6701457769293401,0.00866451533337467,0.2750482419888738,-0.5635385079864855,0.025220054587208787,0.6639621502900286,0.8880439178515,0.0665027677374941,0.7783229071768439,0.750667922735767,0.0,0.0,0.0,0.0
0.0401836281849059,0.14335389732713616,0.8454074200095943,0.002573677515526991,-0.5273170112163331,-0.0014362589909399056,0.8496635116480116,0.03861177447808162,0.4077182009844825,-0.6727501386207035,0.012212495224055677,0.27184297998830054,-0.5694701723091482,0.03348841890745844,0.6594112680442102,0.895495246432518,0.06067153867399788,0.7815575358099517,0.7444665170929055,0.0,0.0,0.0,0.0
0.04013337737639931,0.14461925641296727,0.8456455930921487,0.0026029986732148476,-0.5274865584291399,-0.001417309927311327,0.8495582065444713,0.035881618721874675,0.4091258377861378,-0.6739440238444844,0.01539405757267661,0.2685783743802773,-0.5749027354614314,0.04121586555160995,0.6547047108673604,0.9022449506462891,0.0539420840273024,0.783311972204347,0.739029605916172,0.0,0.0,0.0,0.0
0.03978654048449469,0.14613207316063184,0.8457236708008051,0.002592490573925142,-0.5276133090061894,-0.0013698454535794901,0.8494796046260302,0.032614367895584855,0.40946184196133245,-0.6744570816941667,0.018261531758664174,0.26565758110171667,-0.5793766816088547,0.048159702946853886,0.6501484963639568,0.9077637191121027,0.04626468889792459,0.7835425263167466,0.7346160805677764,0.0,0.0,0.0,0.0
0.039180823899860565,0.1479060060665823,0.8456070444905285,0.0025401812630084053,-0.5276992409730261,-0.0012919621669380654,0.8494265061730781,0.02878618699879408,0.4089975923585997,-0.6748579141322759,0.020863530463464255,0.26354442273452516,-0.5821532876047361,0.053957627893091824,0.6462667535585602,0.911014320655505,0.03765214164797392,0.7821723675900835,0.7315449055751299,0.0,0.0,0.0,0.0
0.03833992176140685,0.14994044328706302,0.8452717175237116,0.002445953842234814,-0.5277515969213029,-0.0011842130981014403,0.8493944118583278,0.02440324429912221,0.4078610709156513,-0.6753986393478855,0.023242694170856244,0.2624760819362773,-0.5821487907248204,0.058250111712395844,0.6439179929239698,0.9102415518796213,0.028164194520942057,0.7791555829442206,0.7300675642789035,0.0,0.0,0.0,0.0
0.03726974399701236,0.1522232375960876,0.8447190085201955,0.0023132299781315766,-0.5277757988676564,-0.0010497459073250189,0.8493799227261057,0.01949466738745158,0.40601458832277476,-0.6759567750644665,0.02543905226720491,0.26249282937905094,-0.5794145877093949,0.06104716211332037,0.6431518082911021,0.9054517155585584,0.01787644537721253,0.7745354066361868,0.7301725773947614,0.0,0.0,0.0,0.0
0.035961525363237205,0.15473058271496878,0.8439756379014889,0.0021489280658804773,-0.527774239140063,-0.0008942451517785926,0.8493815014078795,0.01411439069202313,0.4032786061152174,-0.6760799146689949,0.027499951487088684,0.263445658180411,-0.5751498898132061,0.06274622943283846,0.6432080220503315,0.8983930328381434,0.006887612716981344,0.7684536335917406,0.7315777704460272,0.0,0.0,0.0,0.0
0.03440067186495272,0.15742218504940525,0.8430804777148841,0.0019618587317003274,-0.527752700947248,-0.0007258136773525737,0.84939549736722,0.008354896578549204,0.39938603658982824,-0.675092684236463,0.029494353336531956,0.26498660229081317,-0.5702361872666859,0.0637986314196503,0.6436575554538801,0.8900768809988574,-0.004638247341356952,0.7611110858190054,0.7339160658489738,0.0,0.0,0.0,0.0
0.03257474292276456,0.1602404540177015,0.84207366346272,0.0017612801977596106,-0.5277189716387329,-0.0005533261595629514,0.849417022842599,0.0023486731650246423,0.3940504556343922,-0.6722602833066249,0.03152760350449015,0.26688475861616523,-0.5653222499288572,0.06463028106839405,0.6442929083819097,0.8809931927073675,-0.016455454378933563,0.7527205041860626,0.7368652136963327,0.0,0.0,0.0,0.0
0.03048247773531696,0.163110220517556,0.8409954987413555,0.0015581321310413451,-0.5276852425740871,-0.0003877999591210124,0.8494384654611425,-0.003729789265275253,0.3870166238780396,-0.6668587017053015,0.033731739439524386,0.2691714140679424,-0.5609569197420167,0.06570471641638255,0.6450409619286174,0.8713236935797216,-0.02826072617682459,0.7435155912916493,0.7401770513053381,0.0,0.0,0.0,0.0
0.02814479823310931,0.16593841751362423,0.8398864405399897,0.0013672849157608052,-0.5276725418769477,-0.0002451001523190233,0.8494467370041486,-0.009661361040506314,0.3781145109676159,-0.6582338756862564,0.03623245977108194,0.2721918977468447,-0.5577344417082605,0.06764327345370434,0.6459257137565827,0.8610703776875919,-0.03973391748289791,0.7337694196313141,0.7437000898409427,0.0,0.0,0.0,0.0
0.025618255511932718,0.16861331984552497,0.8387777559371872,0.0012099338985254052,-0.5277116763583406,-0.00015565666020985285,0.8494226853964022,-0.015165561929467051,0.36734743186048474,-0.6459648577646873,0.03910904431171462,0.27660647337846644,-0.5565080350697386,0.07131645273445651,0.6470625962389336,0.8501267580696211,-0.050612936137319715,0.7237458533471853,0.7474874785922879,0.0,0.0,0.0,0.0
0.02299919783990449,0.17100172765410168,0.8376776578123787,0.0011088954171663546,-0.5278657443387437,-0.0001690852976915154,0.8493270852356116,-0.019883520097714286,0.3548863108470276,-0.6297956892290023,0.04251125247889128,0.2834473374545627,-0.558830771588697,0.07800999922627747,0.6486528644145252,0.8384332547921153,-0.060696694208608515,0.7136608885268696,0.7520336266640364,0.0,0.0,0.0,0.0
0.020844058443260895,0.1731250854917176,0.8365120432570294,0.0010910485793466536,-0.5281331944337726,-0.00028409277500344993,0.8491607962226422,-0.023910852755090913,0.344469232054672,-0.6162232128394665,0.046080051891051264,0.29368409205062473,-0.565725313631147,0.08889206977823239,0.6522255067723847,0.8257730471174791,-0.07042529094342243,0.7041985965223201,0.7580840496865111,0.0,0.0,0.0,0.0
0.019351000240813238,0.17478445451784516,0.835385131147433,0.001154907581048003,-0.5287357637804728,-0.0005276953089000788,0.8487855322904722,-0.026798133094270597,0.3366540275685766,-0.6045930255720365,0.04993611259785411,0.3088454452964229,-0.5812248795231448,0.1049131906420652,0.6582673534012398,0.8117611848484086,-0.07928970500533135,0.6965310945873199,0.7660067094103509,0.0,0.0,0.0,0.0
0.018753754782193228,0.175757108435392,0.8344795227747744,0.0011946700723690074,-0.5297750558481,-0.0008220943095533987,0.8481369506898676,-0.028158521037809317,0.3324319610232759,-0.5954964315067652,0.05377417170939679,0.3297457079876501,-0.6103031280690996,0.12321962628515595,0.6675021984758498,0.7959206909170979,-0.0856846836147757,0.6923436920584859,0.77515776567153,0.0,0.0,0.0,0.0
0.018647964947479122,0.17610006196759223,0.8343816012452137,0.0009156965503794417,-0.5298539799001506,-0.000824773883225923,0.8480879914441897,-0.028543132093581072,0.3322710641434767,-0.5955453714913939,0.053812679858759496,0.32978914169280077,-0.6103056915939324,0.12324220717394678,0.6675337979922961,0.7959278822011987,-0.08579573089132563,0.6922303379256877,0.7751135454725219,0.0,0.0,0.0,0.0
0.018647964947479122,0.17610006196759223,0.8343816012452137,0.0009156965503794417,-0.5298539799001506,-0.000824773883225923,0.8480879914441897,-0.028543132093581072,0.3322710641434767,-0.5955453714913939,0.053812679858759496,0.32978914169280077,-0.6103056915939324,0.12324220717394678,0.6675337979922961,0.7959278822011987,-0.08579573089132563,0.6922303379256877,0.7751135454725219,0.0,0.0,0.0,0.0
0.019464589931101697,0.17769903818933572,0.8349992767441113,0.0007632585724531017,-0.5295189728310548,-0.0007359090981316712,0.8482974320874109,-0.03186955410939799,0.3406387231218149,-0.6099292757484217,0.050577539653706344,0.333138195441887,-0.6145360667450155,0.11726311990373851,0.6707904723437571,0.7941097049547268,-0.09180129982958558,0.6974721572410827,0.7625643621172293,0.0,0.0,0.0,0.0
0.021638892887216325,0.1808355805410953,0.8377904203591181,0.00042548853156521954,-0.5300600433266006,-2.4960604186476652e-05,0.8479600042484786,-0.03946369740286235,0.35562070712446003,-0.6237883043472732,0.043023576326878483,0.3387092339361232,-0.6079793414827102,0.10897122605102118,0.6879426920839362,0.7779233591707324,-0.10170861272563994,0.7207200690902144,0.72561981144886,0.0,0.0,0.0,0.0
0.02312363039138892,0.18405567425781183,0.8396119133585067,0.00011206169127744956,-0.5288426469514697,-0.0002650746946263558,0.8487198430241554,-0.03812254817474903,0.3322416427372532,-0.5873644791060479,0.03736059039875858,0.34427395362817825,-0.6153377120246253,0.09415550937925617,0.6972869132220421,0.7662001445869003,-0.08935284005633926,0.6985556654661259,0.7663335437245896,0.0,0.0,0.0,0.0
0.02515461425061754,0.18759141273594196,0.8408314108173115,-0.00016372641550576838,-0.5280829672069068,-0.00029923784735359646,0.8491927127550734,-0.03617664364121469,0.3143652298971771,-0.5675267158075259,0.030575525584886357,0.3525937444035866,-0.6268645889994551,0.07935447372277976,0.7049974201780571,0.762493588312364,-0.07594281009798606,0.6846842617492129,0.7942952430787064,0.0,0.0,0.0,0.0
0.027664287079872882,0.1911199496863271,0.8418057000384633,-0.0004631067667048148,-0.5276231613031943,-0.0001597275069292722,0.8494784044786952,-0.03346857204683275,0.30219582693778063,-0.5580386210812582,0.023436334632474392,0.36337777137148103,-0.6415303376292588,0.06563650013782771,0.712742803971107,0.7617772478397762,-0.06570752116943201,0.676865777234039,0.8142395273190745,0.0,0.0,0.0,0.0
0.030151664191359364,0.19459551038208367,0.8428290990929355,-0.0007804424269787529,-0.5274499864936585,5.719754357734519e-05,0.8495857222116545,-0.030920497694225602,0.2943986730745224,-0.5550096858252671,0.016193670995938065,0.37290915444820977,-0.6521314309005286,0.05239929437893655,0.7213276575570384,0.7608857670187451,-0.05937575035324735,0.6720102523813141,0.8297012247364602,0.0,0.0,0.0,0.0
0.03247536321024451,0.19793502684360573,0.8439058063143928,-0.0010913424525520893,-0.5274117496516733,0.0002987556077050921,0.8496090665983379,-0.028614315636875765,0.2893107781650548,-0.5556816845583106,0.009126620939903926,0.3809159369592591,-0.659185118784228,0.03953387592764811,0.7303473929036483,0.7590666246277883,-0.05578656479126062,0.6687439509268186,0.8425156922251804,0.0,0.0,0.0,0.0
0.03455068199910019,0.20108634615305082,0.8449866892176574,-0.0013772318763462217,-0.5274269330417417,0.0005329462628899366,0.8495991110534554,-0.026489488525280755,0.28573460634323095,-0.5585081276560973,0.002409076649262855,0.3872954563095726,-0.6632741594075208,0.02704827811392013,0.739249453623562,0.756495719628286,-0.05374041201783867,0.6663574037921237,0.853742155589216,0.0,0.0,0.0,0.0
0.03633498618558663,0.2040103583049744,0.846023699982708,-0.0016271346901067095,-0.5274530750003571,0.0007429090352785397,0.849582282178444,-0.0244044546820706,0.28286438326709235,-0.562575104357916,-0.003840628126963278,0.3920738954819915,-0.6649434740653329,0.015054174841560413,0.7475936114103002,0.7535221437492122,-0.052326882118087246,0.6644536751067751,0.8639890527243572,0.0,0.0,0.0,0.0
0.03781345275689306,0.20667692585899405,0.8469803722891824,-0.0018358052069700876,-0.5274700316823157,0.0009210638094028997,0.8495711548409338,-0.022202704254871915,0.28022660016640616,-0.5672916526810399,-0.009540138147052658,0.39535839772067816,-0.6646787124896081,0.003716002997524925,0.7550783076339008,0.7504744125918501,-0.05095126804563243,0.6628046963624942,0.873582929940038,0.0,0.0,0.0,0.0
0.03898700655387065,0.20906451201514947,0.8478286462053919,-0.002001543208725217,-0.5274692787755771,0.0010649643489893674,0.8495710797947935,-0.019758760460182587,0.2776389834523644,-0.5721994432365627,-0.01463508881907925,0.3972939444853525,-0.6629118345791124,-0.006796760272086684,0.76149500048078,0.7476490652222711,-0.04923641545019997,0.6613027793241543,0.8826239207378936,0.0,0.0,0.0,0.0
0.039862880012773806,0.21116053200172508,0.8485426810646575,-0.0021244012510914212,-0.5274475426036672,0.0011745745391393532,0.8495841318523605,-0.01700255556560659,0.2751831600651433,-0.5768330189229568,-0.019095459642265267,0.3980272971584513,-0.6600255893685073,-0.016345181912851885,0.7666714771046095,0.7453532755305315,-0.04690268271911609,0.6599565711606673,0.8909635428179221,0.0,0.0,0.0,0.0
0.04044749315707952,0.2129617122970508,0.849093934285891,-0.0022049332267114526,-0.5274034767247404,0.0012506310778073386,0.849611173967262,-0.013925021617410526,0.2731578581780759,-0.5805968303130732,-0.02291371162823548,0.39767635273461666,-0.6563443300023627,-0.024843693315659783,0.7704276087219061,0.7439470348939622,-0.04366656502041052,0.6589233001059099,0.8981055238695957,0.0,0.0,0.0,0.0
0.04074118601510825,0.21447437867299035,0.8494509613374944,-0.0022435709353473914,-0.5273364615861595,0.001293913857970354,0.8496526045732897,-0.010564155696394045,0.27194600136024416,-0.5826474480383925,-0.026103802044940068,0.3962994758809217,-0.6520932184403568,-0.032270691219101116,0.7725620799929669,0.7438408356757502,-0.03919419506750207,0.6585905741268289,0.9030131318236131,0.0,0.0,0.0,0.0
0.040734457846145815,0.21571408429102343,0.8495900853680821,-0.0022413598007517627,-0.5272478023532109,0.0013065866535123484,0.849707610917585,-0.006967202570731322,0.2717120896180656,-0.5818244980994779,-0.028701026307486773,0.3938533848707562,-0.6472790700697033,-0.038653285935758605,0.7729029745602194,0.7453770960517051,-0.0331892484590122,0.6596836951879531,0.9039075100922327,0.0,0.0,0.0,0.0
0.040403974103072594,0.2167017766152638,0.8495096701964194,-0.002197881535314682,-0.5271330637741968,0.001289395020170339,0.8497789358728935,-0.003156016224237162,0.2724328410576722,-0.578140332912467,-0.030749472266026017,0.3901696003530377,-0.6416417830233364,-0.04406648847505124,0.7713685163061604,0.7486350466266819,-0.025736804827434297,0.6621255584582015,0.9007527324854139,0.0,0.0,0.0,0.0
0.039714766947672425,0.2174638021240404,0.8492302165307591,-0.002110467253226242,-0.5269810105367118,0.0012412147857573893,0.8498735316784108,0.0008891914853028119,0.2738960279185518,-0.5727862779556826,-0.032301667751923446,0.3849652647654635,-0.6346764010122042,-0.04863349457023078,0.7679707680534544,0.7534227405275025,-0.01727865359200546,0.6650371772462513,0.895269274175291,0.0,0.0,0.0,0.0
0.038628403630706264,0.21803445136525423,0.8487799568637447,-0.001974935987950379,-0.5267799883325821,0.00116116393154877,0.8499985854214654,0.005224447308499355,0.2756631427719299,-0.5666390268009891,-0.033427958483205664,0.3778877645107005,-0.6257218946320188,-0.05252508070115165,0.7627630954431245,0.7594605663811753,-0.008245149937893048,0.6678640266047028,0.8884702491079577,0.0,0.0,0.0,0.0
0.0371114939532038,0.2184539764616384,0.8481835774314843,-0.0017846777148553524,-0.5265171142543941,0.001047019849982294,0.8501620122494965,0.00991901272928491,0.2773640443184941,-0.560312563104912,-0.03421132408570286,0.36858262491519495,-0.6141212865121463,-0.05596514130268131,0.7557994507116065,0.7664970592943795,0.0010585201776058713,0.6702570321535172,0.8808824455755672,0.0,0.0,0.0,0.0
0.035148209796391286,0.21876478350333622,0.8474611143013933,-0.0015320931791579797,-0.5261809144584337,0.000895804752622978,0.8503707988189753,0.015033395495353635,0.27882282901366295,-0.5542431459384779,-0.034739826089080675,0.3567685859417641,-0.5993326112746555,-0.05920109488498056,0.7471612746428732,0.7743161095599628,0.010465668264053186,0.6720021125106275,0.8727753140998403,0.0,0.0,0.0,0.0
0.03275987202543086,0.2190051259673769,0.8466289789802515,-0.001212349136668163,-0.525767703289023,0.0007057657718472499,0.8506270359460907,0.02058561193820098,0.28009496214682905,-0.5487401764671057,-0.03509421760620202,0.3423571966502338,-0.581086857303895,-0.062444485317249054,0.7370149133032592,0.7827283424718118,0.019983144280981174,0.6730591891323946,0.8643323641997696,0.0,0.0,0.0,0.0
0.030035818637376054,0.21919836968406126,0.845693551050356,-0.0008308814978991967,-0.5252917244084601,0.00048029450204126883,0.8509216669124804,0.026504030927254032,0.28145439871723854,-0.5439631164173668,-0.0353273140518951,0.32568023187397427,-0.5597416660663195,-0.06577049111754221,0.7256542624461025,0.7916506801320301,0.029946704085626084,0.6737532113270998,0.8557904780688684,0.0,0.0,0.0,0.0
0.027180199783505776,0.21933352474737988,0.8446174533847958,-0.00040341819287615646,-0.5247543006391208,0.0002213668966944884,0.8512536121575085,0.032649286935152684,0.2831677581563181,-0.5397363878649762,-0.03541705919386002,0.30808673866769387,-0.5376325667792197,-0.06907121452345631,0.7133652080182121,0.8013350345384972,0.04129513563622618,0.6749712458899868,0.847513998690285,0.0,0.0,0.0,0.0
0.024628491552615806,0.2193212971166308,0.8433675195134596,8.928440967084308e-06,-0.5241447350077254,-4.268558232574739e-05,0.8516292003342213,0.03901518461177914,0.2851012417158916,-0.5349908148649822,-0.03520264192663588,0.29304856176809524,-0.520794818150002,-0.07156023440721038,0.7008571005761439,0.8117945493527076,0.05597734582775286,0.67837535014496,0.8398882034018653,0.0,0.0,0.0,0.0
0.02257939783784934,0.21921331942701697,0.8421668098336378,0.0003316450718091254,-0.5235738273632742,-0.0002468828798017974,0.8519802089019218,0.04469038553892722,0.28695542847283445,-0.5301900134798169,-0.03484403929030523,0.28151056751016945,-0.5093160817114111,-0.07291530399830125,0.6897609972055196,0.8213207391979717,0.07376410434344016,0.6836334195872993,0.8333803366063228,0.0,0.0,0.0,0.0
0.02130256120207272,0.21905424258813308,0.8413265780873291,0.000445299116420928,-0.5231100922359531,-0.0002999284772338251,0.8522649489170009,0.04846660110629487,0.28750640623707374,-0.5258632076565076,-0.03449927208137553,0.2748049912135755,-0.5037149505469262,-0.07241664963417481,0.6820750620523376,0.8273305567562255,0.09113056818340587,0.6889735547117739,0.8284705802041975,0.0,0.0,0.0,0.0
0.021251502538996877,0.21895601991719243,0.8412843558612001,0.000543413131308254,-0.523107206437189,-0.0002970097143693527,0.8522666642905133,0.048505580053368524,0.28754531270471156,-0.5258622660563828,-0.034409544910907475,0.27464452016039664,-0.5037065150267301,-0.07241867095266233,0.681928715830352,0.8272649271543109,0.09113128843237069,0.6890217107785364,0.8284865202455585,0.0,0.0,0.0,0.0
0.021251502538996686,0.2189560199171925,0.8412843558612003,0.0005434131313075233,-0.5231072064371893,-0.00029700971436941886,0.852266664290513,0.048505580053368795,0.2875453127047122,-0.5258622660563829,-0.03440954491090689,0.274644520160404,-0.5037065150267414,-0.07241867095266166,0.6819287158303527,0.8272649271543127,0.09113128843237048,0.6890217107785372,0.8284865202455591,0.0,0.0,0.0,0.0
0.021251502538996686,0.2189560199171925,0.8412843558612003,0.0005434131313075233,-0.5231072064371893,-0.00029700971436941886,0.852266664290513,0.048505580053368795,0.2875453127047122,-0.5258622660563829,-0.03440954491090689,0.274644520160404,-0.5037065150267414,-0.07241867095266166,0.6819287158303527,0.8272649271543127,0.09113128843237048,0.6890217107785372,0.8284865202455591,0.0,0.0,0.0,0.0
0.022592373865112144,0.21886725026052176,0.8420826151963002,0.0006261518564459212,-0.5238218385739959,-0.000347287085006476,0.8518275463722055,0.04873041739158542,0.2938246634333714,-0.5295133443783755,-0.0342466153293975,0.2815272741236183,-0.5088140294545438,-0.07338809664772689,0.6905458537266027,0.821670730856001,0.09177013956662958,0.6973679604039632,0.8232975943973756,0.0,0.0,0.0,0.0
0.025049292282450817,0.21883326855629903,0.843615119173705,0.0007094410067786745,-0.5252097265532202,-0.0003743272322649724,0.8509724435646978,0.04881173802688032,0.3052596902574374,-0.5356138103390653,-0.034259518105710124,0.29341841351177406,-0.5160204776101924,-0.07518455729492829,0.7067652538600698,0.8111291483037587,0.09308703017701211,0.7134728208267633,0.8128382945572966,0.0,0.0,0.0,0.0
0.027479754935787876,0.21884920758098325,0.8445850823209535,0.0010515352981068722,-0.5254373259535922,-0.0006326698165652647,0.8508314230781315,0.04909151371916297,0.3206786941328877,-0.5561134426750829,-0.02933411169897729,0.2928834610130201,-0.5203235965352929,-0.05708525716484053,0.6971756411371631,0.8242055914578578,0.090822423559953,0.7237571123996321,0.8034562820494624,0.0,0.0,0.0,0.0
0.030218295148981774,0.2190354662706856,0.8453916216472204,0.0014130299697164754,-0.5256080177609075,-0.0009025626901680128,0.8507252202634789,0.04906298725049769,0.33857517895391614,-0.5815848718068776,-0.022569074592994245,0.2903405997318829,-0.525724328985266,-0.037937646184540125,0.6886167306880057,0.8351784975077932,0.08755553643176424,0.7338384293107436,0.7948856411499117,0.0,0.0,0.0,0.0
0.03297845290659493,0.21939118363578067,0.8460421001119195,0.0016912215658085282,-0.5257350349270683,-0.001074025385794078,0.8506460246714377,0.048584996070352854,0.3566917548510251,-0.6083048620448835,-0.01570128197540749,0.2874727501895723,-0.5316713323699375,-0.022114389125762062,0.6825885216793479,0.8450822708864847,0.0843059689631738,0.7433949143994458,0.7871346143170026,0.0,0.0,0.0,0.0
0.03547346883017359,0.21984438804482978,0.846674440243823,0.0019320727693777893,-0.5259708115768419,-0.001197283025526151,0.8504995819971747,0.047810567824948004,0.37231996933608025,-0.630275790502348,-0.009247385404588575,0.2849664863332398,-0.5377310034395517,-0.009326530541205746,0.6783871299753957,0.854527889117666,0.08091357116564826,0.7526928857381254,0.779513460839641,0.0,0.0,0.0,0.0
0.03754784932005095,0.2203714599586114,0.8472995697960135,0.002137996439756948,-0.5262641189549662,-0.0012897880166276175,0.8503174951267608,0.04680997934398689,0.3848976649490202,-0.6468995322221842,-0.003463969485372204,0.2826839304290911,-0.5438799300427957,0.0015400314175253206,0.674847638747749,0.8635919519501699,0.07730236134443909,0.7612620670239784,0.7718693676572076,0.0,0.0,0.0,0.0
0.03914169298205479,0.22098097008398296,0.8478950308198379,0.0023096326026033134,-0.5265671382927074,-0.001360132014038774,0.8501293222259624,0.045583208293443665,0.3944760911996708,-0.6587045443480778,0.0016244008606985704,0.2803575086583464,-0.550093176715166,0.011307493244561985,0.671287876318188,0.8722630374946206,0.07334310607479949,0.7686937399064725,0.764347015232669,0.0,0.0,0.0,0.0
0.040256260756696416,0.22170101790684257,0.8484357088024926,0.002446787181151647,-0.5268510761806235,-0.0014106402644509456,0.8499529203749189,0.04408271657306381,0.4013621406428454,-0.666523371540738,0.006098174342061178,0.27777552164820823,-0.5563199365938671,0.020436160172852793,0.6674046841919482,0.8805467360206611,0.06888484966644082,0.7747651510759974,0.7571203026165588,0.0,0.0,0.0,0.0
0.04092681683804754,0.22256846462645552,0.8488988875477039,0.0025487215714059793,-0.5271013400638488,-0.0014401206392730946,0.8497973919551592,0.04223810490428075,0.40596989094007785,-0.6712539695605033,0.010059652774898951,0.27484270102945135,-0.5624690527988415,0.029122182096514796,0.6631275900658864,0.8884388480804624,0.06377767270420047,0.7793949751108318,0.7503330841303735,0.0,0.0,0.0,0.0
0.04120367206910508,0.22362120115573475,0.8492616126649135,0.0026143706090937923,-0.5273114892740116,-0.0014461135353152543,0.849666797692828,0.039975324976300165,0.4087410016866174,-0.673776526673778,0.013595328370358843,0.2716166198255652,-0.5683851084714309,0.03738672555874623,0.658525500328925,0.8958642811670936,0.05788945531613545,0.7825680773071716,0.7441262583159459,0.0,0.0,0.0,0.0
0.04113982591640892,0.22489288846660568,0.8494972340681033,0.002642426968543484,-0.5274792160672379,-0.0014261294528977709,0.8495626288576914,0.037229340474101286,0.4100957211214641,-0.6749136422854682,0.016769461217854578,0.2683332975166427,-0.5737995080112966,0.04511658069289766,0.653773906765727,0.902588797803434,0.05112048880138513,0.7842734564243654,0.7386832672079753,0.0,0.0,0.0,0.0
0.040783135252601146,0.2264090413213948,0.8495736444438671,0.002631145199938288,-0.5276043027633636,-0.0013779261286242554,0.8494850664373718,0.03395236539292832,0.41039771452650714,-0.6753951948959744,0.01963301943335166,0.2653967013260593,-0.5782567248271259,0.05206667592107475,0.6491795043503235,0.9080831689250957,0.04341980188028106,0.7844669689817146,0.7342625335358559,0.0,0.0,0.0,0.0
0.040171144560881,0.22818352479243686,0.849456129203653,0.0025784569375553418,-0.5276886956046412,-0.0012995384614513932,0.8494329304251635,0.030120194424377255,0.40991794781540913,-0.6757899153071011,0.022233518332657288,0.26327093911133487,-0.5810206041062126,0.05787141515646299,0.6452679986307782,0.9113107710144026,0.034798917265020254,0.7830711009861037,0.7311830179872636,0.0,0.0,0.0,0.0
0.0393273471681373,0.23021588027982728,0.8491206385935194,0.0024841851833224933,-0.5277395887938074,-0.0011914543430601768,0.8494017516347999,0.025738607264260457,0.4087837836476122,-0.6763496784410177,0.02461298960578724,0.2621931051186289,-0.5810083711911647,0.06216743481781456,0.6428997223775724,0.9105173180227001,0.025316377343725775,0.7800391334319849,0.7296963420578335,0.0,0.0,0.0,0.0
0.038257462754630246,0.23249414081259048,0.8485684505138615,0.002351756593970537,-0.5277623980366015,-0.0010567935053878387,0.8493881348636001,0.02083619901586173,0.4069570499800231,-0.6769517280917121,0.0268112427656029,0.26220320215201154,-0.5782705309717896,0.06496416483675074,0.6421246166788512,0.9057094425972259,0.015046197499613253,0.7754133623143797,0.7297916596299382,0.0,0.0,0.0,0.0
0.03695254600832239,0.2349947191434358,0.8478262321365663,0.002188152727485853,-0.5277595357087117,-0.0009012361190852546,0.8493905298681071,0.015466200151860364,0.4042579294065462,-0.6771436545856445,0.028875755846221877,0.26315168153759005,-0.5740034106157055,0.06666168792848182,0.6421814032721272,0.8986348212481777,0.004085234241593735,0.7693344378581292,0.731187991042175,0.0,0.0,0.0,0.0
0.03539776984625571,0.23767751698567594,0.8469327882734481,0.0020022818590689074,-0.5277367372503581,-0.0007328548112752973,0.8494053154693164,0.009720308689272743,0.40041894223560653,-0.6762503774723985,0.030876038812392623,0.26468927883713955,-0.5690836982632999,0.0677136174314695,0.642640003488765,0.8903041905021305,-0.007404173663554441,0.7620016270676928,0.7335197731468649,0.0,0.0,0.0,0.0
0.03358036702481575,0.24048513708375396,0.8459281291283737,0.0018035346701162122,-0.5277016441615509,-0.0005604704355861022,0.849427694324114,0.0037301518611223047,0.39515306393463484,-0.6735378538295382,0.03291819767766214,0.26658234362233185,-0.5641533896726837,0.06854799010697667,0.6432921237187564,0.8812068345304538,-0.01917808465892811,0.7536253856427169,0.7364667885208017,0.0,0.0,0.0,0.0
0.03149856365574633,0.2433426284287332,0.8448523596785659,0.0016030637445496397,-0.5276661576601952,-0.00039504824997715806,0.8494502340829845,-0.0023307434868010644,0.388203810559315,-0.6682827923949068,0.035135037576794516,0.26885663407921817,-0.5597517863884767,0.0696322017363839,0.6440627462915555,0.8715235856670788,-0.03093556351497933,0.7444360190342385,0.7397830836482105,0.0,0.0,0.0,0.0
0.029172393568549834,0.24615718357516098,0.8437457524551449,0.0014161125685166794,-0.5276508303585403,-0.00025243330897776935,0.8494601415749656,-0.008244335817316135,0.3793980055297836,-0.6598294450319445,0.03765281619113339,0.2718472503324162,-0.5564593652982684,0.07159658310330314,0.6449699373979133,0.8612548722471216,-0.04236008467854063,0.7347021001301408,0.743318010471686,0.0,0.0,0.0,0.0
0.02665684044368255,0.2488173585833232,0.8426397707429842,0.0012645497491327788,-0.5276861846975043,-0.0001628119366424034,0.849438440904105,-0.013731905760473456,0.36873023196562454,-0.6477432388905139,0.04055035737382444,0.27619814733751497,-0.5551078733779757,0.0753322924385366,0.6461153288651602,0.8502917304631606,-0.05319385145629265,0.7246844197229063,0.7471213116198372,0.0,0.0,0.0,0.0
0.02404636490966568,0.25119008094636414,0.8415426850075606,0.0011725871353931488,-0.5278358192674927,-0.00017695132548163744,0.8493455961067045,-0.018433683729209848,0.35635759638202263,-0.6317396151938984,0.04397124159809398,0.28292041926824657,-0.5572208387580451,0.08215099345278752,0.6476810599837982,0.8385737692417486,-0.06325068145737503,0.7145935510135757,0.7516858990769842,0.0,0.0,0.0,0.0
0.021897031915917915,0.2532998499497286,0.8403763762677562,0.0011681233195721529,-0.5280936184296701,-0.0002927616593304025,0.8491853036601488,-0.02245266649133489,0.346025394721781,-0.6183636441303996,0.04754459690898233,0.2929378081750529,-0.56376293236324,0.09326960776332649,0.6511672405121308,0.8258817266628965,-0.07298962293322164,0.7050871384887858,0.7577652881637413,0.0,0.0,0.0,0.0
0.020404527568426818,0.2549495129702777,0.8392442573244315,0.0012520855299199044,-0.52868051896361,-0.0005375973366856944,0.8488197995683755,-0.025344737614374252,0.3382751914569273,-0.606938093788195,0.05137607982637944,0.3077214390855956,-0.5786664910812636,0.10963032779318943,0.6570375764460109,0.8118333161905261,-0.08192506685681247,0.6973266300886374,0.7657208764020619,0.0,0.0,0.0,0.0
0.01979955072279551,0.2559187702991497,0.8383307586887885,0.0013205232093354395,-0.5296995142857955,-0.0008326402884860635,0.8481839349421775,-0.026731249648540237,0.3340672061025254,-0.5979862010226447,0.05514033210226674,0.3280389047366612,-0.6067845564636699,0.1282380288954251,0.666029308512747,0.7959807044017733,-0.08846708334326263,0.693006866264712,0.7748836010978937,0.0,0.0,0.0,0.0
0.019693682141179867,0.2562597667114043,0.838233284060222,0.0010435290025192449,-0.5297786245736861,-0.0008351013103526544,0.8481349082533013,-0.027114944229182904,0.3339076712295274,-0.5980359906884845,0.055179203519560724,0.3280824553374228,-0.6067867449366774,0.12826083853939652,0.6660606921199254,0.7959879348288019,-0.0885779718085244,0.6928938706178984,0.7748394683337109,0.0,0.0,0.0,0.0
0.019693682141179867,0.2562597667114043,0.838233284060222,0.0010435290025192449,-0.5297786245736861,-0.0008351013103526544,0.8481349082533013,-0.027114944229182904,0.3339076712295274,-0.5980359906884845,0.055179203519560724,0.3280824553374228,-0.6067867449366774,0.12826083853939652,0.6660606921199254,0.7959879348288019,-0.0885779718085244,0.6928938706178984,0.7748394683337109,0.0,0.0,0.0,0.0
0.020521921975764648,0.2578646666204965,0.8388582022495976,0.0008666852504444539,-0.5294566226967418,-0.0007416171548497396,0.8483362443885281,-0.03043664043282,0.34233123983240726,-0.6124434127669879,0.05195148382513799,0.3314725828835422,-0.6109723767917105,0.12243425001279863,0.6693539296527289,0.7941969804534921,-0.09447652271914687,0.6982601235658439,0.7622184255777255,0.0,0.0,0.0,0.0
0.022719299835737533,0.26102733995493754,0.8416798281240893,0.0005327447350240268,-0.5299913785250903,-4.538776750862419e-05,0.8480028613230455,-0.03806139369660547,0.3574909660352619,-0.6265054734232516,0.04437701465971686,0.3371514863703425,-0.6045374280615616,0.11400101475391766,0.6866746603944914,0.7778820022497728,-0.10461587357088854,0.7217085805820775,0.7247589611011833,0.0,0.0,0.0,0.0
0.02421557581036992,0.2642706555658918,0.8435325776266772,0.0001990413912949637,-0.5287769872167618,-0.0002819084633445841,0.8487607311251548,-0.0367274287430703,0.3337375034732903,-0.5891835989230961,0.03868674047608368,0.342743311640159,-0.6117912442046408,0.09921153655796217,0.6961663036485836,0.766014719009472,-0.09191705972791882,0.6995141182270865,0.7658368735670621,0.0,0.0,0.0,0.0
0.026259490207697953,0.2678429330600444,0.844765320100476,-8.8183587597323e-05,-0.5280275218994342,-0.0003185394819289831,0.8492271939080823,-0.03483551140323651,0.3156124497034718,-0.5687687292141577,0.031852831719775536,0.35110702232062785,-0.6232873347861116,0.08434424511411778,0.7039477272859584,0.7624163004323523,-0.07827906590789896,0.6856535860456837,0.7940144379000169,0.0,0.0,0.0,0.0
0.028784425457481413,0.2714120596069019,0.8457481126250613,-0.00039492269770744555,-0.5275806672635137,-0.00018427071019161065,0.8495048261252868,-0.03219423967320237,0.3032927039164405,-0.5589002733118456,0.024658858821611587,0.36195250029215653,-0.6379629714305798,0.0705208560852147,0.7117530035524913,0.761869836226184,-0.06794105111607326,0.6778595663087561,0.8140720830758302,0.0,0.0,0.0,0.0
0.031288132737397965,0.2749275938343886,0.8467783119183832,-0.0007147631951974435,-0.5274157257370631,2.62135264273256e-05,0.8496070507426788,-0.029703690179433064,0.29541664208705165,-0.5556582896434388,0.017359058479585174,0.37155204190665153,-0.6486181098829329,0.05714373453851171,0.7203928768815591,0.7611369115952104,-0.06160005344979664,0.6730113518790203,0.8295863064730709,0.0,0.0,0.0,0.0
0.03362901320993582,0.27830365456597184,0.847861261983421,-0.0010263852792644001,-0.527382656755822,0.00026191336474298843,0.8496272190130321,-0.027441968292150433,0.29029497575434143,-0.5562140868055453,0.010237457907049097,0.37962996874763916,-0.6557467371761037,0.04413543157007465,0.7294684156798978,0.759448798295321,-0.05805343567008325,0.6697522263657707,0.8424196915418122,0.0,0.0,0.0,0.0
0.03572186431272045,0.2814866852576217,0.8489479923662534,-0.0013125781229742944,-0.5274012669519594,0.0004916034654640554,0.8496151711699668,-0.025349683495703813,0.28671408173054297,-0.5589815155147291,0.0034706585150488293,0.3860814881620896,-0.6599192734193623,0.03152073926311491,0.738426839891583,0.7569813928847605,-0.056072623546933126,0.6673810059478186,0.8536489500813305,0.0,0.0,0.0,0.0
0.03752337500323321,0.2844369411987681,0.8499903127552306,-0.001562834855366471,-0.5274298227261868,0.0006984807567596761,0.8495968760364355,-0.023287145368511075,0.2838564845868939,-0.563023003458919,-0.00282118362340807,0.3909309166281662,-0.6616746690118311,0.019418436637815596,0.7468257825388469,0.7540879004868173,-0.05472881950677885,0.6655020239667709,0.8638922221291597,0.0,0.0,0.0,0.0
0.0390180154115761,0.28712408305939446,0.8509515851100203,-0.0017719432580390736,-0.5274485609316931,0.0008746943284744014,0.8495846695285927,-0.021099421144515657,0.28124004872883834,-0.5677331537553867,-0.00855452731570999,0.3942834634785022,-0.6614951607949415,0.007994844164752874,0.7543613788436663,0.7511013560787816,-0.053416715811950476,0.6638847321497534,0.87348139474377,0.0,0.0,0.0,0.0
0.040206070282845965,0.2895266069152384,0.8518036434930865,-0.001938087964129024,-0.5274491773503861,0.0010174539646286011,0.8495837650961052,-0.01866224718777974,0.27867623800783137,-0.5726444554026179,-0.013674315007223267,0.3962822133855296,-0.6598100914267397,-0.0025808454897012067,0.7608232405091765,0.7483219969899781,-0.05175336932551987,0.6624176031605236,0.8825196553293303,0.0,0.0,0.0,0.0
0.041094257312947184,0.29163208738139357,0.8525205949175646,-0.0020611861750227008,-0.5274285892494671,0.0011264004204023011,0.849596119327273,-0.01590664336724179,0.27624233322012637,-0.5772852131864842,-0.018150171330884667,0.3970722415057852,-0.6569997736592444,-0.012170781794446112,0.7660379476097011,0.7460600175430814,-0.04945619233679628,0.6611054336523655,0.8908604311264449,0.0,0.0,0.0,0.0
0.041688646704849494,0.293437464463206,0.8530738443577823,-0.0021416905474565357,-0.5273856762141522,0.0012019977121507175,0.8496224554984645,-0.012824752106745173,0.2742342523642352,-0.5810552663966856,-0.021974398608788918,0.39677021677172225,-0.6533864798587339,-0.020690671667279656,0.7698247143065302,0.7446783042148387,-0.046240037592812866,0.6601023504264025,0.898008807472287,0.0,0.0,0.0,0.0
0.04198943670376671,0.2949492550062919,0.8534318420786119,-0.0021799674065418745,-0.5273200530647817,0.0012447984384068166,0.8496630272376867,-0.009455833940157348,0.2730332840605898,-0.5831075502060978,-0.02516083364481319,0.3954341995867631,-0.6491947526063049,-0.02812016317585954,0.7719819055113951,0.7445904595025437,-0.04176954850266669,0.6597940558432761,0.9029290666732492,0.0,0.0,0.0,0.0
0.041987258820080794,0.2961830563696293,0.8535707351221222,-0.002176975583108096,-0.5272330807875448,0.0012567667373182283,0.8497169880836517,-0.005847736737709259,0.27280312584746524,-0.5822793184464238,-0.027744491850799902,0.39302241582090836,-0.6444348271910417,-0.03448745935686905,0.7723372826674147,0.7461416717568045,-0.03574685293204107,0.660905057772864,0.9038428990194982,0.0,0.0,0.0,0.0
0.041659264118069694,0.2971595357514199,0.8534886728884646,-0.002132307143995599,-0.5271202460938262,0.0012386827441528035,0.8497871292796139,-0.002021478472638348,0.2735212774937771,-0.5785836606705469,-0.0297689753028598,0.3893702725951041,-0.6388543182632359,-0.03986621341401628,0.7708087292409034,0.7494131222594306,-0.02825723791208174,0.6633592482438471,0.9007145954852048,0.0,0.0,0.0,0.0
0.04097125153267889,0.2979045000363865,0.8532059138591855,-0.0020434125234897464,-0.5269701111825533,0.0011896997777655757,0.8498805274860374,0.002045085577403926,0.2749777491877645,-0.5732156130080002,-0.03128626144465148,0.3842007698957774,-0.6319595329743752,-0.04437600484744461,0.7674077984309464,0.7542142454313849,-0.01974431190517926,0.6662805169187201,0.8952645981008914,0.0,0.0,0.0,0.0
0.03988560336162244,0.298451758135793,0.8527504228355318,-0.001906220786133018,-0.5267706202952157,0.0011092635756858225,0.8500046173112401,0.006411131507025864,0.27673658163438664,-0.567056623921571,-0.03236645221198229,0.3771677785971952,-0.623102791825465,-0.04818460516137874,0.7621868860337011,0.7602667863780934,-0.01063963368184638,0.6691182839525907,0.888505341336935,0.0,0.0,0.0,0.0
0.03836954060714817,0.29884143857062395,0.8521466598793143,-0.0017142380286112487,-0.5265084261220906,0.0009954998656253099,0.8501675997063389,0.011148963248067127,0.2784302854304644,-0.5607263822684458,-0.03309308846317577,0.3679219845039252,-0.6116384485542854,-0.051514985436870546,0.7551986780202369,0.767320999230995,-0.001248978373435598,0.6715277400014024,0.8809619495947567,0.0,0.0,0.0,0.0
0.036407360590118384,0.29911647472141023,0.8514146586755464,-0.0014599213663598813,-0.5261715039949996,0.0008457155335458231,0.8503767998825466,0.016321216486258568,0.2798853458832558,-0.5546686749150352,-0.03355605035153041,0.3561838608308772,-0.5970299548581122,-0.05461759907224162,0.7465234702506383,0.7751615018907979,0.008259608761973843,0.6732970802815896,0.8729003693720807,0.0,0.0,0.0,0.0
0.03401970793468191,0.299316623407905,0.8505714265953834,-0.001138311579055351,-0.5257555553235524,0.0006582003565370283,0.8506346848474159,0.021945771440068276,0.28115943636577884,-0.5492034716934775,-0.033839510953186325,0.3418602127254533,-0.5790013634543772,-0.05771320794922232,0.7363281172052788,0.7835953918197043,0.01788699774113418,0.6743826887799829,0.8644976659920449,0.0,0.0,0.0,0.0
0.03129416925080758,0.2994680796726679,0.8496252169090728,-0.0007544595585033074,-0.5252747019652296,0.00043596622872016746,0.8509322700424289,0.02794584669223458,0.2825313349626572,-0.5445059195787636,-0.034001535847236426,0.32526607350032677,-0.5578761040676213,-0.06089365211956743,0.7249128798852456,0.7925267009351278,0.027949847237352075,0.6750959220124301,0.8559818181875888,0.0,0.0,0.0,0.0
0.028432121512898957,0.29956444197769677,0.8485428935258262,-0.0003247215022811012,-0.5247353256106834,0.0001810845390056863,0.8512653521790874,0.03416374229986224,0.2842906620053133,-0.5404229994134193,-0.03402788526696018,0.3077029747083629,-0.5358639261306098,-0.06406653213883155,0.7125894918431586,0.8021888589996341,0.039349974863622975,0.6763147630449301,0.847713692248708,0.0,0.0,0.0,0.0
0.025875086336407102,0.2995176123129729,0.8472886309194468,8.872322724188022e-05,-0.5241278898217093,-7.95052175177635e-05,0.8516395604468779,0.04059100056588043,0.28631037687651867,-0.5358462859882872,-0.03375523688000322,0.2926861115182011,-0.519077593134453,-0.06644501909999435,0.7000697291387358,0.8126234483174044,0.05404182838287462,0.6797491835025085,0.8400652287161935,0.0,0.0,0.0,0.0
0.02382334734449998,0.29938327365914236,0.8460867336800583,0.0004138233008825597,-0.5235650250705953,-0.00028398174631652734,0.8519855706685825,0.046307803932955784,0.28832837573859754,-0.5312969829631257,-0.03334760046788418,0.2811543260654821,-0.5075846233377853,-0.06774903585989886,0.6890007189807408,0.8221286380297419,0.07177066761509723,0.6850758987036043,0.8334909293906037,0.0,0.0,0.0,0.0
0.022548451658412245,0.2992105581655703,0.8452477353969126,0.0005342543785372683,-0.5231153161260291,-0.00034479802509693435,0.8522616744409814,0.05010283976159168,0.2891498239201918,-0.5273776183317874,-0.03296726822465099,0.2744479862504026,-0.5019270001679286,-0.06730735861999977,0.6813838491522027,0.8281433271724397,0.0890033584658929,0.6905357117050644,0.8284487193162771,0.0,0.0,0.0,0.0
0.02249668926303127,0.29911028823917934,0.8452050837105028,0.000633906129364421,-0.5231128637186624,-0.0003418026823816539,0.852263112627788,0.05014180618731834,0.28918903979093713,-0.5273768469670005,-0.032875421202099596,0.2742868775570574,-0.5019189172050948,-0.06730884735733197,0.6812369039132774,0.8280774855769947,0.08900384673840148,0.6905839461588513,0.828464588024572,0.0,0.0,0.0,0.0
0.022496689263012785,0.299110288239186,0.8452050837105185,0.0006339061292828441,-0.5231128637187039,-0.0003418026823949284,0.8522631126277626,0.050141806187369804,0.2891890397910134,-0.5273768469669986,-0.03287542120201407,0.2742868775578818,-0.5019189172063659,-0.06730884735719465,0.6812369039133489,0.8280774855771785,0.08900384673850147,0.6905839461589779,0.8284645880245746,0.0,0.0,0.0,0.0
0.022496689263012785,0.299110288239186,0.8452050837105185,0.0006339061292828441,-0.5231128637187039,-0.0003418026823949284,0.8522631126277626,0.050141806187369804,0.2891890397910134,-0.5273768469669986,-0.03287542120201407,0.2742868775578818,-0.5019189172063659,-0.06730884735719465,0.6812369039133489,0.8280774855771785,0.08900384673850147,0.6905839461589779,0.8284645880245746,0.0,0.0,0.0,0.0
0.02382928945390945,0.2990366544637004,0.846000162718733,0.0007158216303817092,-0.5238250647505298,-0.00039289878814516895,0.8518254720123359,0.05033870922919084,0.2954397002281506,-0.531007681972301,-0.03273999703956709,0.28108299844922113,-0.5068934432019301,-0.0682973061176166,0.6898056707820712,0.822536786547802,0.08954618116610635,0.698903510785587,0.8232288447761955,0.0,0.0,0.0,0.0
0.02626938968112926,0.29902771271953643,0.8475188413319524,0.0007929579885835977,-0.5252047710696451,-0.00041395880297126394,0.8509754099275838,0.05036416082630443,0.3068382863934417,-0.5371663345757267,-0.03280851000407637,0.29283290747802954,-0.5139254188705749,-0.07005040378457754,0.7058676021876675,0.8121535578131587,0.09075457823537941,0.7149205072958295,0.8127596041481002,0.0,0.0,0.0,0.0
0.028691232284952687,0.29907047985198365,0.848484529560418,0.0011214785757622616,-0.5254378030598272,-0.0006639836510403166,0.8508310152593036,0.0505903049610494,0.3222185820559933,-0.5576120276346095,-0.027916304018708545,0.29257789959619407,-0.51877231199562,-0.05252662687568899,0.6965342260179552,0.8250072653438549,0.08843942881404368,0.7252146565480739,0.8033288592213645,0.0,0.0,0.0,0.0
0.03141589724748644,0.2992834828299381,0.8492818081384498,0.0014688838348863437,-0.5256059374644995,-0.0009242379383266161,0.850726387663259,0.05050743207966835,0.34006834185019635,-0.58307809859895,-0.021203602401154452,0.2901965632723804,-0.5245153674876633,-0.03387849140915815,0.6881185020648063,0.835853178592747,0.08511925470804149,0.7352551662079881,0.794726192854766,0.0,0.0,0.0,0.0
0.03415325887133505,0.2996611472756839,0.8499259583216966,0.0017380794844782312,-0.525734753931808,-0.0010891231286393563,0.8506460846902063,0.049984464740306676,0.3580465638373649,-0.6095933551569316,-0.014372503219013653,0.28741553557824456,-0.5306579195981689,-0.0183566993642243,0.6821345955823646,0.8456801789162603,0.08179595783620035,0.7447658716738241,0.7869399734622389,0.0,0.0,0.0,0.0
0.0366222948823572,0.30013260769875655,0.8505521763828204,0.0019725252756910795,-0.5259707391980133,-0.0012078960563023907,0.8504995188938377,0.049172762037964834,0.37352900982907483,-0.631355255284855,-0.007948234427713806,0.28494335978882696,-0.5368293325944743,-0.005726097239869868,0.6779115915427651,0.8550712505527329,0.07832008182111912,0.7539993985455888,0.7792903666559503,0.0,0.0,0.0,0.0
0.03867084481079652,0.3006748273117411,0.8511711984832536,0.0021738053376017317,-0.5262629783766889,-0.001297289958906834,0.8503180988307925,0.048141031223149305,0.3859724217259135,-0.6477969691144059,-0.0021889001895339915,0.28266467335165607,-0.5430370277454256,0.005065213656023046,0.6743226946153256,0.8640931031718299,0.07462545612852024,0.7624933539047565,0.7716298593322305,0.0,0.0,0.0,0.0
0.040240812462182106,0.30129671661159735,0.8517609970695487,0.002342030563639202,-0.5265642711435967,-0.0013653991872954578,0.8501310010421399,0.04688831335891954,0.3954332820407588,-0.6594499345252022,0.002880765667011861,0.2803270593538362,-0.5492758521879224,0.014799640235135905,0.6707063960165207,0.8727298346096105,0.07058987863873958,0.7698482294481801,0.764100339235492,0.0,0.0,0.0,0.0
0.0413343318639829,0.3020265853041674,0.8522968067003291,0.0024766677018196637,-0.5268462266687143,-0.001414243331850654,0.8499558338395182,0.04536658094806659,0.4022197381200818,-0.6671445057864118,0.007341022697177943,0.27772759619341286,-0.5555079699761459,0.02391607787368011,0.6667684055755806,0.8809841066918523,0.06606655560015609,0.7758476835691217,0.7568713947398783,0.0,0.0,0.0,0.0
0.041987010355078694,0.3029014568443089,0.8527560571413293,0.0025767654582395166,-0.5270944753132178,-0.0014424624088351088,0.8498015613519758,0.0435051795756177,0.4067457724960976,-0.6717761733754254,0.01129366913913086,0.2747757368953377,-0.561650863453053,0.03260049043196958,0.6624411060715099,0.8888496838316158,0.06090737269808014,0.7804139276588871,0.7500834881893911,0.0,0.0,0.0,0.0
0.04224922335816197,0.30395937779325305,0.8531157862325224,0.0026411202450289995,-0.5273026857923955,-0.0014475087913016443,0.8496721760527861,0.041229885829758485,0.4094525781446737,-0.6742234908572102,0.014824401506526832,0.2715314480577388,-0.5675549664019671,0.0408695639923147,0.6577938817705183,0.8962502107572738,0.05498039012223586,0.7835333235340293,0.7438753991385634,0.0,0.0,0.0,0.0
0.04217390037605364,0.30523416432398515,0.8533492567409678,0.0026683249374264586,-0.5274685965781537,-0.0014268410390523426,0.8495691400884041,0.03847549697789093,0.4107599213414141,-0.6753082578530875,0.017996524688222118,0.2682318696137161,-0.5729557109961779,0.04860784347724111,0.6530022838733845,0.9029508618144537,0.04818518337138526,0.7851951695095324,0.7384294598730426,0.0,0.0,0.0,0.0
0.04180876605982486,0.3067514712231077,0.8534242547561552,0.002656551639724241,-0.5275920033028225,-0.0013781730347512302,0.8494926258793458,0.03519405829532407,0.4110310129171303,-0.6757600205099072,0.020860059390403033,0.2652814157398348,-0.5774003610950553,0.05556822222612431,0.6483735757537789,0.9084223784590275,0.04046978788710913,0.785355038183331,0.7340036580885893,0.0,0.0,0.0,0.0
0.04119119684125646,0.308525266500449,0.8533059813919207,0.002603659162301076,-0.5276748442193008,-0.0012994892072184894,0.8494414582918022,0.0313612049516806,0.41053626156473716,-0.676147154549737,0.02346177490331926,0.26314429496951053,-0.5801545499349803,0.061382259868070194,0.6444348059451457,0.9116285331519127,0.03184487848532144,0.7839349067610548,0.7309169179117911,0.0,0.0,0.0,0.0
0.04034449180673328,0.31055515102771564,0.8529703439835978,0.0025094229566249744,-0.5277242705441904,-0.0011912212493695293,0.8494111949267927,0.02698253595677943,0.40940228016067476,-0.6767209349914166,0.025843321350249814,0.2620574401700765,-0.5801361016477302,0.06568327296886678,0.6420479066880607,0.9108156702903848,0.022368299320072157,0.7808873893696902,0.7294209806258741,0.0,0.0,0.0,0.0
0.039274206354062355,0.3128292559728574,0.8524185819693276,0.002377276502662893,-0.5277456851962956,-0.0010564704100847575,0.849398448422997,0.022086319173233598,0.4075903018027514,-0.6773580587672812,0.028044397964624067,0.2620606632647633,-0.5773948582333974,0.06848034696224148,0.6412631424840534,0.9059906806551091,0.0121130462399063,0.7762539636940605,0.7295056444612532,0.0,0.0,0.0,0.0
0.03797125914825167,0.3153241393964765,0.8516773088065904,0.002214256196477121,-0.5277415065428425,-0.0009009217494984348,0.8494016645153155,0.01672528491815044,0.40492012136181693,-0.677605862651338,0.030112625731251008,0.2630041144682452,-0.5731251303299241,0.07017616694176579,0.6413182841768192,0.8989008617252725,0.0011747266380915788,0.7701742633378479,0.7308911446042817,0.0,0.0,0.0,0.0
0.03642064459889409,0.31799982674463156,0.8507852656687427,0.0020293464177915986,-0.5277174015943834,-0.0007326256671400345,0.8494172644037915,0.010990557915302613,0.40112373239049093,-0.6767892632527932,0.03211801313388215,0.2645376383920452,-0.5682001236505856,0.07122668577191424,0.6417823625470046,0.8905564326130234,-0.010285339839966483,0.7628461762025671,0.733213393110046,0.0,0.0,0.0,0.0
0.03460933346067242,0.32079903332018606,0.8497823616761524,0.0018320372805903506,-0.5276808563241894,-0.0005603547903734656,0.8494405473668428,0.005013137009333605,0.3959133200614784,-0.674174439301286,0.034167398220818844,0.2664255782288932,-0.5632568405434506,0.07206217224343156,0.6424463069975861,0.8814461076636388,-0.022024140339980125,0.754478228325022,0.7361540079243128,0.0,0.0,0.0,0.0
0.032535126022901775,0.32364692850158444,0.8487085599548287,0.00163364107022344,-0.5276434941793103,-0.0003950206619294057,0.8494642536480145,-0.0010341476585902839,0.38903096230570455,-0.6690380417399668,0.03639441532527961,0.2686895152282759,-0.5588275135267285,0.07315384322045726,0.6432332029324876,0.8717499298836839,-0.03374210212949199,0.7452979777429442,0.7394688418006362,0.0,0.0,0.0,0.0
0.03021731259993006,0.32645084776936706,0.8476040346606386,0.001449684276416504,-0.5276254365122062,-0.0002524328433775874,0.84947585806688,-0.006934038240010985,0.38030035896939035,-0.6607219756339016,0.0389260929782246,0.2716567046055195,-0.5554824366781198,0.07514043397146475,0.644155490941353,0.8614670174307326,-0.045125099522930076,0.7355705108031032,0.7430075982442559,0.0,0.0,0.0,0.0
0.027709576697998037,0.32909949925259235,0.8465005143993897,0.0013025576001645454,-0.5276569659672072,-0.00016252187225506036,0.8494565340243259,-0.012409202100238704,0.36970826664615375,-0.6487789926919819,0.041841245856249015,0.275958672297977,-0.5540373399718709,0.0789318446468719,0.6453021762935499,0.8504864743191698,-0.05591825275367744,0.7255546961900419,0.7468164444041695,0.0,0.0,0.0,0.0
0.025104900244742715,0.33145981895369825,0.8454063578093979,0.0012175694292554543,-0.5278020393678176,-0.0001770644394156591,0.849366524777167,-0.01709877551460415,0.35740049232447646,-0.6329010462393396,0.045278351467664735,0.28259087508769126,-0.5559947360985757,0.08586277946944865,0.6468379531535248,0.8387478498259959,-0.06594782890543288,0.7154567602321263,0.7513866239801311,0.0,0.0,0.0,0.0
