zhuoxili-jackie/tripod-support-walk/examples/pcbA样数据/trajectory_trotting_acc_025.csv
root_pos_x,root_pos_y,root_pos_z,root_rot_x,root_rot_y,root_rot_z,root_rot_w,FL_hip_joint,FL_thigh_joint,FL_calf_joint,FR_hip_joint,FR_thigh_joint,FR_calf_joint,RL_hip_joint,RL_thigh_joint,RL_calf_joint,RR_hip_joint,RR_thigh_joint,RR_calf_joint,FL_foot_joint,FR_foot_joint,RL_foot_joint,RR_foot_joint
0.01,0.0,0.8259446621,0.0,-0.523845373591082,0.0,0.8518133742594206,0.0,0.27,-0.52,0.0,0.27,-0.52,0.0,0.6572093368,0.8119390607,0.0,0.6572093368,0.8119390607,0.0,0.0,0.0,0.0
0.01153312556220361,-0.00040365930381364,0.8268905188415449,0.0001225619732226395,-0.524640121779073,-5.091207388794994e-05,0.8513241010368278,0.0007960440778478444,0.27685970970924734,-0.5235129570398588,0.0007960440778478428,0.2787776299827643,-0.5275904560929657,0.0009553471160406969,0.6669574988861182,0.8046632396875565,0.0009553471160407028,0.6663357276332975,0.8068442715222185,0.0,0.0,0.0,0.0
0.014309290737117194,-0.001225904264063935,0.8286870416796323,0.00021215024739712135,-0.5262069902345858,-0.0001301104041495173,0.850356479067346,0.0025349196434611317,0.2885522819324734,-0.5276832743382317,0.002536268991780242,0.29397415593930437,-0.5389376762318732,0.00387132533722326,0.6853328566348931,0.7904796572252417,0.0038764158346648704,0.6838048000414751,0.7971629530204514,0.0,0.0,0.0,0.0
0.016982576291393697,-0.00198467766547155,0.8298253149263398,0.0005426383288887588,-0.5263395586916061,-0.00025701311536454214,0.8502742548403003,0.003995816035778149,0.3047826002143182,-0.5495113087128028,0.007007356554160925,0.29086399508619804,-0.5374520766667699,0.012666370696627904,0.6762634982142576,0.8074701104457664,0.005166383036027372,0.6948873786456239,0.7883210749432629,0.0,0.0,0.0,0.0
0.020017135406018037,-0.002614144340902899,0.8307615133896507,0.0008702168351531966,-0.5264456181712928,-0.0004103879817926493,0.8502082600237483,0.005266929360265462,0.32369735502417146,-0.5766311815691931,0.013175731371500136,0.286785712345439,-0.5392089382273381,0.023671502442572906,0.6686849508350746,0.8208673379358437,0.005758752130848664,0.7057089646267226,0.7808710545270882,0.0,0.0,0.0,0.0
0.023284365035695868,-0.003004715950017507,0.8314388727223333,0.001114080505679876,-0.5264189151198909,-0.0005231384468859431,0.8502244473989143,0.006072521439485819,0.34469068249248974,-0.6089019912253444,0.019221056196178653,0.2831486059453969,-0.5430526018011244,0.034292756250390403,0.6636717453624005,0.8321002746582249,0.00586327838534432,0.715711964106132,0.7747304672335822,0.0,0.0,0.0,0.0
0.026275427691239868,-0.003265453150740439,0.8321179859777236,0.0013530461746547855,-0.5265741390664611,-0.0006176662253202404,0.8501279102705067,0.0065815211464168456,0.36250077755427057,-0.6345552470771268,0.025172245337137255,0.28047170179833225,-0.5478476079627275,0.04442735785112163,0.660238865797769,0.842206336469155,0.005452477636915882,0.7256894884518053,0.7685661429296177,0.0,0.0,0.0,0.0
0.028804375621651952,-0.0034030924876191867,0.832816560467356,0.001579095682828677,-0.5268270796514033,-0.0007038701012507496,0.8499707284193256,0.006827316187696328,0.37674755307392255,-0.6535641850238821,0.030731690922748345,0.2782961660741989,-0.5532608053895389,0.05406306340666721,0.6571883147960969,0.8515059570542981,0.004526216225886856,0.7351357255787876,0.7619660975069696,0.0,0.0,0.0,0.0
0.030797425406213268,-0.003399632693212002,0.8334965698552484,0.0017821597341968747,-0.5271083268550225,-0.0007813102532125108,0.8497958726782973,0.006778235196472486,0.3876025891000144,-0.6669074988199566,0.03576191463826772,0.2761616847561644,-0.55907028648413,0.06325895222574844,0.653910983263937,0.8601572607878101,0.0030359160686934867,0.7435162834260525,0.7551389388472438,0.0,0.0,0.0,0.0
0.03225119683724653,-0.003220783649774087,0.8341178454037009,0.001954652497753988,-0.5273768370406947,-0.0008463609809786768,0.8496288217566865,0.006362516670878852,0.39544280183723945,-0.6756985049189872,0.040229398504729154,0.27376160989229886,-0.5650939577290989,0.07203026954585438,0.6501877844936614,0.8682791031631409,0.0008667104274941635,0.7505003163319924,0.7483721436659991,0.0,0.0,0.0,0.0
0.03320157829399127,-0.002825817069083308,0.8346478735305882,0.002091260739656528,-0.5276117216854687,-0.0008941800558796162,0.8494826061848718,0.005491920876087345,0.40072842149963483,-0.681004826118346,0.04414727087292372,0.27096313667727606,-0.5711536429732851,0.08034550697567822,0.646008377403796,0.8759463230038445,-0.0021249332587508726,0.7559381990713,0.7418972399051803,0.0,0.0,0.0,0.0
0.0337025270479406,-0.0021750695333042323,0.8350586330407362,0.002188271914570315,-0.5278037826531843,-0.0009201538420237709,0.8493630153237925,0.004080582218116955,0.40393631840794997,-0.683809885264736,0.04754203173453774,0.26781435977732304,-0.5770372662449416,0.0881204062226655,0.6414791907394748,0.88314160354362,-0.006077565454423329,0.7597813741482169,0.735907233333723,0.0,0.0,0.0,0.0
0.03381242795552002,-0.0012350290623824216,0.8353216358939369,0.0022428495475282015,-0.5279499334224903,-0.0009205293079438923,0.8492720353637511,0.002057280010509992,0.40551667277465253,-0.6850012701415954,0.050441331979124,0.2645537210860696,-0.5824407080829749,0.0951924620685247,0.6368014895463374,0.8896774348685997,-0.01109810669061676,0.7620103399525374,0.730610176482199,0.0,0.0,0.0,0.0
0.03358539087471411,1.7927405068718415e-05,0.8354050468214889,0.002252325323182868,-0.528050409579794,-0.0008923189145718846,0.8492095711543795,-0.0006267933374459272,0.405859119361598,-0.6853487450351962,0.05287504709876386,0.26159269425745624,-0.5868869586383477,0.10128451268454494,0.6323056881485358,0.8950692793571517,-0.01723944608094685,0.7625895243175612,0.7262709495672219,0.0,0.0,0.0,0.0
0.03306528233387998,0.0015943015313160305,0.835275815681754,0.002214066767624428,-0.5281084783274744,-0.0008331501874115156,0.8491736211681055,-0.003992195722687079,0.405256019068623,-0.68544108240036,0.0548796120031921,0.2594059809870154,-0.5896279612402109,0.10599913248323073,0.6285412326424591,0.8983306539543895,-0.02448553021015333,0.7614609180337516,0.7232040813893277,0.0,0.0,0.0,0.0
0.03228107493434523,0.0034894640890961405,0.8349120091633212,0.002127745159381385,-0.5281329884275883,-0.0007434579467878356,0.8491586815815775,-0.008025584552790432,0.40385176564714037,-0.6855381860507387,0.05649467818777407,0.2582422854444907,-0.5895771816576536,0.10894617742292223,0.6263823977977254,0.8977618665975015,-0.03276972350911733,0.758599969586263,0.7216534931798398,0.0,0.0,0.0,0.0
0.031242808347594384,0.005688512141187845,0.8343156006579565,0.001997044780407476,-0.5281303019676982,-0.0006264617573671177,0.8491607642262563,-0.012691365601711848,0.4016267237871362,-0.6855372085962804,0.057768251014990356,0.2581467021426296,-0.5867909538744993,0.11014555069134462,0.6258753506444523,0.8933675927550682,-0.042008652246512415,0.7540643813639767,0.7216070755676505,0.0,0.0,0.0,0.0
0.029944737015636384,0.008166072062992497,0.8335126273102733,0.0018294643535197114,-0.5281032314220863,-0.0004879287208736728,0.8491780684563709,-0.017930302883469255,0.3984201769946473,-0.6850151157624971,0.058766038289877656,0.25896929360086574,-0.5824801285263985,0.11004143775485781,0.6262391717583619,0.8868389964149886,-0.0520950107243893,0.7480038419325267,0.7227897637802042,0.0,0.0,0.0,0.0
0.02837453603185827,0.01087952093894761,0.8325418923921838,0.0016345123426516489,-0.5280584447636966,-0.0003361276819054786,0.8492063908740497,-0.02364204683608321,0.39397917626242007,-0.6833130769037657,0.05958224518286829,0.26036509098722277,-0.5775432560175143,0.10913440397095264,0.6270173888191175,0.8791375492774502,-0.06285580405855043,0.7406288657662016,0.7248407791658189,0.0,0.0,0.0,0.0
0.026522326981341385,0.013767992163135873,0.831444954869314,0.0014221159307233073,-0.5280053458900416,-0.0001801920476721094,0.8492398364588434,-0.029683958915677953,0.38803060261645106,-0.6797015156412483,0.060352466540587395,0.26211499085709955,-0.5726533408303636,0.10790440310303502,0.6279786353519896,0.8707118612806078,-0.07403884211070874,0.7321690718860312,0.7274376511258392,0.0,0.0,0.0,0.0
0.024390733558500702,0.016752435959753308,0.8302653762527554,0.0012040608545003046,-0.5279584830811013,-3.1763296645867275e-05,0.8492693267575687,-0.03586986491443281,0.3803390705005455,-0.6734613349900331,0.06124512658989652,0.26427570177419935,-0.5683946117627012,0.10689867552077723,0.6290297942699957,0.861704790163308,-0.08534370143417695,0.7228833247328005,0.7303231096086481,0.0,0.0,0.0,0.0
0.022007100196347783,0.019735621991105755,0.8290485263903912,0.0009966510171153127,-0.5279421635133129,9.180601742496792e-05,0.8492797361548712,-0.04196794935342363,0.37077047528236623,-0.6639590520954811,0.062431502930249086,0.2672390942246988,-0.5654153650864538,0.10689408575882986,0.6301752869078326,0.8520757214865535,-0.09647118354690624,0.7130755678716214,0.7333323225164103,0.0,0.0,0.0,0.0
0.019438476830167837,0.022600816569405536,0.8278302788390499,0.0008238361906450354,-0.5279920376762829,0.00015818787767000667,0.8492489060463799,-0.0476857554047397,0.35939188105182424,-0.6508367447153208,0.06404639348967917,0.27173899760588804,-0.5646455688724047,0.10904803858463159,0.6315109256386775,0.8416608163492763,-0.10719759362343843,0.7030349054678302,0.7365303731714171,0.0,0.0,0.0,0.0
0.016799322830933324,0.025207324092751646,0.8266110488208324,0.000710480582424728,-0.5281555141867565,0.00010824545868344472,0.849147358433379,-0.05263485093600178,0.34655835954330777,-0.6342569053444658,0.0662716799234602,0.2788546840511178,-0.5677831899288986,0.11501885592668994,0.6331702133695432,0.8302973466504592,-0.11738845650825223,0.6928803200644993,0.7405082051274724,0.0,0.0,0.0,0.0
0.01464428121668224,0.02753836701013186,0.8253499996984557,0.0006879882026313614,-0.5284663704026722,-6.352798286150951e-05,0.8489539551647391,-0.05685454298756425,0.3358376101719525,-0.6201235125106325,0.0689343613628845,0.28976003959434127,-0.5761868311549265,0.12671636498176017,0.6364947456444245,0.8177026885796903,-0.12749184497519392,0.6834243325328232,0.7459703724584706,0.0,0.0,0.0,0.0
0.013182921824370189,0.029374449344086874,0.8241493475656935,0.0007397336804587729,-0.5291521386663611,-0.0003796965339906693,0.8485265598491541,-0.059845886067922696,0.3279057140101335,-0.607982971694101,0.0722865166734988,0.30622460565396736,-0.5944027543408076,0.14538493317385964,0.6420056539470274,0.8033305617905754,-0.1369801562416082,0.6757686257210241,0.7535288690767814,0.0,0.0,0.0,0.0
0.012658361834965373,0.030459042011107572,0.8231763281768978,0.0007195696656764275,-0.530331730340587,-0.0007411668915729097,0.8477895898659608,-0.06116487221802132,0.323852744025841,-0.5986126067238581,0.07617011984236054,0.3294542985970487,-0.6280473329735277,0.16768983281509903,0.6508192059648417,0.7866309120458538,-0.14402586533417047,0.6715309478699277,0.7630535016539912,0.0,0.0,0.0,0.0
0.012549058531567885,0.03085378230116635,0.823052952934597,0.00039865003120276093,-0.5304200389764437,-0.0007468243361231121,0.8477345490091763,-0.06160175118124869,0.32366766948716585,-0.598671695708808,0.07621452703472205,0.32950049203815945,-0.6280510131106349,0.16771604149554292,0.6508484171003177,0.7866370296136551,-0.14416251586416012,0.6713982623721039,0.762999364583964,0.0,0.0,0.0,0.0
0.012549058531567885,0.03085378230116635,0.823052952934597,0.00039865003120276093,-0.5304200389764437,-0.0007468243361231121,0.8477345490091763,-0.06160175118124869,0.32366766948716585,-0.598671695708808,0.07621452703472205,0.32950049203815945,-0.6280510131106349,0.16771604149554292,0.6508484171003177,0.7866370296136551,-0.14416251586416012,0.6713982623721039,0.762999364583964,0.0,0.0,0.0,0.0
0.013414470644025987,0.03275626732880184,0.8236722294624728,0.00032570538981514704,-0.5301567752979199,-0.0007271381077608531,0.8478992621720354,-0.06553392323667974,0.33221676604738637,-0.6128898999283645,0.07244319555493388,0.33291943620063913,-0.6321366354357478,0.16016089945559772,0.6541781631118035,0.7866689052315421,-0.15188359034780463,0.6771220434642901,0.7489918741867383,0.0,0.0,0.0,0.0
0.015701582731795418,0.03652540147382644,0.8266745001984622,-9.120165108184688e-05,-0.5308804351983574,0.00020146829349749928,0.8474467031125842,-0.07480843937461695,0.3475625151563887,-0.6258465919746579,0.06318675261223076,0.3386375271109963,-0.6237608559498179,0.15129475542701307,0.6718560148457231,0.7717782633264535,-0.16328961082176272,0.7032729497886125,0.7074907470049333,0.0,0.0,0.0,0.0
0.01729952946335246,0.04026975032285902,0.8291322353226227,-0.00010928397681551154,-0.5293110183849689,-0.000323461365103476,0.8484277984873108,-0.07054165703971048,0.3243001176172164,-0.5881079943200912,0.056796082394493935,0.34493268662480253,-0.6322142166934813,0.1313756422897185,0.6845619579644943,0.7554682003898843,-0.14222388391316998,0.6807904341903933,0.7528035240245559,0.0,0.0,0.0,0.0
0.019523049339443314,0.04436218485429967,0.8310098595778752,-0.0001976372346541597,-0.5283673064118987,-0.0005187873125488306,0.8490157132316707,-0.06444578714475738,0.3070176704187274,-0.5670667747481286,0.04905994528913497,0.35391122210556786,-0.6435120603646896,0.11286364818537772,0.6958016335318131,0.7471006508292988,-0.11861644064481826,0.6684065721755611,0.7845281666948434,0.0,0.0,0.0,0.0
0.022181053944317068,0.048657632524405546,0.8322194896492442,-0.0004408785218932172,-0.5279031168241142,-0.00041277861268532314,0.8493043827081851,-0.05789795070297768,0.29515498731516066,-0.5572704015302216,0.04040631895469515,0.3646704283380311,-0.6571650489948079,0.09598798663361992,0.7044877422781346,0.7471920541304531,-0.09902299237592943,0.6625277671409299,0.8068627477792045,0.0,0.0,0.0,0.0
0.024854584291036663,0.0529888577480658,0.8333340261749925,-0.00075088377874368,-0.5277085902164544,-0.0001522256337816061,0.8494251331416262,-0.05160920216249969,0.287598128658583,-0.5541474084838991,0.031340399561656004,0.3744450376363631,-0.6676645000736133,0.07969272834128628,0.7131119689575656,0.7486656413886107,-0.08493084334759146,0.6593405631761918,0.823989695358737,0.0,0.0,0.0,0.0
0.027405218863433882,0.057236883680560235,0.8345039190410175,-0.0010860028779415168,-0.5276586958823287,0.0001582781391625739,0.8494557647138195,-0.04592636881239946,0.2828675145558867,-0.5546874001156796,0.022298049195039624,0.3827428268861279,-0.6745085403332823,0.06366150529526915,0.7222982772834686,0.7491899532405047,-0.07520612849813099,0.6575150759175722,0.8381047635642115,0.0,0.0,0.0,0.0
0.029738088589854175,0.06134111522475146,0.8357097489490557,-0.0014075471251018034,-0.5276577732413246,0.0004655868989535634,0.8494557530430511,-0.04086604805882899,0.2797076873184784,-0.5573473700088089,0.013498854632720346,0.3893969334504289,-0.6781730029357967,0.04769941609514118,0.7316804782629533,0.7485484224770561,-0.06820649445377752,0.6563741447191206,0.8504051080397271,0.0,0.0,0.0,0.0
0.03180177103037063,0.06525990690844814,0.8368988397732989,-0.0016948875616922768,-0.5276566847560289,0.0007437664239965858,0.8494557064379145,-0.03623634240371456,0.27725381399081145,-0.5612323804257952,0.005080271808985201,0.39439582565966275,-0.6792160482952063,0.03182306090183666,0.7407825492951688,0.74710861304494,-0.06257062961610119,0.6555993428261752,0.8615568280208061,0.0,0.0,0.0,0.0
0.03357686387191465,0.06896074040371664,0.8380236993176062,-0.0019398839444318666,-0.5276352210858016,0.0009833265057459131,0.8494682709724963,-0.0317817668514301,0.27501161243991323,-0.5657699183003042,-0.0028655582052847725,0.3978318010423138,-0.6781527072206185,0.016186404009390906,0.7492294394447896,0.7453103420325325,-0.05738287270844504,0.6550348958222921,0.8719250684494046,0.0,0.0,0.0,0.0
0.035063203954148074,0.07241943478551538,0.8390471617954919,-0.0021415509594216193,-0.5275878533881733,0.0011835141363424465,0.8494969511487588,-0.027277547645874266,0.27280465901602113,-0.5705147147462276,-0.010278452129045927,0.39985246780148864,-0.6754426748580283,0.0009971325777152588,0.7567514427797968,0.7435558196993431,-0.05207732500110262,0.6546235138365502,0.8816411879062016,0.0,0.0,0.0,0.0
0.03626886640105981,0.07562120020475938,0.8399378106778467,-0.0023020953414568117,-0.5275146968632387,0.0013473271875209442,0.849541717433449,-0.02257632488324777,0.2707301268113404,-0.5750089493161641,-0.01712531050734877,0.4006170672599929,-0.6714933373098754,-0.013548415235614519,0.7631349878969518,0.7422289038453473,-0.04627770908537746,0.654402655920045,0.8905806820709907,0.0,0.0,0.0,0.0
0.03720160115463647,0.07856149446315046,0.8406645845747096,-0.0024245025835183723,-0.5274168815997978,0.001478667071892572,0.8496018881420038,-0.017618859870058297,0.26910085243550247,-0.5786603205710041,-0.02339792921428013,0.40025863691772384,-0.6666495313220258,-0.027305485948320454,0.7681740330100537,0.7417379399112124,-0.03965794638804489,0.6545409683356043,0.8982630659571915,0.0,0.0,0.0,0.0
0.037862469862054146,0.08124634370310216,0.8411955992826433,-0.0025113891406483863,-0.5272950164356226,0.001581059578415074,0.8496770909100411,-0.012416181698304031,0.26830743606463087,-0.5806251432758129,-0.02911143699863821,0.39884797280138734,-0.6611508252062861,-0.04019906326308909,0.7716504138065686,0.7425205525733198,-0.031871623515479654,0.6554231739945042,0.9036589646625788,0.0,0.0,0.0,0.0
0.038241295283731734,0.08369176490328924,0.8415078118419961,-0.0025654269471117987,-0.5271508184015432,0.0016585727722224814,0.8497662516124781,-0.007004765700775842,0.2685149686128079,-0.5797390082535314,-0.03430292719212138,0.39634745604141425,-0.6550087125740947,-0.052212417143002246,0.7733795020737305,0.7449345349608384,-0.022624888937937883,0.6577604525558597,0.9049884390157658,0.0,0.0,0.0,0.0
0.038311920975776396,0.08592010507975224,0.8416006362162268,-0.0025845754540725543,-0.5269782609020541,0.001710426913648473,0.8498731122621433,-0.0014018359537789262,0.26969073246612313,-0.5760024820453853,-0.039016428760083294,0.39258669830230175,-0.6479718567703189,-0.06341405334518903,0.77326881611511,0.7490661923175802,-0.012014757023112633,0.6614411359788201,0.9022078895707032,0.0,0.0,0.0,0.0
0.038034356601953936,0.08795937213695766,0.841495703707504,-0.0025606684797561292,-0.5267627087024207,0.001729949271714337,0.8500067640748176,0.004420361561893064,0.27160525617128145,-0.5705888688847404,-0.04330010697119324,0.38727326348951424,-0.6395504880403458,-0.07395639750189253,0.7713186159048572,0.7547244495798131,-0.0004923031283663361,0.6655351306308944,0.8970328273794858,0.0,0.0,0.0,0.0
0.03736360125669562,0.0898431496534778,0.8412219229752689,-0.0024818565270052105,-0.5264886063051435,0.00170845110243019,0.8501768457290975,0.010536985311012517,0.2737981031295031,-0.5643537933892063,-0.04721156085589594,0.3800408275467419,-0.6291034297170021,-0.08404013631615301,0.7675647296047906,0.7616261893777554,0.011517881120473287,0.6694330916490876,0.8904772867845809,0.0,0.0,0.0,0.0
0.036258866436316185,0.09160561399272005,0.8408037155891107,-0.0023317298984438226,-0.52613872685421,0.0016338964958562661,0.8503939872330663,0.017053212612858106,0.2758710536854686,-0.557882601487994,-0.05080710898304478,0.37052654628777243,-0.6160164502459388,-0.09390273651147056,0.7620369027282887,0.7695086138339736,0.023739335122117535,0.6727305612321262,0.883076542569137,0.0,0.0,0.0,0.0
0.03469719643050739,0.093274362996241,0.8402593175724262,-0.0020917776522920623,-0.5256980953072838,0.0014925194439087844,0.8506673318296976,0.024080539816762576,0.2776138908129898,-0.5515672740554521,-0.05412896993525554,0.3584584076133597,-0.5998288467139378,-0.10376454319050521,0.7547873592040657,0.7781370667235673,0.03607834569624192,0.6751737114511437,0.8751217785306075,0.0,0.0,0.0,0.0
0.03269458146307687,0.09486012003154926,0.8396010816505723,-0.0017483681277784499,-0.5251631633044078,0.0012739220106294973,0.8509988086006398,0.03169023924106873,0.27904102006598874,-0.5456456098346236,-0.05718874072089971,0.343788868014153,-0.5803981771389521,-0.11372746660032057,0.7459511412410003,0.7873029520631629,0.048715749228383357,0.6767365126775194,0.8668453424759993,0.0,0.0,0.0,0.0
0.030338318027080785,0.09634122027218671,0.8388290493469732,-0.0013058355887767608,-0.5245552069751254,0.0009797868654080565,0.8513748702225107,0.03984002908861975,0.2803702612763494,-0.5401544699799782,-0.05994304088899983,0.3269370871467778,-0.5582525714443145,-0.12362363763541341,0.7357967528827581,0.7969070153583379,0.062384089654996935,0.677873597656327,0.8585770679921684,0.0,0.0,0.0,0.0
0.02783521785926045,0.09763917010160625,0.8379006210544837,-0.0007874585579567404,-0.5238855207179872,0.0005990372284523937,0.8517881087720477,0.048418919530214447,0.28173738444132684,-0.5346000868556757,-0.06220481127692226,0.3094275262245822,-0.5360495644865129,-0.1330652654561883,0.7246362000180844,0.8071512133733331,0.07868914555543012,0.6797347411473852,0.850781913180589,0.0,0.0,0.0,0.0
0.02560102954549596,0.09861345369247794,0.836778658895683,-0.0002817149689204102,-0.5231766573992908,0.000221874929670335,0.8522241821027475,0.057586159599069736,0.28299773415565826,-0.5279551876638987,-0.06382623372606026,0.29463464064627554,-0.5194096181942801,-0.140674679573958,0.7131203711073026,0.8181044319519474,0.10083852283883796,0.6842291260348342,0.8441063946025359,0.0,0.0,0.0,0.0
0.023810821751277567,0.09923195583587853,0.8356885613591064,0.00010672387016584006,-0.5225517936527563,-8.044782368078364e-05,0.8526075328593165,0.06609618025591828,0.283623716863903,-0.5202129335112411,-0.06478141054199688,0.2834390433333563,-0.5082261866387632,-0.1456792431955891,0.7028942029754323,0.8279278378803081,0.12869437245269713,0.6910585526910149,0.8392064407287049,0.0,0.0,0.0,0.0
0.0226915850376172,0.09945934112542161,0.8349369209948518,0.00021398749432058767,-0.5220748762389779,-0.00017094373318765887,0.8528996122567112,0.07202560252003397,0.28218656329948544,-0.5115576039602646,-0.06511686721564719,0.27695889912894867,-0.5025846804430041,-0.14661532817986384,0.6957893337264157,0.8339218942280751,0.15655792653725192,0.6978160999592758,0.8366283706701166,0.0,0.0,0.0,0.0
0.022660694585392466,0.09941845536415439,0.834906519869477,0.00027441034394398543,-0.5220604444290642,-0.00017343998292363181,0.8529084282501044,0.07208058144374038,0.2822229105381062,-0.5115535326221491,-0.06508856771750558,0.27681846835088647,-0.5025711167711335,-0.1466374138021522,0.6956533157431781,0.8338610081234259,0.15656680040544463,0.6978605059328211,0.8366439162351961,0.0,0.0,0.0,0.0
0.022660694585392355,0.09941845536415424,0.834906519869477,0.00027441034394371004,-0.522060444429064,-0.00017343998292303106,0.8529084282501045,0.07208058144373981,0.28222291053810594,-0.5115535326221506,-0.06508856771750643,0.27681846835088736,-0.5025711167711364,-0.14663741380214243,0.6956533157431772,0.8338610081234267,0.15656680040544801,0.6978605059328191,0.8366439162351974,0.0,0.0,0.0,0.0
0.022660694585392355,0.09941845536415424,0.834906519869477,0.00027441034394371004,-0.522060444429064,-0.00017343998292303106,0.8529084282501045,0.07208058144373981,0.28222291053810594,-0.5115535326221506,-0.06508856771750643,0.27681846835088736,-0.5025711167711364,-0.14663741380214243,0.6956533157431772,0.8338610081234267,0.15656680040544801,0.6978605059328191,0.8366439162351974,0.0,0.0,0.0,0.0
0.023932578738807997,0.09981493031636127,0.835646290917804,0.00032815008797135484,-0.5227760849430307,-0.0002150247055122313,0.85246994732573,0.07134842599792847,0.28935675854087467,-0.5172564646816376,-0.06590288569505309,0.28191986798641894,-0.5045256090952138,-0.15049510221284493,0.7039098065845822,0.8297843881660947,0.15568123254341718,0.7060050765929441,0.8310172253986563,0.0,0.0,0.0,0.0
0.026178498923714186,0.10063483638814263,0.836896843886315,0.00037333595802581854,-0.5240047011812952,2.0992340627959427e-05,0.8517152888844287,0.069234245582107,0.3024637816167973,-0.5291705622267787,-0.0681789069830845,0.29079478959375227,-0.5075795805639647,-0.1562541270399974,0.7177657746611693,0.8230474167788222,0.1553338817463198,0.720591079145392,0.8211574982275882,0.0,0.0,0.0,0.0
0.028479073535018083,0.10143492995231425,0.8379437112760035,0.0007884796678951952,-0.5244357837389543,-0.0004250504640521887,0.851449532483297,0.06825146795147802,0.3179913545160899,-0.5485396350712675,-0.06074735034388678,0.2922676233540281,-0.5151913934634097,-0.12572917927610006,0.7078169572830236,0.8321821441812053,0.14847889457782487,0.7313264089895335,0.8101028289679013,0.0,0.0,0.0,0.0
0.03100570164240831,0.10240768041881325,0.838740227990575,0.0013093113005359658,-0.5248597752187094,-0.0009555637048364789,0.8511871644704766,0.06700016993709136,0.33541620103932546,-0.571803696318307,-0.050340271818476084,0.2911503831671381,-0.5231486752728397,-0.09257584926364615,0.697837335790483,0.8405284520626625,0.13968851104700902,0.7411875866789458,0.8008218948109544,0.0,0.0,0.0,0.0
0.03351942602671863,0.10365190140631123,0.8393516426018174,0.0016914263952165446,-0.5251797140458133,-0.001233277113523942,0.85098876964333,0.06482957441528008,0.3535143610456135,-0.5979367504698284,-0.039485362436485996,0.28904612980216815,-0.5306419461309626,-0.06556618898922131,0.6905731438626114,0.8486449598058177,0.1312748548196651,0.7503730753958692,0.7922517639657333,0.0,0.0,0.0,0.0
0.035748430232283274,0.10507734235993807,0.8399051631344285,0.0019789641019029715,-0.5255478698718001,-0.0013856927552478833,0.8507606008918637,0.06207708433585417,0.3694536418145059,-0.620590618991893,-0.02928365172067881,0.2868676108374917,-0.5377325852749838,-0.04478504641964418,0.6855180020205034,0.856919653154706,0.1228196773549875,0.7590348864857536,0.7838318186134826,0.0,0.0,0.0,0.0
0.03753326640195167,0.10663416540773049,0.8404208650906315,0.0021938821197035425,-0.5259403667174033,-0.001464604082038525,0.8505173557742906,0.05891157181011419,0.3823948575222876,-0.6384054504311492,-0.020219287485410804,0.284651651695894,-0.5445878759633647,-0.02810001601729178,0.6813434342175183,0.8651896272097459,0.11409132963881201,0.7667315954373644,0.7754598005446232,0.0,0.0,0.0,0.0
0.03881206578159493,0.10831327071173857,0.8408863681123904,0.0023520853520623947,-0.526324217210168,-0.0015002186628697884,0.8502793866821445,0.05539965187083713,0.39227321214376737,-0.6515359758057143,-0.012319320813493774,0.28223158114182956,-0.5513030876823477,-0.013779033889340936,0.677169650025538,0.8732733889751747,0.10487252608307437,0.7730954315133074,0.7672577032523025,0.0,0.0,0.0,0.0
0.03958748246306212,0.11013211057553338,0.8412834034313905,0.002463111961525376,-0.5266778906018793,-0.0015068433155635535,0.8500600343821855,0.051535222943099784,0.39936317386814046,-0.6606635420214064,-0.005409899464904394,0.279448002049353,-0.5579009548409967,-0.0007699065085542897,0.6725693797955958,0.881071888524678,0.09499219826992414,0.7779454878233975,0.7593639488182912,0.0,0.0,0.0,0.0
0.03989814600694402,0.11212188908639667,0.8415924334153121,0.0025317751723481084,-0.5269899368330367,-0.0014890241845858711,0.8498664479776611,0.0472713719588326,0.40408128424593387,-0.6666440403961797,0.0007246907058708662,0.27623037944018203,-0.5643344439639453,0.011454668123090227,0.6674217768695259,0.8885207213470808,0.08432403049017494,0.7812364645340114,0.7518948991932152,0.0,0.0,0.0,0.0
0.03979828903473345,0.11431821255152227,0.8417909023999166,0.0025600956023701556,-0.5272551369961702,-0.0014467751752209681,0.8497019320110133,0.04254585523373082,0.4068818687294026,-0.6703600997682354,0.006267909067847287,0.272647551566331,-0.570474169884555,0.023082306884414885,0.6617923582294547,0.8955119102759049,0.07277693306801343,0.7829809249419609,0.744974624350895,0.0,0.0,0.0,0.0
0.03934465936874185,0.11675455857423368,0.8418507835203783,0.0025485117977750537,-0.5274715258655333,-0.0013786700260117392,0.8495677687846108,0.037298395628694546,0.40819778627508524,-0.6726507652738914,0.011352312884831881,0.2689415434653113,-0.5760683678886357,0.034076439131334006,0.6558752730299637,0.9017947931140796,0.06029346372088055,0.7831871607659772,0.7387771544262256,0.0,0.0,0.0,0.0
0.03858852915785431,0.11945721382611993,0.841737735862326,0.0024963245402543446,-0.5276390012742608,-0.0012830505607519217,0.8494640701520865,0.03148234179777425,0.4084010022563621,-0.6742604303094735,0.016069976935460584,0.2655214258125836,-0.5806747193059074,0.04422381794639988,0.650003734400055,0.9068342068344726,0.046860088435165675,0.7818244803617845,0.7335548262689904,0.0,0.0,0.0,0.0
0.03757066113396102,0.12244062963344308,0.8414147359161075,0.002402117585553383,-0.5277598719738862,-0.0011584042887497915,0.8493894309824653,0.025073844033231343,0.40776462804664404,-0.6757609603042063,0.02049031712731226,0.26285795365668846,-0.583570499826695,0.053169342214282496,0.6447324303150851,0.9095955715398346,0.03252170783928458,0.7788268589705905,0.7296208617992521,0.0,0.0,0.0,0.0
0.03631770960864662,0.12570364121267436,0.840855933350867,0.0022661426905580487,-0.5278421874072351,-0.0010056598064439066,0.8493388478333044,0.018081070220818157,0.40641146846237963,-0.6773909895646036,0.024668440270718336,0.2611978741404745,-0.5836898155638456,0.06055087809176757,0.6409518432141016,0.9083335589910128,0.017369559029622,0.77416030485168,0.7272204040540939,0.0,0.0,0.0,0.0
0.03483848751483393,0.1292315372558632,0.8400615331793649,0.002092563832526445,-0.5278922788315322,-0.0008286616264604935,0.8493083518054956,0.010539488141850555,0.40429406670696133,-0.6790019581499427,0.02865880517731488,0.26059159455209724,-0.5811029254326489,0.06637390146024312,0.6387435901713583,0.9030620426143896,0.0015098552723685904,0.7678810157754106,0.7263344371912479,0.0,0.0,0.0,0.0
0.03312738531714729,0.13299552972129916,0.8390578807392524,0.001889569255601734,-0.5279134968454521,-0.00063404086601523,0.8492958067532274,0.0025151340467152016,0.4012231895110998,-0.6801111810876893,0.03253307178342873,0.2609009961992034,-0.5770272809010181,0.07104328891401962,0.6373761795091457,0.8955236352344834,-0.014923140658085202,0.7601470929856979,0.7266734938045131,0.0,0.0,0.0,0.0
0.031173746879247625,0.13694690563258444,0.8378847185946131,0.0016675851832683715,-0.5279131503877516,-0.00043084190267551583,0.8492966143713224,-0.0058793427350174255,0.39692561673491833,-0.6800106795158979,0.03639848480200656,0.26179672954285976,-0.5723635920846043,0.07504328046152992,0.63644469212402,0.8867141981464156,-0.03171865703495571,0.7511835636532413,0.7278658129027601,0.0,0.0,0.0,0.0
0.028970450560764197,0.1410152747187209,0.8365847124015701,0.0014380476450451668,-0.5279012475780172,-0.0002290631766360424,0.8493045109703614,-0.014481188305876302,0.3911167427769707,-0.6779355293353128,0.040409473378834,0.263081377707356,-0.5677815872127738,0.07887316780236256,0.6357636926139413,0.8770963590631387,-0.04857695506992359,0.7412349541824411,0.7295917140288525,0.0,0.0,0.0,0.0
0.02652364057828676,0.14510755232553307,0.8352015645111462,0.0012150624427685697,-0.5278928122070589,-4.165724543716636e-05,0.8493101322297156,-0.023073669727216285,0.38355820902279386,-0.6731489392581382,0.04474437544457679,0.26484105741769914,-0.5638543759900555,0.08313732507166155,0.6352804233534279,0.8668069087369162,-0.06514268832770298,0.7305647415042464,0.7316304125377492,0.0,0.0,0.0,0.0
0.023864233556566517,0.14910674321364087,0.8337754328921121,0.0010187993806579755,-0.527910502730551,0.00011048269864697028,0.8492993882890605,-0.03137911763279768,0.37412547610060365,-0.6650488133828626,0.04954668740722981,0.26748983207666766,-0.5612072660463933,0.08869899749462211,0.6350316153096931,0.8557699582860465,-0.08106517260049999,0.7194347507392643,0.733934550567172,0.0,0.0,0.0,0.0
0.021059526308221162,0.15287095037213475,0.8323192057700688,0.000878581175938968,-0.52795864362199,0.0001618067139909693,0.8492696112180943,-0.038989628427812194,0.3629669296279945,-0.6536178545837378,0.05489875145248587,0.2716940568031828,-0.5608530188416744,0.09664686335476916,0.6350712035474049,0.8437571735925389,-0.09618529919046073,0.7078772904490555,0.7367796012814486,0.0,0.0,0.0,0.0
0.018160370590572177,0.1562387964743712,0.8308907897060209,0.0008209404241358373,-0.528133418337507,0.00010776628033202,0.8491610017413592,-0.04558056384662107,0.3498503834837917,-0.6376291460813701,0.061297276812097554,0.2785118201834028,-0.5643955217625313,0.1091939532312536,0.6353667959873907,0.8304599531470328,-0.11004902863088273,0.6963544698303739,0.7404479452757268,0.0,0.0,0.0,0.0
0.01578562985702302,0.1591788115511773,0.8294295473314455,0.0008870048133796589,-0.5284487852911867,-0.00010680865626292052,0.8489647125403041,-0.05106472833000567,0.33879950535322556,-0.6238440685498522,0.06815804154347284,0.2890712218091851,-0.5732151325281974,0.12783905749778668,0.6373637295628615,0.8154814693526758,-0.12336229406843668,0.6855524584634934,0.7458335492820356,0.0,0.0,0.0,0.0
0.014150779801361963,0.16144436078677799,0.8280285781417839,0.0010544552656521465,-0.5291285771330512,-0.0004959155077717498,0.8485408599785013,-0.05490833909608304,0.33053651998722194,-0.6119600336343002,0.07525199951239876,0.30506335013820546,-0.5917864067705274,0.15337397615112142,0.6417180356252408,0.7980513274180902,-0.13546505727359429,0.6764993654554209,0.7537791818317264,0.0,0.0,0.0,0.0
0.013516016415181329,0.16276417715390043,0.8268814496435883,0.0011489452205865665,-0.5303049294865251,-0.0009331794355435294,0.8478056916907982,-0.05667027819447931,0.3262268270710736,-0.6027688801673672,0.08160350340047746,0.3277634749590044,-0.6256196337811032,0.1808684132279267,0.6501650388591665,0.777537471206304,-0.14430060531161762,0.6710388168861111,0.7640562907835726,0.0,0.0,0.0,0.0
0.013390756440372607,0.16321865941032057,0.8267368503510913,0.0007865965880335181,-0.5304109826880047,-0.0009387694151194306,0.847739753356971,-0.05718125156054059,0.32601910981787335,-0.6028385783104913,0.08166620734558944,0.32781007627861236,-0.6256234918689446,0.18089799620339525,0.6501942991102571,0.7775421020998237,-0.1444562853331541,0.6708870130660439,0.7639927026929941,0.0,0.0,0.0,0.0
0.013390756440372607,0.16321865941032057,0.8267368503510913,0.0007865965880335181,-0.5304109826880047,-0.0009387694151194306,0.847739753356971,-0.05718125156054059,0.32601910981787335,-0.6028385783104913,0.08166620734558944,0.32781007627861236,-0.6256234918689446,0.18089799620339525,0.6501942991102571,0.7775421020998237,-0.1444562853331541,0.6708870130660439,0.7639927026929941,0.0,0.0,0.0,0.0
0.01426852898617216,0.1652520952648142,0.8274035478662252,0.0006518649975687717,-0.5301717381029709,-0.0008876090269914154,0.8478895655326317,-0.06137423173487595,0.33474660875715845,-0.6171799057441838,0.07762858061436914,0.331092505276555,-0.629075667497152,0.1733536874992662,0.6535844321177301,0.7777770355242491,-0.15229942921166914,0.6771029434161729,0.7491489795555795,0.0,0.0,0.0,0.0
0.016577161225912986,0.16922276598835045,0.8305019754512681,0.0002440731081198103,-0.5308559609920792,2.1947810323158103e-05,0.8474620278371104,-0.071042772829307,0.35055631105077734,-0.6308315353235568,0.06799459711045883,0.3368259624090024,-0.6205909268287315,0.16366229315881142,0.671582981677978,0.7627249143112595,-0.1646301107118484,0.7038456493357488,0.7057224844985829,0.0,0.0,0.0,0.0
0.018175644456542742,0.17316913533882292,0.8330197852988074,0.000139081484677116,-0.5293094209156951,-0.0004497685286648844,0.848428733185353,-0.06717673018707511,0.32653754329364176,-0.5915220002445627,0.061179913874013024,0.3428060313308757,-0.6280061262166827,0.1436611946419598,0.684391798718072,0.7466755887073377,-0.14390038278361478,0.6812109036293444,0.7517465219217375,0.0,0.0,0.0,0.0
0.020410372143144572,0.17747558337366304,0.8349651988730953,-6.563646015562777e-06,-0.5283838773050153,-0.0006136747145349635,0.8490053601505598,-0.061511566834836884,0.30875760961829746,-0.5694743089181525,0.05301583164742569,0.3515605544074049,-0.6384646456882824,0.12483845248005812,0.6957638038950381,0.738621039450821,-0.12087697446026477,0.6686940838416504,0.7838414844294989,0.0,0.0,0.0,0.0
0.023072228703293632,0.1820036420804862,0.8362121035959059,-0.0002784387918002077,-0.5279267906184686,-0.0004996568861234988,0.8492896894241204,-0.055412601070313185,0.2965329046995094,-0.5590743249161931,0.04391934882169291,0.3621034821720046,-0.651515538229309,0.1073535798549703,0.7043697312765304,0.7394526626958509,-0.10175553176402496,0.6627173560756331,0.8061971604440663,0.0,0.0,0.0,0.0
0.025755255920962866,0.18655606626503726,0.8373581236969423,-0.0006019604156902849,-0.5277275041127067,-0.0002406789212827189,0.8494134806560865,-0.049512712948970916,0.2887673037176103,-0.5556103108639816,0.03443626023459219,0.37172572862823283,-0.661625118793114,0.09035365338406864,0.7129178172034046,0.7416144018503353,-0.08806994774393509,0.6594469554293788,0.8232231947294576,0.0,0.0,0.0,0.0
0.02832335205859585,0.19100265389310322,0.8385568588096027,-0.0009446403085781769,-0.5276707914437097,6.515470503756332e-05,0.8494484323763986,-0.04415179386165979,0.2839489257320484,-0.5559720577983628,0.025020141712620025,0.37992255578416106,-0.6681911686971601,0.07364085361720976,0.7220767932266023,0.7427084940358305,-0.07874481609479918,0.6575641112229459,0.8372083092609508,0.0,0.0,0.0,0.0
0.030681384094756348,0.19527772795386936,0.8397875672314902,-0.0012724325356398983,-0.5276650647527162,0.00036840967171901547,0.8494514845647559,-0.039350450077122144,0.28078234697739135,-0.558554014894892,0.01589872407784365,0.3865261008705396,-0.6716652578652914,0.05708430046495246,0.7314717136153727,0.7425348688265517,-0.07213845500617316,0.656402800849927,0.8493852788683393,0.0,0.0,0.0,0.0
0.03277601943994668,0.1993376135123878,0.8409969105303832,-0.0015661477517821527,-0.5276614874419805,0.0006446330763246604,0.8494530512629483,-0.034923208806089734,0.278367769541984,-0.5624207919534835,0.007212743553291715,0.3915228438030564,-0.6726023899127489,0.04072838439372858,0.740611434562067,0.7414755034974378,-0.06686625649103929,0.655642904042817,0.860434179393256,0.0,0.0,0.0,0.0
0.03458531511330436,0.20314993163949047,0.8421372956014173,-0.001817355832087653,-0.5276404088471017,0.0008835645975333708,0.8494654292453842,-0.030619823713260753,0.27618959015612965,-0.5669738398853529,-0.000944247617102021,0.3949968395119889,-0.6715047689568536,0.024727598182570944,0.7491113219803698,0.739988294650684,-0.06199756817637399,0.6551235812852654,0.8707259598518677,0.0,0.0,0.0,0.0
0.03610621814665631,0.20669171273117842,0.8431720291757074,-0.002024337787683189,-0.5275956548480489,0.0010836322915571705,0.8494925266198852,-0.026220728793546116,0.27405440016755533,-0.5717501938023994,-0.008513351141781016,0.3970857752282235,-0.6688209726883618,0.009281366039512816,0.7566928602279862,0.7384849363344549,-0.056953456395732016,0.6547763827476206,0.8803928820576519,0.0,0.0,0.0,0.0
0.03734410728707525,0.20994992904016663,0.8440704989242096,-0.0021886300954422617,-0.5275265544891808,0.0012471183189894637,0.849534807352222,-0.02158362651813478,0.272047391395467,-0.5762790317238335,-0.015464102319315979,0.39793837185789843,-0.6649452987723764,-0.005424429141586027,0.7631356501161246,0.7373546900813404,-0.05135004794801083,0.6546271186501119,0.8893091988350225,0.0,0.0,0.0,0.0
0.038304637888572454,0.2129220105875732,0.8448025165059969,-0.0023126387624158038,-0.5274339255634993,0.0013771264170516382,0.8495917898552593,-0.01665413821765868,0.27047497694720896,-0.5799580380048064,-0.021791116480930246,0.39767813309896627,-0.6602080994464764,-0.019256857681722455,0.7682298797201932,0.7370112836010164,-0.04486002014503851,0.6548358743611459,0.8969929677654488,0.0,0.0,0.0,0.0
0.038987560787793044,0.21561582399782703,0.8453368771393341,-0.002398697825111071,-0.5273183194670632,0.0014766474525476439,0.8496631424955874,-0.011448431081906834,0.26972488288903534,-0.5819357994651015,-0.02751229860784469,0.3963693277431109,-0.6548378393553457,-0.03215000445223874,0.7717547442997821,0.7378985472024114,-0.037136704253626335,0.6557831123669216,0.9024141731552954,0.0,0.0,0.0,0.0
0.03938222816759357,0.21804889473914552,0.845650641794953,-0.0024493329705166165,-0.5271812048813318,0.0015494272496996645,0.8497479492549922,-0.006007672330190457,0.26996112509386083,-0.581043643186259,-0.0326672157495773,0.3939725765477363,-0.6488450838670103,-0.044093970190423465,0.7735218421919066,0.7403831981272629,-0.02788731130845457,0.6581782961001426,0.9037933545497129,0.0,0.0,0.0,0.0
0.03946287595330502,0.22024451139258205,0.8457426642837909,-0.0024628369026754894,-0.5270162421094641,0.0015949825631667372,0.8498501462127501,-0.00035265828947381,0.27115227733718433,-0.5772839787051177,-0.037302131475212885,0.3903208476294525,-0.6419872021226841,-0.055157408840124406,0.7734335503788156,0.7445631366833539,-0.017213733686420554,0.6619122006499618,0.9010854818697313,0.0,0.0,0.0,0.0
0.039190605250455125,0.2222313253518184,0.8456333390846231,-0.00243171579628395,-0.5268086499255289,0.0016073059711781833,0.8499789113204178,0.005542450403367595,0.2730733957344311,-0.571838050905623,-0.04146744965676175,0.38512888480883584,-0.6337900008126338,-0.06549005575412416,0.7714842241656451,0.7502638372054177,-0.005577414798926332,0.6660615883147128,0.8960033233038099,0.0,0.0,0.0,0.0
0.03852175278712856,0.22404390013894576,0.8453497582934915,-0.002344934580103983,-0.5265425410414662,0.0015786300118698813,0.8501440828957739,0.011751908998591654,0.27526995902004225,-0.5655729797972153,-0.045224309126014155,0.37803917199944037,-0.623632900753899,-0.0752914131357747,0.7677013767826144,0.7572241814948546,0.006588170800945018,0.6700260800567598,0.8895596378453221,0.0,0.0,0.0,0.0
0.037416549129005425,0.22571840824100767,0.8449142864239227,-0.002187209873891546,-0.5262002428379774,0.0014982962601844637,0.85035655795586,0.018380465587367438,0.27735057453972334,-0.5590886681040341,-0.048635407285636506,0.36869497395751893,-0.6109179956758016,-0.08480034936861275,0.7621040115756431,0.7652072808285793,0.019003653318204757,0.6734106456772332,0.8822885481365216,0.0,0.0,0.0,0.0
0.03585197617913512,0.2272863579324492,0.8443432766812136,-0.0019409473179178272,-0.5257657740472468,0.0013538811674476301,0.8506260932805864,0.025540774483357027,0.2791112932333348,-0.5527960999962899,-0.05175346024792699,0.3568224869218937,-0.5951896610596051,-0.0942501591836103,0.7547316710864067,0.7740044110380728,0.03157420814412329,0.6759620417404589,0.8744767047494004,0.0,0.0,0.0,0.0
0.03384210475773923,0.2287653274401065,0.843648042010519,-0.0015924311181740314,-0.5252337964535575,0.0011353894808573846,0.8509557180704784,0.033308890698807964,0.28057193865269914,-0.5469592391026744,-0.05460551756883625,0.34235733311445865,-0.5762875116565125,-0.10377886901565547,0.7457073382096285,0.7834268371793529,0.04446685935677433,0.6776321303248208,0.8663441853009464,0.0,0.0,0.0,0.0
0.03146988411064297,0.2301443588935155,0.8428296075075338,-0.001144752143800389,-0.5246239494594735,0.0008439740433906146,0.8513328895936578,0.0416507978308428,0.28196027584992195,-0.5416565945891203,-0.05717001569587326,0.3256749567911316,-0.5546685005252396,-0.11327805234400659,0.735293442621956,0.7933798729805339,0.058362611814460924,0.6788161157044715,0.8582015824646814,0.0,0.0,0.0,0.0
0.028935310599062132,0.2313603686463041,0.8418501341544292,-0.0006239763615089775,-0.5239591448676068,0.0004775771295025479,0.8517430346549315,0.05043378366180204,0.28347484892164876,-0.5364975053069039,-0.05930349949589366,0.30817556368845295,-0.5326762673776554,-0.12236994097812814,0.7238208426629537,0.8040750297153141,0.07480670103296656,0.6806170456095354,0.8505199635008123,0.0,0.0,0.0,0.0
0.02666535210527697,0.2322708456709708,0.8406595354284834,-0.00011744313296634306,-0.5232565818011838,0.00011234061699918826,0.8521751716568826,0.05975644630089342,0.2849450545692792,-0.5303450836561734,-0.06082573030059692,0.293354911418859,-0.5162369422527449,-0.12973265839881165,0.7119057430295482,0.8156787249628856,0.09695229650367894,0.6850322965623458,0.8438987989900292,0.0,0.0,0.0,0.0
0.024839634610585866,0.2328508303661659,0.8394859883785167,0.00027446039701263053,-0.5226447888529766,-0.00018270601048055935,0.8525504770832233,0.06833761597607231,0.2859198350606377,-0.5233520133116357,-0.061724863098416884,0.28208620500316445,-0.5051965656947287,-0.13465336291166174,0.7012362461823345,0.8263355030528408,0.12459330927491201,0.6917764545418719,0.8389982830618739,0.0,0.0,0.0,0.0
0.023696504436461575,0.2330678281081753,0.8386547961018874,0.0003958230162750701,-0.5221915496890319,-0.00028035730364178827,0.852828089451379,0.07425820659838964,0.2850584660245146,-0.5158716891470189,-0.0620411549861394,0.2755267592799405,-0.49963849034172053,-0.13576913900454118,0.6937866910516817,0.8331694366215475,0.15201009655937472,0.6984911584945735,0.8363842883850673,0.0,0.0,0.0,0.0
0.02366191584970013,0.2330189257420285,0.8386217312881517,0.0004624248113952279,-0.5221792273536405,-0.0002825306325543536,0.852835600136445,0.0743114082495029,0.2850960613916737,-0.5158679205539821,-0.062003765115336326,0.27538181645373233,-0.49962703129853214,-0.13578896619052727,0.6936478299497287,0.8331076570016814,0.15201839501707148,0.6985366708137735,0.8364000267502236,0.0,0.0,0.0,0.0
0.023661915849698782,0.23301892574202948,0.8386217312881532,0.0004624248113960041,-0.522179227353642,-0.00028253063256474713,0.8528356001364442,0.07431140824953034,0.28509606139168087,-0.51586792055395,-0.06200376511530696,0.2753818164537789,-0.4996270312986406,-0.13578896619026146,0.6936478299496298,0.8331076570018165,0.1520183950171004,0.698536670813763,0.8364000267502649,0.0,0.0,0.0,0.0
0.023661915849698782,0.23301892574202948,0.8386217312881532,0.0004624248113960041,-0.522179227353642,-0.00028253063256474713,0.8528356001364442,0.07431140824953034,0.28509606139168087,-0.51586792055395,-0.06200376511530696,0.2753818164537789,-0.4996270312986406,-0.13578896619026146,0.6936478299496298,0.8331076570018165,0.1520183950171004,0.698536670813763,0.8364000267502649,0.0,0.0,0.0,0.0
0.024922040680100944,0.23342524918179072,0.8393609776777814,0.0005167103459055349,-0.5228908633775335,-0.0003265891314883785,0.8523994200762076,0.07356282990612799,0.292157009008014,-0.5214643931509848,-0.06283218844753374,0.28039439536144983,-0.5014524633853821,-0.1395794445018394,0.7018406420925042,0.8290714170365182,0.1510073159860894,0.7066390168363911,0.8307164634993291,0.0,0.0,0.0,0.0
0.027150803800425036,0.23426640351491407,0.8406215546530921,0.0005491091034348223,-0.5241064944824585,-7.782185792369485e-05,0.851652555250238,0.07139220048331146,0.30519024333508943,-0.5333205229529706,-0.0651600747492203,0.28912268620782766,-0.5042463915515604,-0.14506985826624733,0.7155877306649994,0.8222881846298266,0.1505706663299136,0.7212344582881743,0.8206260104584279,0.0,0.0,0.0,0.0
0.029440377275296505,0.2350941929927481,0.8416511662639997,0.0009406990523942175,-0.5245415707693256,-0.0005104634226128319,0.8513841641980637,0.07035486570494529,0.32068048909408,-0.5527106860885145,-0.05779354208613358,0.2910851321599448,-0.5128564578522227,-0.11578296471992675,0.7058103514037124,0.8316166717710294,0.14370910915272184,0.7319040774163912,0.8096456476897713,0.0,0.0,0.0,0.0
0.03194520585208575,0.23609856595841544,0.8424439555753817,0.0014330561678669847,-0.5249578241358546,-0.0010162156393184523,0.8511264280553995,0.06902341006391818,0.33800383376705595,-0.575915477259381,-0.04746034130849468,0.2902694516829221,-0.52140292452314,-0.08384922725908203,0.6959386284814992,0.8400704232687269,0.13494629194901597,0.7417315106985194,0.8002571654925619,0.0,0.0,0.0,0.0
0.03443125440351113,0.23737440880814883,0.8430499965461771,0.0017930571837623652,-0.5252656125195573,-0.0012741049729578992,0.8509354839862467,0.0667759988551058,0.3559675986055718,-0.6019508744820354,-0.0366677346997913,0.28832143319140435,-0.5292334753129093,-0.05764217573630942,0.6886802747275891,0.8482222873003468,0.12650077502662424,0.7508423112217378,0.7915832751442333,0.0,0.0,0.0,0.0
0.036628841988621506,0.23882822914145935,0.8435968223853882,0.0020655655689387365,-0.5256234386813907,-0.0014136621897756754,0.850713662583859,0.06395757727735454,0.37175236867527145,-0.6244578064607509,-0.026514982993723145,0.2862129682728664,-0.5365132979286049,-0.03730546198375459,0.6835588911508255,0.8564841036241985,0.11796190355732347,0.7594026846248042,0.783088649233656,0.0,0.0,0.0,0.0
0.03838182978785675,0.24041023167233005,0.8441052169154881,0.002270492665387909,-0.5260072420784931,-0.001484203621873081,0.8504757629019435,0.060734205954082805,0.38454648392604474,-0.6421274664693806,-0.017489996358762007,0.28401316848466296,-0.5434630033752534,-0.020843822567070475,0.6792806209589018,0.8647110652923387,0.10912673691511283,0.7669866665401995,0.7746643598143161,0.0,0.0,0.0,0.0
0.039630070929408186,0.24211128069433394,0.8445635647440883,0.0024220271074580258,-0.5263838093859505,-0.0015142472873320412,0.8502422749170844,0.057171308963851884,0.3942929848110308,-0.6551283480564926,-0.00962106311307611,0.2815776430190264,-0.5502137118170811,-0.006628762301275291,0.6749892211626316,0.8727350868907146,0.09980042351229752,0.7732385935332153,0.7664228142173293,0.0,0.0,0.0,0.0
0.04037698100921908,0.24394881322270148,0.8449539795794919,0.002528567227214134,-0.5267313369694756,-0.0015170070101004347,0.8500267076344469,0.05326217780081582,0.4012673466630774,-0.6641442465704841,-0.0027352637872215466,0.27876094502614523,-0.5568107716871943,0.006330899636503401,0.670269909417485,0.880464423915033,0.08982646043120973,0.7779844948291642,0.758495593420812,0.0,0.0,0.0,0.0
0.04066151895209533,0.24595415952729102,0.84525695324395,0.0025942121664800197,-0.5270380630375474,-0.0014963986859941613,0.8498364024704037,0.04895947605792096,0.40588568379757467,-0.6700320059433496,0.0033817962744988527,0.27550121087929874,-0.5632220982470262,0.01853147916202502,0.6650073491017371,0.887838578411403,0.07908599245371023,0.7811819192370735,0.7509952785200837,0.0,0.0,0.0,0.0
0.04053811244271644,0.2481632019245781,0.8454497591187674,0.0026205387530413137,-0.5272984785638317,-0.0014520954924687574,0.849674842924982,0.04420048741254156,0.4086022152973684,-0.6736761649049506,0.008911758464442972,0.27187263557156854,-0.5693285332818796,0.03014633628629884,0.659269583954419,0.8947521459023494,0.06749028354099566,0.7828439428280209,0.7440442295899617,0.0,0.0,0.0,0.0
0.04006369888009483,0.25060977913110055,0.8455041317119323,0.002607692971022052,-0.5275103906580131,-0.001382483997389853,0.8495434517569987,0.038924378542474915,0.4098503317170669,-0.6759186582438712,0.01398502369549875,0.268120487987322,-0.5748855904538221,0.0411319247855745,0.6532528892265155,0.9009570005625597,0.05498128855466906,0.7829783838398797,0.7378159142987976,0.0,0.0,0.0,0.0
0.039289759256900154,0.2533205320896649,0.845385525407496,0.0025547601781866053,-0.5276735597155195,-0.0012857859807942418,0.849442425554549,0.03308393722410213,0.41000285101137307,-0.6775067928704769,0.01869146326049278,0.2646557639087042,-0.5794563023390099,0.0512696427571227,0.6472935212524138,0.9059213529513344,0.041543632487040016,0.7815539755149996,0.7325626033706745,0.0,0.0,0.0,0.0
0.03825724491308126,0.25631017208804696,0.8450568178622635,0.0024601575319290296,-0.5277902545917362,-0.0011603979528661235,0.8493703834367545,0.02665486464019311,0.40933352955635344,-0.6790142051264502,0.02309868027144836,0.26195042162405063,-0.5823218447911747,0.0601980385065404,0.6419501931097389,0.9086155104709921,0.0272201425815964,0.7785044502753504,0.7285975095888976,0.0,0.0,0.0,0.0
0.03699290022247292,0.25957764498434993,0.8444921891212561,0.002324057952261516,-0.5278685681458166,-0.0010071911535589882,0.8493222939993393,0.01964504523826449,0.4079652432527619,-0.6806794881351554,0.027260949528589186,0.260251951953719,-0.5824183312397272,0.06754841976611861,0.6381168653785434,0.9073003708837593,0.012099901792928969,0.7737958441494786,0.7261656255472446,0.0,0.0,0.0,0.0
0.035505525580949895,0.26310829384529977,0.8436918839091199,0.002150669316753071,-0.5279148961991191,-0.0008299835792987069,0.8492941469949157,0.012089603682128598,0.40585059517548794,-0.6823539222728633,0.031232945813609955,0.2596105194691539,-0.5798147910207061,0.07332588079794108,0.6358755522530056,0.9019907249435095,-0.0037130621038867634,0.7674841358647935,0.7252482754059967,0.0,0.0,0.0,0.0
0.03378941243697847,0.2668733531452614,0.8426822394927284,0.0019483182289631161,-0.5279326336686146,-0.0006353631695417679,0.8492837774721955,0.004054097464410902,0.4028006574794863,-0.6835554625680688,0.035087495648599,0.2598866271989307,-0.5757238261519597,0.07794072495453887,0.6344923581282388,0.8944239860709873,-0.020086427234179152,0.7597267720348632,0.7255571617699477,0.0,0.0,0.0,0.0
0.031833733738040305,0.2708240536420161,0.8415029737398625,0.001727621538246707,-0.527929090304766,-0.00043228521374629673,0.8492865853546121,-0.004349297135792374,0.3985426028608897,-0.6835773268087733,0.03893378432722391,0.2607486040711341,-0.5710383965619428,0.08188249259232339,0.6335596906423336,0.8855911210859659,-0.03681128448122158,0.750747657192728,0.7267224550739845,0.0,0.0,0.0,0.0
0.029631176711209784,0.2748899486761208,0.8401966419368111,0.001500250207715902,-0.5279141608495176,-0.00023061159889995543,0.849296376326989,-0.012958390483892706,0.39279273077522325,-0.6816576475300629,0.04292828043570995,0.26199480292076716,-0.5664172550972939,0.08565583858347578,0.6328903875359473,0.8759502943016013,-0.05359026289786814,0.7407891981187296,0.7284276078730454,0.0,0.0,0.0,0.0
0.027187633830496792,0.27897797465187374,0.8388066587657135,0.0012806602641108422,-0.5279025421592478,-4.314682633247186e-05,0.84930398799808,-0.02155723648990547,0.3853141692911762,-0.6770654203536468,0.04725085965621475,0.2637031263480732,-0.5624177256554505,0.08987374616822665,0.6324299765367343,0.8656331153020911,-0.07007186967989441,0.7301107713893158,0.7304565145656403,0.0,0.0,0.0,0.0
0.02453351881196604,0.2829712735972448,0.8373726462269638,0.001089619896727587,-0.5279162245351873,0.00010930151698036323,0.8492957439279751,-0.0298691945163871,0.37598342271854057,-0.6692060565990555,0.052045528519393106,0.2662720520808244,-0.5596419131900999,0.09541620185832084,0.6322103303795267,0.8545560571807257,-0.08591169110151241,0.7189668300735194,0.7327679726459393,0.0,0.0,0.0,0.0
0.021734927342082454,0.28672813761584703,0.8359067665287501,0.0009574879765501965,-0.5279584792674828,0.00016098403872523984,0.8492696282515234,-0.03748700096343967,0.36494503801760053,-0.6580630501029607,0.057394447671611955,0.2703406433459547,-0.5590688160269534,0.10340099569390813,0.6322729592928495,0.8424791322258782,-0.10095890236072738,0.7073781526596636,0.7356435498174216,0.0,0.0,0.0,0.0
0.018840474277118855,0.29008775398269177,0.8344671649229981,0.0009124719895514218,-0.5281258743936453,0.00010833207799069205,0.849165600136379,-0.04409065785948717,0.3519566699362756,-0.6423911031349308,0.06379120348253305,0.2769242702728347,-0.5622381471043466,0.11608356577043541,0.6325688912398179,0.8290730910940043,-0.11477017627774168,0.6958023203505908,0.7393661410055425,0.0,0.0,0.0,0.0
0.016467338191941135,0.29301993941447546,0.8329897139377337,0.0009972346390253618,-0.5284277303307359,-0.00010452112044825896,0.848977696065048,-0.04959375155685099,0.3410249068719707,-0.628952215218093,0.07063269888921633,0.28708317024496643,-0.5704553352983267,0.13501001207012112,0.6345056880850263,0.8139146027170412,-0.12807278614756112,0.6848902565844508,0.7448425804561933,0.0,0.0,0.0,0.0
0.014827734704746891,0.29527969680124205,0.8315672661718959,0.0011925257491048975,-0.5290864685981467,-0.0004907513785947293,0.8485669365416993,-0.05347002455763236,0.3328493095860053,-0.6174113113670331,0.07766500575700626,0.3024133771394467,-0.5880212955616492,0.16093334368750667,0.638734050659207,0.7961877051877045,-0.14023048799880466,0.6756565720121664,0.7529090843810441,0.0,0.0,0.0,0.0
0.014177975738975007,0.29659848146988116,0.830399238796678,0.0013270723108460554,-0.5302369349114252,-0.0009227940063567529,0.8478479699722353,-0.05528806464797221,0.32854749940715366,-0.6084395839213124,0.08388243173704224,0.3241266884224366,-0.6202396793649165,0.18871440717732677,0.6470445294995363,0.7752436687636045,-0.14921740458055982,0.6699724745900106,0.7632807484840848,0.0,0.0,0.0,0.0
0.014052229268708156,0.2970516056991221,0.8302541576484245,0.0009664910788995911,-0.5303438444103947,-0.0009285815603789435,0.8477815817339294,-0.05579916880650651,0.32834069266447785,-0.6085110465281175,0.08394579265705093,0.3241736213877137,-0.6202429820275821,0.1887444035950122,0.6470734885709628,0.7752482860699563,-0.14937395606764847,0.6698204515456652,0.7632168524986748,0.0,0.0,0.0,0.0
0.014052229268708156,0.2970516056991221,0.8302541576484245,0.0009664910788995911,-0.5303438444103947,-0.0009285815603789435,0.8477815817339294,-0.05579916880650651,0.32834069266447785,-0.6085110465281175,0.08394579265705093,0.3241736213877137,-0.6202429820275821,0.1887444035950122,0.6470734885709628,0.7752482860699563,-0.14937395606764847,0.6698204515456652,0.7632168524986748,0.0,0.0,0.0,0.0
0.014949030548705377,0.2990994648044605,0.8309285028235418,0.0007982073030377946,-0.530116220404728,-0.0008758842042440774,0.8479241643895803,-0.0599932183351295,0.33717363194102945,-0.6229672099233368,0.07991798793419413,0.3275653676893505,-0.6237774669055021,0.18141209225860225,0.6504622344470177,0.7756068920523448,-0.15709899321003828,0.6761987182064966,0.7482360326643787,0.0,0.0,0.0,0.0
0.01729308641313465,0.3031184428005121,0.8340635039518667,0.00040857579790637704,-0.530779966087397,8.371678661307932e-07,0.8475095637604204,-0.06972623374349513,0.35329735833809506,-0.6370805935383332,0.07024842769243186,0.33354862899857374,-0.6157497986634454,0.1714282965152759,0.6686263556505759,0.7605554031057483,-0.16984930132842313,0.7031835079386504,0.7040286625301178,0.0,0.0,0.0,0.0
0.018910324914468257,0.3071052979392697,0.8366130885515954,0.0002567212585922392,-0.5292520442575814,-0.00045814950776870483,0.8484644941554095,-0.06583463773927792,0.3284519671789642,-0.5958663766548553,0.06338384468156964,0.3395920588119083,-0.6230225739620201,0.15167113741812124,0.6815467893504341,0.7445554452842978,-0.14861383433439435,0.6806581975860401,0.7505091595215754,0.0,0.0,0.0,0.0
0.02117752047408881,0.31146231480441267,0.838596449252704,8.877853593265181e-05,-0.5283427561399109,-0.0006238200468706468,0.8490309387775002,-0.06019561939055114,0.3101685988004256,-0.572583486816301,0.05515848636244861,0.3485163239346622,-0.633543004414012,0.13290704443724777,0.6930888240620812,0.7365721858357107,-0.12531679484528288,0.6682400771939544,0.7829068179297716,0.0,0.0,0.0,0.0
0.023872729727814977,0.3160574110787541,0.839860050211513,-0.00019139758032225363,-0.5279018807924614,-0.0005214831383230555,0.8493051840640586,-0.054183851408739554,0.297623588154597,-0.561426689558924,0.045975566655989474,0.35924894075352387,-0.6467907179842431,0.11532551134231955,0.701740010944581,0.7377815960130796,-0.10607029198120695,0.662341251209481,0.8053960333120509,0.0,0.0,0.0,0.0
0.026592233022038197,0.32067804501054054,0.8410168010258434,-0.0005157921735926206,-0.5277109913156294,-0.000275994427194094,0.849423785533573,-0.048371826455743686,0.2896766099146323,-0.5575191114926659,0.03639843581580484,0.36908348130373586,-0.6571999581921398,0.09816269552923572,0.710310766175561,0.7403385020817638,-0.0923685329142788,0.659119116128982,0.822474896266502,0.0,0.0,0.0,0.0
0.029197954020404808,0.32518836010763835,0.8422267654515324,-0.0008570554411467872,-0.5276598002785318,1.754572018173655e-05,0.8494553551059281,-0.04308884772611017,0.2847758175810101,-0.5576294293240329,0.02688951522082881,0.377485192740601,-0.6640597155442074,0.08127787624299021,0.7195125376070896,0.7417620570648575,-0.08311371157707294,0.6572709770436064,0.836476633096098,0.0,0.0,0.0,0.0
0.03159330307611142,0.32952013157696514,0.843469532389317,-0.0011833238275076362,-0.5276588851119621,0.00031076209028560605,0.8494554750744996,-0.03835174167520342,0.2815907894334191,-0.5600766532925462,0.017681967355028166,0.38427965680142856,-0.6677969526185884,0.06456594708357884,0.7289704499708727,0.7418502860420647,-0.07663122690257936,0.6561448230489666,0.8486548062783386,0.0,0.0,0.0,0.0
0.03372375012986784,0.33362827590713207,0.8446909090791889,-0.0014764888572489595,-0.527660747125883,0.0005795672893110694,0.8494537185891686,-0.0339744632061608,0.2791973168529616,-0.5638780064701239,0.00892034000920545,0.3894509091945088,-0.6689596162912104,0.048086418218363694,0.7381853799679516,0.740999181005242,-0.07150229837108417,0.6554316932622124,0.859700865408983,0.0,0.0,0.0,0.0
0.03556605099661369,0.3374796394857671,0.8458425149079328,-0.0017278566243637723,-0.5276451692553116,0.0008133610770556313,0.8494627292099268,-0.029706958630687293,0.277059516885294,-0.5684052489024236,0.000700780034553785,0.393082943165813,-0.6680582182199459,0.031996315230584854,0.7467631111875012,0.7396760606375357,-0.06677138964886203,0.6549685540899434,0.8699913032857917,0.0,0.0,0.0,0.0
0.037116029344166045,0.34105093518250185,0.8468870803198516,-0.00193517424729305,-0.5276057330744677,0.001009801490928385,0.8494865660082772,-0.025330060142723224,0.27497102943716073,-0.5731764841398248,-0.006915691877874379,0.3953123438611594,-0.6655459775472483,0.01649299044644757,0.7544182809789091,0.7383022254925652,-0.06184609827944921,0.6546826122632553,0.8796616145733,0.0,0.0,0.0,0.0
0.03837818599774276,0.3443290596322814,0.8477936740520885,-0.0020994190662348955,-0.5275417400812169,0.0011703460191781327,0.8495257119133367,-0.02070208445721694,0.27300899657416294,-0.5777083837528734,-0.013896993366313594,0.3962866223013614,-0.6618194692393838,0.0017588322553085504,0.7609262134144811,0.73727464378463,-0.05633629134663489,0.6545948617843458,0.888588326502716,0.0,0.0,0.0,0.0
0.03935758152539224,0.3473114291429735,0.8485320146591903,-0.0022226689656003923,-0.5274539867921212,0.0012976055695472918,0.849579700663541,-0.015769910336158002,0.27147445134849735,-0.5813897195723701,-0.020236743813950443,0.39612880705760206,-0.6572107870345385,-0.012074241070707049,0.7660742464229432,0.7370115649297495,-0.04990953054394193,0.6548614675023836,0.8962914392014085,0.0,0.0,0.0,0.0
0.040053738771482064,0.3500059241971052,0.8490708839444384,-0.002306987460548107,-0.5273431515904772,0.0013941171130844342,0.8496481240589865,-0.010551141972128565,0.270752325660472,-0.5833624605093113,-0.025951991382059895,0.3949038913733257,-0.6519506964812396,-0.024941263502551693,0.7696405185541628,0.7379604198350261,-0.04221534011926602,0.6558607522166352,0.901742987676031,0.0,0.0,0.0,0.0
0.040456216146237615,0.35242998037594614,0.8493872741644866,-0.0023546250679666422,-0.527210806007532,0.001463178938243208,0.8497300046938865,-0.005087825122890625,0.2710058354401016,-0.5824538762967384,-0.031081361690657963,0.3925754915701024,-0.6460559208821026,-0.03683360025888739,0.7714366393046467,0.7404912228647038,-0.03295843468693661,0.6583015856702974,0.9031656040779779,0.0,0.0,0.0,0.0
0.040539978418084016,0.3546064532450451,0.8494798173658384,-0.0023639170899765333,-0.5270508582501706,0.0015042215584813513,0.8498291251959145,0.0005997030852664641,0.27220521888442156,-0.5786666516308027,-0.03567000472520368,0.38898242456002347,-0.6392936124111093,-0.04781754470654404,0.7713655427288922,0.7447058752890406,-0.02224254792455664,0.6620769815942396,0.9005140344529119,0.0,0.0,0.0,0.0
0.04026724270581422,0.3565632289080329,0.8493686023228101,-0.0023279954170797677,-0.5268485637719892,0.001511988228138536,0.8499546371309049,0.00653882181739065,0.27412811139520704,-0.5731865117839305,-0.039767753923866514,0.383848035589746,-0.631203444412784,-0.05803276037443344,0.7694209836859084,0.750432799369606,-0.010531369765647974,0.6662682776021236,0.895498736530243,0.0,0.0,0.0,0.0
0.039595600769226476,0.35833432930102105,0.8490804571175218,-0.002236570175498156,-0.5265879462638599,0.0014796722516979904,0.8501164291869013,0.012806387803436538,0.2763236089815676,-0.5668872851370336,-0.0434360816406678,0.3768239642562223,-0.6211794466694738,-0.06766903892770572,0.7656300622388476,0.7574137613148029,0.0017400901575456672,0.6702810533335835,0.8891303016003425,0.0,0.0,0.0,0.0
0.03848635779482819,0.3599561072140239,0.8486377052970199,-0.002075054997225367,-0.5262511721853392,0.0013975798445219408,0.8503254933793841,0.019510471444081814,0.2784047818525498,-0.5603776392446299,-0.0467396533776663,0.3675604611245141,-0.6086339984883372,-0.07696041896120219,0.7600123385355522,0.7654142154130015,0.014291453970381007,0.6737261012574676,0.8819399934985699,0.0,0.0,0.0,0.0
0.03691703303828138,0.36146145181184447,0.8480571141837915,-0.0018264642825604823,-0.525822078577912,0.0012541563882114003,0.8505916957036335,0.026767636601715744,0.28017308631892085,-0.554080890252659,-0.04973551502616744,0.3557850189232309,-0.5931104814034671,-0.08614300894621474,0.7526093974706606,0.7742260340068711,0.02702553595952993,0.6763530488236131,0.8742095967735093,0.0,0.0,0.0,0.0
0.03490121513168767,0.36287104226727773,0.8473513962063656,-0.001477226523849295,-0.5252945879723218,0.0010398897305914341,0.8509185227024584,0.03465813642616025,0.2816538591573972,-0.5482788901597084,-0.052458148599047245,0.34142507220710355,-0.5744310621961142,-0.0953695262296371,0.743548439181162,0.7836529953922906,0.040098149722972626,0.6781048274732429,0.8661497452789588,0.0,0.0,0.0,0.0
0.032520013793188876,0.3641793863377454,0.8465247245867678,-0.0010295362478966118,-0.5246874635389702,0.0007554069540584709,0.8512939768496485,0.04315086317371106,0.2830851466417982,-0.5430782181348229,-0.05489686929573791,0.324831523899966,-0.5530029511672176,-0.10456427955180217,0.7331026825382762,0.7935789044876336,0.05414937654480845,0.6793460384934724,0.8580572946253633,0.0,0.0,0.0,0.0
0.029970294959763027,0.3653318372713261,0.8455449626986938,-0.0005096639955680289,-0.5240294012068885,0.0004018789375708168,0.8516999268560971,0.05209509416105143,0.2847090296115528,-0.5381503451580489,-0.056930012309409105,0.307335857086042,-0.5309913337024742,-0.11336805820710416,0.7216307011280453,0.8041912180181615,0.07065880522395379,0.6811516589831205,0.8504035004161302,0.0,0.0,0.0,0.0
0.027686864928054177,0.3661851263974966,0.8443582071109721,-3.892811380976859e-06,-0.5233348407940819,4.709207748275691e-05,0.8521271279440734,0.061544845392991,0.2863545601535498,-0.5322934572812551,-0.05835889451041994,0.29250532460160694,-0.5144863689994179,-0.12049145857201528,0.7097478343618409,0.8156817985026638,0.09272006676972361,0.6855741015563422,0.8437591351013211,0.0,0.0,0.0,0.0
0.025851559283303332,0.3667197554707319,0.8431932321023637,0.0003919913921562898,-0.5227333422189798,-0.0002437034161168412,0.8524961230902862,0.07018217666593238,0.2876303258710252,-0.5257650468224264,-0.05917999142736747,0.28121744008083377,-0.5033424919785232,-0.12528040920150996,0.6991545349592544,0.8262041781512864,0.12008390322421662,0.6923432282830646,0.8387717331495499,0.0,0.0,0.0,0.0
0.024705645379810275,0.3669097561001655,0.8423716705713481,0.0005274588718999902,-0.5222926184181511,-0.0003549814750452316,0.8527660971926606,0.07607666664001198,0.287233111701026,-0.519018211222554,-0.05942859020253317,0.2746536287249842,-0.4977223652664295,-0.12648411523290165,0.6918266879043934,0.832933441834844,0.14704676647167617,0.6991424674873467,0.8359727796316144,0.0,0.0,0.0,0.0
0.02466908481524893,0.3668559792570857,0.8423379711489886,0.0005977780765734733,-0.5222812145537797,-0.0003568403292726078,0.8527730344297826,0.07612948294639274,0.2872712110088007,-0.5190148742471733,-0.05938598987029578,0.2745067832716452,-0.49771127140819654,-0.126502603958389,0.6916864883532396,0.8328711083017776,0.14705445658731886,0.6991884152602359,0.8359885632823504,0.0,0.0,0.0,0.0
0.024669084815248658,0.36685597925708585,0.8423379711489886,0.0005977780765744052,-0.5222812145537794,-0.0003568403292727665,0.8527730344297829,0.07612948294639275,0.28727121100880043,-0.5190148742471707,-0.05938598987029586,0.2745067832716477,-0.4977112714082062,-0.12650260395839044,0.6916864883532375,0.832871108301781,0.147054456587321,0.6991884152602337,0.8359885632823548,0.0,0.0,0.0,0.0
0.024669084815248658,0.36685597925708585,0.8423379711489886,0.0005977780765744052,-0.5222812145537794,-0.0003568403292727665,0.8527730344297829,0.07612948294639275,0.28727121100880043,-0.5190148742471707,-0.05938598987029586,0.2745067832716477,-0.4977112714082062,-0.12650260395839044,0.6916864883532375,0.832871108301781,0.147054456587321,0.6991884152602337,0.8359885632823548,0.0,0.0,0.0,0.0
0.025922138189993994,0.36726762084416237,0.8430790165689572,0.0006528636503318792,-0.5229911742875892,-0.0004029578500402304,0.8523377517224693,0.07537281955609469,0.2942777995426784,-0.5245147656868581,-0.06022059686995279,0.27946484824534973,-0.49944680092344673,-0.130226045600739,0.699843839409099,0.828856125390978,0.14594292326643749,0.707275547099761,0.8302405291165097,0.0,0.0,0.0,0.0
0.02813982364499203,0.36811979504501463,0.8443472419870002,0.0006743813784103016,-0.5241966489231978,-0.00014335638685091892,0.8515969691799005,0.07316919013233067,0.3072612388089646,-0.5363400711946985,-0.06257856426618827,0.28811169923103014,-0.5020961892340827,-0.1354603894098781,0.7135024217713041,0.822037201206421,0.14545174777727674,0.7218848659563506,0.8199688573656251,0.0,0.0,0.0,0.0
0.030421540275118578,0.3689628794319645,0.8453593993223527,0.0010481236598096377,-0.5246327272867732,-0.0005655075914434135,0.8513278352653576,0.0721024028461051,0.32272849505061135,-0.5557806510846612,-0.05526530963650128,0.29037146728657476,-0.5113461568819249,-0.10720928848494354,0.7039205047816216,0.8314004804709259,0.13859555251272543,0.73247899434308,0.8090761557194958,0.0,0.0,0.0,0.0
0.03290883178902105,0.3699846167666821,0.8461452209342913,0.001518228198512985,-0.5250409337334576,-0.0010506835728040394,0.8510749725796583,0.07072158834962321,0.3399677983708229,-0.5789561835749295,-0.044980916852961406,0.2897301972384305,-0.5202650153058502,-0.07628385206564117,0.6941739101998776,0.8398651306869388,0.12987863373593372,0.7422543617308038,0.7996373230289882,0.0,0.0,0.0,0.0
0.03537362531762166,0.37127785601968355,0.84674345682794,0.0018610980032757135,-0.5253372743876452,-0.0012923539064577697,0.8508910707455818,0.06842849312542146,0.3578274062121171,-0.6049388349102115,-0.03422539179262339,0.28786452149944736,-0.5283033625220269,-0.05073536689636824,0.6869466486638887,0.8480005849213748,0.12143184255564488,0.7512852913444102,0.7909126142697652,0.0,0.0,0.0,0.0
0.03754634132905048,0.3727457391096658,0.8472831349415848,0.0021225174348563783,-0.5256865635559325,-0.0014219913995736349,0.8506745028252303,0.06557541173196246,0.37347810000477616,-0.6273139285836287,-0.024096669554724608,0.28578821471854277,-0.5356983632916226,-0.030751883266126843,0.6817844614038606,0.8562245592716663,0.11285035584979941,0.7597536977499807,0.7823801693593423,0.0,0.0,0.0,0.0
0.03927377352654506,0.37433923186785084,0.8477846882796655,0.0023202839903352867,-0.5260629141911097,-0.0014863244295648746,0.8504411898742037,0.062324206137100185,0.38614186552694035,-0.6448476354813204,-0.015088492116390295,0.28358700315112556,-0.5427053681849964,-0.014455573756477904,0.677423312257702,0.8643974559140383,0.10395600814907906,0.7672393863961089,0.7739283960531443,0.0,0.0,0.0,0.0
0.040497270216153576,0.37604959234483815,0.8482368102197305,0.0024673100028064945,-0.5264331683033043,-0.0015124558953285973,0.8502115878818988,0.05873819553842693,0.39576930075336225,-0.6577217468527711,-0.007230157245585013,0.28113013395235986,-0.549474967365437,-0.00030824993089072564,0.6730327649544059,0.8723577136216204,0.09457054532557263,0.7733957418898608,0.7656651123362505,0.0,0.0,0.0,0.0
0.041220982498693416,0.3778945772673454,0.8486215915816385,0.002570997933633391,-0.5267751036233179,-0.0015126683949944636,0.8499994658860643,0.054809486210889116,0.4026389954333543,-0.6666284179545143,-0.00035003479724041425,0.2782809480078701,-0.5560677995113864,0.01262927116173025,0.6682104754009803,0.8800178214812561,0.08454808710121503,0.7780526892850316,0.7577182182636752,0.0,0.0,0.0,0.0
0.041484169930564065,0.37990579520156414,0.8489194046055162,0.0026348739722017534,-0.5270767457476703,-0.0014903489062000378,0.8498122971523383,0.05048996647827328,0.4071672784929047,-0.6724266078589411,0.005764956202545453,0.27498308823768214,-0.5624611669573955,0.024826946098920638,0.6628472017241288,0.8873195381054086,0.07377471753883255,0.7811695826057818,0.7501981150267945,0.0,0.0,0.0,0.0
0.04134138911135726,0.38211940569064967,0.8491073531634927,0.002660184775813809,-0.5273324799562809,-0.0014448887750233234,0.8496536301908825,0.045716359286810726,0.40980799224651626,-0.676001403614754,0.01129496430426688,0.27131422142308237,-0.5685420849320119,0.03644600294428364,0.6570139575727016,0.8941591218123612,0.062162850129042165,0.7827600210651382,0.7432259725620962,0.0,0.0,0.0,0.0
0.040849691275905986,0.38456952838772573,0.849156957211775,0.002646847174329491,-0.5275399781911376,-0.001374524598339101,0.849524970964514,0.040427403429666685,0.4109947328197859,-0.6781965684916303,0.01636859553921699,0.2675217001130524,-0.5740709287377942,0.047436917145490705,0.6509090221251103,0.9002903817832023,0.04965356578407968,0.7828314044784829,0.7369747666067531,0.0,0.0,0.0,0.0
0.04006069263686389,0.3872830359301657,0.849033495771569,0.002593774195246766,-0.5276989148818119,-0.0012773844006730422,0.8494265688434023,0.03457556913130895,0.4111007824652325,-0.6797613168826028,0.021073873808207678,0.26401777143264016,-0.5786144629166416,0.05757640762786914,0.6448713549034721,0.9051843262256244,0.0362299411861692,0.7813519992485245,0.7316966152815587,0.0,0.0,0.0,0.0
0.03901547211098289,0.3902747645912253,0.8486997718891194,0.002499249531306998,-0.5278115449972527,-0.0011517957710468283,0.8493570510014591,0.02813640043706508,0.41040014266472474,-0.6812701305766553,0.025476901349600553,0.26127525794628087,-0.5814566342867863,0.06649744129591034,0.6394632853588044,0.9078154620219219,0.021933319287747922,0.778255424191466,0.727704594279783,0.0,0.0,0.0,0.0
0.037740829262181884,0.39354364576656514,0.8481300018310305,0.002363384715544817,-0.5278860028893466,-0.0009985877876339676,0.8493113593898444,0.02111779004722684,0.4090153936471397,-0.6829608496909381,0.02963129453467666,0.2595422585129744,-0.5815349449782183,0.07382564011476779,0.6355819403494208,0.9064501074016429,0.006851411093850018,0.7735078227250269,0.7252434981805976,0.0,0.0,0.0,0.0
0.03624555911579946,0.39707496953339466,0.8473244549158072,0.0021904264469570426,-0.527928723381755,-0.0008215639027661205,0.8492854585433831,0.013554804092131443,0.4068989249642162,-0.6846841848860536,0.03359195515229176,0.2588688281655913,-0.5789175787994113,0.0795660195562827,0.6333097324062064,0.9011038621164135,-0.008913032481659625,0.7671649662079997,0.7242951033180297,0.0,0.0,0.0,0.0
0.034523897437729316,0.400839900510813,0.84630943372062,0.001988814376017364,-0.5279431061330112,-0.000627281437668839,0.8492771796192359,0.00551279882130332,0.4038618806394076,-0.6859584537671142,0.03743275917779804,0.25911450430397354,-0.5748137353958407,0.08413409193997912,0.6319106114313287,0.8935095791038882,-0.02522865248173576,0.7593836285115474,0.7245725031106651,0.0,0.0,0.0,0.0
0.03256490234300322,0.4047895268440495,0.8451246096299345,0.0017693149683186927,-0.5279364146477432,-0.0004246193043440151,0.8492819504215755,-0.00289625131976181,0.3996314971480457,-0.6860776178705237,0.041264655710104785,0.25994595535471593,-0.570110797778772,0.08802461384333642,0.6309744767622796,0.8846539033380086,-0.04188734413299361,0.7503866281167743,0.7257079491033281,0.0,0.0,0.0,0.0
0.030361125244046345,0.40885324884500723,0.8438124383985819,0.0015437796548570298,-0.5279184017849504,-0.00022331700252312123,0.8492936641296208,-0.01151042794591596,0.3939244479463689,-0.6842818366567565,0.04524607756132214,0.26115846025473,-0.565459519620905,0.09174760809211106,0.6303123177286464,0.874991046786882,-0.058592928563472105,0.7404145400423136,0.7273878959460601,0.0,0.0,0.0,0.0
0.027918269057117057,0.4129379060413122,0.8424161169579861,0.0013269371217911467,-0.5279034541789265,-3.60414578564028e-05,0.8493033504024614,-0.020114234532092788,0.3865046006278223,-0.6798440422302982,0.04955862310860844,0.2628238130588308,-0.5614056385543154,0.09592436584348514,0.6298675562032972,0.8646481079375619,-0.07499640547509516,0.7297234076926794,0.7294003387824781,0.0,0.0,0.0,0.0
0.025266358522064474,0.4169266403138052,0.8409748864299166,0.001140034376062294,-0.5279129955480223,0.0001164873917783041,0.8492976839034843,-0.028431681603606263,0.37724876928005635,-0.6721745902512166,0.05434742054433645,0.26532873893566417,-0.5585341958633558,0.10145029844766103,0.6296669631549262,0.853535157398963,-0.09075806618049367,0.7185618806364196,0.7317090806810044,0.0,0.0,0.0,0.0
0.02247056337214781,0.42067779661001126,0.8395004404861868,0.0010142763531042038,-0.5279495051950017,0.00016840833624199645,0.8492751396611493,-0.03605591618368221,0.3662978834233444,-0.6612558311909437,0.059695424223687434,0.26929168818427385,-0.5577991028648411,0.10946934395845793,0.6297405607561106,0.8414027696679492,-0.10573345504025242,0.706942092929519,0.7346002364745569,0.0,0.0,0.0,0.0
0.019577875063664308,0.4240309779312172,0.8380512239591499,0.0009790228072461705,-0.528109603314683,0.00011711100025691009,0.8491756441903905,-0.04267080601217798,0.35340239633725806,-0.6458303730876501,0.06609384610377059,0.275695116072124,-0.5606917422266275,0.12227375263144614,0.6300234733597814,0.8279044670856583,-0.11948680635816268,0.6953185299398117,0.7383559985290512,0.0,0.0,0.0,0.0
0.017204437740927114,0.4269570403583081,0.8365601805883547,0.0010781297402352515,-0.5283989510940034,-9.377997952150033e-05,0.8489955107798485,-0.04819038605616803,0.34255884780388474,-0.6326675842066353,0.07292470047084834,0.28554758666314434,-0.5684639361550455,0.14145143993474485,0.6318906134213842,0.8125971182186246,-0.1327643783313837,0.6843137495988635,0.7438940153907255,0.0,0.0,0.0,0.0
0.015560103049666114,0.42921222117621527,0.8351199932763265,0.0012944854016135768,-0.5290388897402729,-0.000476513652322659,0.8485964590926971,-0.052094552666672136,0.33445033268679486,-0.6214095283710481,0.07991391000211959,0.3003741922351655,-0.5852892815234495,0.16772311264192205,0.6359878629308899,0.7946297007305062,-0.14494804005144463,0.6749320375318014,0.7520468009137483,0.0,0.0,0.0,0.0
0.014898380582970402,0.43053003082283764,0.8339347375692645,0.001458976527447349,-0.5301667838111775,-0.000902398961489853,0.8478916430811891,-0.05395949880594122,0.3301586202092293,-0.6126340744797407,0.0860311250793122,0.3213432116870847,-0.6163192302909608,0.19577524290211626,0.6441552650864552,0.7733442642284794,-0.15403629866116558,0.6690675267280074,0.7624882925102919,0.0,0.0,0.0,0.0
0.014772007776984692,0.43098226096160797,0.8337890879539911,0.001099696928199131,-0.5302744027740193,-0.0009083550833191149,0.8478248777432553,-0.05447096361765957,0.32995206075554345,-0.612707127824495,0.0860950466282371,0.32139044341961553,-0.6163221048040698,0.19580564499310746,0.6441839858747171,0.7733488781101793,-0.15419350908661358,0.6689148514531575,0.762423853829194,0.0,0.0,0.0,0.0
0.014772007776984692,0.43098226096160797,0.8337890879539911,0.001099696928199131,-0.5302744027740193,-0.0009083550833191149,0.8478248777432553,-0.05447096361765957,0.32995206075554345,-0.612707127824495,0.0860950466282371,0.32139044341961553,-0.6163221048040698,0.19580564499310746,0.6441839858747171,0.7733488781101793,-0.15419350908661358,0.6689148514531575,0.762423853829194,0.0,0.0,0.0,0.0
0.01568382447166914,0.4330432185099701,0.8344702425181609,0.0009062701090238421,-0.5300569605432929,-0.0008560855287948992,0.847961121969435,-0.05866678611912185,0.3388725161230006,-0.6272525921095862,0.0820738230393545,0.3248692223883624,-0.6199181549603128,0.18862982630617176,0.6475733757091466,0.7738229275381938,-0.16184475398063852,0.6754293205281171,0.7473085228840035,0.0,0.0,0.0,0.0
0.018058125733516568,0.43710648777708155,0.8376420038699971,0.0005317447103688722,-0.5307095198812869,-6.398161267688767e-06,0.8475536105250219,-0.06846067445518544,0.355254806785903,-0.6416947843950284,0.07236462336923402,0.3310548120792315,-0.6122065453099447,0.17840662152891226,0.6659077356007869,0.7587644961299798,-0.17496379685312066,0.7026747512188194,0.7023620060534977,0.0,0.0,0.0,0.0
0.019692068109202054,0.44113101921998465,0.8402261245243968,0.00034370596070495415,-0.5291977873947881,-0.0004563794015462568,0.848498306068147,-0.064570767772121,0.32983345112556867,-0.5990738020176665,0.06545068556449006,0.3371464915405297,-0.6193207708834342,0.1588206204715002,0.6789659698226511,0.7427595408464567,-0.15325690638496098,0.6802250264426865,0.7493019645109141,0.0,0.0,0.0,0.0
0.021986488007459254,0.44553376019923085,0.8422487221200171,0.00015932107097705635,-0.5283022840735978,-0.0006242189604815958,0.8490561121681566,-0.05897170088512056,0.31120781985395196,-0.574875366069894,0.057166255840200464,0.34620412383508675,-0.6298497296861142,0.14008606612873548,0.6906870113530109,0.7347872676628903,-0.12968121638434038,0.6678817018951521,0.7820007115995454,0.0,0.0,0.0,0.0
0.024708407934431367,0.4501898835147564,0.8435292974583658,-0.00012521787450183713,-0.5278752262140285,-0.0005331299325900939,0.8493217562516853,-0.05304861558032298,0.2984416970203434,-0.5631651976564479,0.04790165536386111,0.3570825806115366,-0.6432297898708067,0.12239716097525613,0.6993838482833036,0.7363190296746037,-0.11030981831804187,0.6620363541356392,0.8046238534409107,0.0,0.0,0.0,0.0
0.02745754937157874,0.4548724591858309,0.8446962975026951,-0.00044873103749482036,-0.5276917798832125,-0.0002999028172006357,0.8494357504499345,-0.04732157296489305,0.2903706410125644,-0.5589330440081003,0.03823664741239756,0.3670867007231411,-0.6538707651446521,0.10507874316487964,0.7079713908743274,0.7392295915307743,-0.09658833100320494,0.6588487955139378,0.8217553322096713,0.0,0.0,0.0,0.0
0.030094364099054603,0.4594406642322563,0.8459167892183845,-0.0007877068004627149,-0.5276464397836471,-1.7751710546886415e-05,0.8494637212892115,-0.04211211806074347,0.285421351321965,-0.5588591517903017,0.02864213688562445,0.37565353940468965,-0.6609565533021143,0.08803319060414158,0.7172095691120086,0.740952804889369,-0.08740099700059603,0.6570291855765276,0.8357729158380655,0.0,0.0,0.0,0.0
0.03252085712113102,0.4638239543053166,0.8471712318815857,-0.0011125258028017034,-0.5276506518661339,0.00026686958366133734,0.8494606998868207,-0.03743676087344388,0.28223499505269284,-0.5612072381134563,0.01935458354504038,0.382603102845153,-0.6648943162977043,0.07118327820066177,0.7267232114121321,0.7412735599241721,-0.08103068696220497,0.6559353802181968,0.8479504702701615,0.0,0.0,0.0,0.0
0.03468134559274793,0.4679763637817296,0.8484045718545805,-0.0014049705192970396,-0.5276576692466372,0.0005291549691602932,0.8494557846869165,-0.03310862204812532,0.279868803019261,-0.5649601605173127,0.010522192292257888,0.38791712672959827,-0.6662299649656733,0.05459020663031626,0.7360067350430181,0.7406025251201602,-0.07603526984860436,0.6552621578097616,0.8589900108843209,0.0,0.0,0.0,0.0
0.03655153395685037,0.4718641444547352,0.8495675874772618,-0.0016564077234271352,-0.5276472125069508,0.0007584517502134382,0.8494616531651332,-0.028878535002370066,0.27777219477744797,-0.5694681065752473,0.00224299251552699,0.3916787691828335,-0.6654776349980508,0.03841576355609199,0.744656937175185,0.7394181827744815,-0.0714343094756775,0.6548474556432234,0.869274261041776,0.0,0.0,0.0,0.0
0.03812634764176278,0.47546375737795,0.8506223831223291,-0.001864158080793395,-0.5276127067034923,0.0009518501787901392,0.8494824604551301,-0.02452771794249582,0.27572897213390973,-0.5742354018669555,-0.005420361863040322,0.39402394137385505,-0.6630949804177009,0.02285614939170562,0.7523818944055677,0.7381516608859054,-0.06662256051002423,0.6546154624781348,0.8789425969859275,0.0,0.0,0.0,0.0
0.0394095696497772,0.47876204893988455,0.8515376491305642,-0.0020287175573795225,-0.5275533548458409,0.0011101686011393205,0.8495187517775271,-0.01991492436962166,0.2738098132068952,-0.578769497175638,-0.012434571193523489,0.39509952545504917,-0.6594818281514482,0.00809109448473783,0.7589524815289297,0.737207496641627,-0.06120354993902706,0.654583154182337,0.8878741399817218,0.0,0.0,0.0,0.0
0.040405765806793933,0.4817564948141495,0.8522829086810164,-0.0021517685733642516,-0.527469971847151,0.0012354637842489605,0.8495700514500321,-0.014987783827821354,0.2723117359895011,-0.5824525949184898,-0.018792412697093967,0.3950282338057162,-0.6549723857757159,-0.005749927768353551,0.764153314388892,0.7370096417200872,-0.05484122251685679,0.6549033442011498,0.8955910648809098,0.0,0.0,0.0,0.0
0.041114229048724804,0.4844550667620117,0.8528268414205653,-0.002235074930990528,-0.5273633661126516,0.0013298109817749138,0.8496358726684856,-0.009764878879434124,0.27161752303310055,-0.5844217503400725,-0.02451030413775962,0.3938754834474885,-0.6497994362618634,-0.018603937470202878,0.7677612161119518,0.738010070579959,-0.04718198603057521,0.6559524481725605,0.9010676491073691,0.0,0.0,0.0,0.0
0.041524590212340735,0.4868751936764036,0.8531463601119925,-0.002280648475867928,-0.5272351695235874,0.0013961481364897187,0.8497152025416189,-0.0042888471132584635,0.27188947865287183,-0.5835010265051874,-0.029626269737587148,0.39160687345214473,-0.6439842065699899,-0.03046363678213488,0.7695873205218389,0.7405820404970621,-0.037927666514089166,0.6584383853133171,0.9025286825027218,0.0,0.0,0.0,0.0
0.04161226010589743,0.48903939096620413,0.8532399735769579,-0.002286930772121413,-0.5270793614026009,0.0014339908636512894,0.8498117793966338,0.001420437687483911,0.27309841514417815,-0.5796931996341266,-0.034184816126834563,0.3880653686765455,-0.637301006945221,-0.04139207355446171,0.7695343481012912,0.7448297283909193,-0.02718194440542914,0.6622549739177451,0.8999284212182146,0.0,0.0,0.0,0.0
0.04134022554018315,0.49097495595375684,0.8531276024769665,-0.0022474926308212926,-0.5268813543422151,0.001438577175938861,0.8499346549700727,0.007392150176742289,0.2750241918085692,-0.5741873122862761,-0.03823520867153765,0.3829801831033537,-0.6292982516362154,-0.0515218342755269,0.767596162036936,0.7505837627834683,-0.015411887795454911,0.6664862733539172,0.8949745811139427,0.0,0.0,0.0,0.0
0.04066696622513494,0.4927154416408253,0.8528359584343849,-0.002152611973368336,-0.5266251931609905,0.0014038278629229036,0.8500937015748162,0.013705729049193132,0.27721872318657204,-0.5678620685732035,-0.04183904006301992,0.3760094098457897,-0.6193795505020151,-0.061035141440088155,0.7638000591828983,0.7575874982168783,-0.0030548457491260724,0.6705415855870073,0.8886751218714002,0.0,0.0,0.0,0.0
0.03955460794823713,0.49429721034145224,0.8523873727338337,-0.0019883710376638187,-0.5262931336553237,0.001320900775344369,0.850299852445605,0.02047214259350136,0.27929881773969234,-0.5613325982056959,-0.045062284168738406,0.36680827770756785,-0.6069630941534806,-0.07016048007831178,0.7581664288120811,0.7656082162244378,0.009607436762084613,0.6740365278753364,0.8815585239104669,0.0,0.0,0.0,0.0
0.03798115268249471,0.4957539844315565,0.8517989234248672,-0.0017384425798762167,-0.5258689833102655,0.0011791260311232417,0.8505629899492612,0.02781072101407142,0.2810700658378578,-0.555031261266764,-0.04796507602541224,0.35510571421716963,-0.5915912598530935,-0.07913289755999015,0.7507383438745923,0.7744381865087576,0.022475428477136277,0.6767237968134011,0.8739022689372943,0.0,0.0,0.0,0.0
0.03596002692716643,0.4971085228896464,0.8510842680130639,-0.001389573112081333,-0.5253463040851543,0.0009695361231113393,0.8508868255357706,0.0358036342467902,0.2825624452832789,-0.5492530295773772,-0.05058713337666543,0.3408242178279567,-0.5730741045173662,-0.0881132170470881,0.7416461535710568,0.7838769421940944,0.035694360403341306,0.6785422877720527,0.8659092162817339,0.0,0.0,0.0,0.0
0.03357129498933971,0.49835914852724233,0.850249664334101,-0.0009434409873317591,-0.5247432944954532,0.0006924346047713832,0.8512597167348397,0.044418885896338633,0.28402204485482857,-0.544124814361119,-0.052925387511106994,0.32429911980731774,-0.5517866618855165,-0.09704816243489187,0.731170553691588,0.7937950818986563,0.049869314521478934,0.6798382619167324,0.857864443727701,0.0,0.0,0.0,0.0
0.031009952668576316,0.4994572621638422,0.8492666999102862,-0.00042605376155817684,-0.5240919704771039,0.0003503838909957648,0.851661495073452,0.05348905433678303,0.2857204225248119,-0.5393604138317513,-0.05487248506030152,0.30681894165421025,-0.5297843769990304,-0.10559780203988207,0.7196884647448615,0.8043645700548713,0.06641679339272219,0.6816673891970408,0.8502338940924842,0.0,0.0,0.0,0.0
0.028715969505557302,0.5002606448992564,0.8480792163183439,7.758622749184284e-05,-0.5234050497166303,5.246146146919633e-06,0.8520840028330463,0.06303291569666607,0.28749032809645264,-0.5337192020383178,-0.056220057119825,0.2919955177346796,-0.5132604618575699,-0.11250399972169395,0.7078162417000666,0.8157939938812045,0.0883599676977086,0.6861160931714795,0.8435619866080423,0.0,0.0,0.0,0.0
0.026872466732483506,0.5007546783003096,0.8469169564263146,0.0004761447299255887,-0.5228113043064726,-0.00028452852322747153,0.8524482579131009,0.07170364198605243,0.28897725958035864,-0.5275190871138492,-0.05696532341131691,0.28070998399618025,-0.5020889743990342,-0.1171822221768331,0.6972674062831633,0.826237081185693,0.11539129872565641,0.6929217008545664,0.838467409414032,0.0,0.0,0.0,0.0
0.02572477020842111,0.500922432054286,0.8461004196511505,0.0006222368257715801,-0.5223806603619723,-0.000404354538097606,0.852712082122993,0.07759321233202732,0.28892611413804314,-0.5213225152637074,-0.05716314758216291,0.2741528782419467,-0.49644318568509965,-0.11844148655740225,0.6900234180125516,0.8329044891364642,0.1418792271131157,0.6997985633836367,0.8354595493806505,0.0,0.0,0.0,0.0
0.025686802047991356,0.500865130290305,0.8460662061004116,0.000695184015747048,-0.5223699501292388,-0.00040586846360448036,0.852718586165419,0.0776459968026342,0.2889645714855167,-0.521319504699044,-0.05711700979232477,0.2740047554694036,-0.4964322921705033,-0.11845899397295495,0.6898823462710864,0.8328418100741062,0.14188633086739036,0.6998447553300385,0.8354753225490934,0.0,0.0,0.0,0.0
0.025686802047991224,0.5008651302903049,0.8460662061004115,0.0006951840157457299,-0.5223699501292393,-0.0004058684636045404,0.8527185861654186,0.07764599680263547,0.28896457148551613,-0.5213195046990425,-0.05711700979232305,0.2740047554694078,-0.4964322921705082,-0.11845899397294923,0.6898823462710852,0.8328418100741114,0.14188633086739463,0.6998447553300399,0.8354753225490941,0.0,0.0,0.0,0.0
0.025686802047991224,0.5008651302903049,0.8460662061004115,0.0006951840157457299,-0.5223699501292393,-0.0004058684636045404,0.8527185861654186,0.07764599680263547,0.28896457148551613,-0.5213195046990425,-0.05711700979232305,0.2740047554694078,-0.4964322921705082,-0.11845899397294923,0.6898823462710852,0.8328418100741114,0.14188633086739463,0.6998447553300399,0.8354753225490941,0.0,0.0,0.0,0.0
0.026935063056730227,0.5012786517567718,0.8468084740702707,0.0007512776853872905,-0.5230795343107026,-0.0004539806193797011,0.8522834213269288,0.07688813201724992,0.29592595917754055,-0.5267328989468834,-0.057951363461140826,0.2789300469382187,-0.498112281792041,-0.12211652807673978,0.6980137137323307,0.8288468044183803,0.14069228935210476,0.7079216545699347,0.8296783293114808,0.0,0.0,0.0,0.0
0.029145043524024028,0.5021351360514551,0.8480813646868646,0.0007633666793761666,-0.5242766053736597,-0.00018457835716915712,0.8515476641151773,0.07466629944369532,0.30887322256540517,-0.5385476972761446,-0.060325801276959974,0.28753613983732484,-0.5006952299367743,-0.12710661458088132,0.711591129631435,0.8220066875121723,0.14017092340084092,0.7225396022256815,0.8192721428666854,0.0,0.0,0.0,0.0
0.03142052548579849,0.5029853307838464,0.849075603507561,0.0011235208493661334,-0.5247121947693449,-0.0005979367199581918,0.8512787397984969,0.0735855316670608,0.32432261204158475,-0.5580493007377398,-0.0530487108005281,0.28997036964642187,-0.5103526654338854,-0.0997334931702484,0.7022020353625286,0.8313381233987964,0.13332768963141853,0.7330501544618963,0.8084821319227967,0.0,0.0,0.0,0.0
0.03389531185927775,0.5040154103416552,0.8498514228008796,0.001575491016596899,-0.5251106128490514,-0.0010655376395822462,0.8510318599975496,0.07217587615050416,0.34151307787243984,-0.581266966781011,-0.04279947817826282,0.28942143864697467,-0.519504545509116,-0.06966225174440321,0.6925812518240397,0.8397724430428913,0.12466634946466745,0.7427582143440642,0.7990347192941907,0.0,0.0,0.0,0.0
0.036342253617967876,0.5053142992922154,0.8504420004762677,0.0019053440755131344,-0.5253980148369113,-0.001295082232120167,0.8508534647231559,0.06986455385736409,0.35926664054972596,-0.6071668837969012,-0.032065256263297454,0.2875968824148408,-0.5276776484499731,-0.044658295054272296,0.685385605608956,0.8478729928468981,0.11623889362861801,0.7517144490059559,0.7902884886998061,0.0,0.0,0.0,0.0
0.03849459256814201,0.5067854414022754,0.850974765337825,0.0021583317449089877,-0.5257395830479007,-0.0014169774094099188,0.8506416546323837,0.06700070137342008,0.37479638141748484,-0.6294183958531371,-0.021946527623203052,0.28552860079810755,-0.5351454882025393,-0.024956978008780637,0.6801889442365728,0.8560492612115564,0.10764744448546984,0.7600989795057445,0.7817395882025671,0.0,0.0,0.0,0.0
0.040201187475541356,0.5083805492604413,0.8514700851409658,0.0023509399714743777,-0.5261093699269566,-0.001476616317922068,0.8504123844115635,0.06374333031713839,0.38734285480198766,-0.6468234183014524,-0.012939914501759108,0.28331542594139064,-0.542186150186384,-0.008784202606105459,0.6757581378866123,0.8641647964684648,0.09872940457420641,0.7674986308530608,0.7732765881594332,0.0,0.0,0.0,0.0
0.04140456552875703,0.5100914671596564,0.8519165875849688,0.0024948417977945,-0.5264736673155709,-0.0014999255759537953,0.8501864522626575,0.06015367530224597,0.39686486264416787,-0.6595825217800588,-0.005077706792237855,0.28083471474432503,-0.5489661288867571,0.00532208953702875,0.6712821522445165,0.8720618944233964,0.08931962372182496,0.7735712549192112,0.7650042889871947,0.0,0.0,0.0,0.0
0.04210934686293507,0.5119362911927623,0.8522964003383784,0.0025967477692626566,-0.5268102805994185,-0.0014984385632148805,0.8499776113743568,0.05622249271357712,0.4036416309185076,-0.6683892480011133,0.001809985793263063,0.2779550065220091,-0.5555536354731234,0.018255961842369547,0.6663706626538127,0.8796552231122858,0.07927994222503126,0.7781507044020486,0.757047875456788,0.0,0.0,0.0,0.0
0.042354967302050184,0.513946905688964,0.8525897500004653,0.002659709283345138,-0.5271070989780852,-0.0014750992487492464,0.8497934197413166,0.0519008958094553,0.40808941926825565,-0.6741039525609842,0.007934560939836072,0.2746232165438875,-0.5619319626435086,0.030464614604482698,0.6609196392841783,0.8868880028615201,0.06849998470923904,0.7811975500648496,0.7495161243630852,0.0,0.0,0.0,0.0
0.042196069519691605,0.5161597226336322,0.8527734971399692,0.0026846616576055114,-0.5273583204756107,-0.0014290574701227507,0.8496375416680187,0.04712513492550991,0.41066219797061815,-0.6776139095098251,0.013474416660140787,0.27091900097714616,-0.5679927766248329,0.04209877105874948,0.6550023829632304,0.8936577599834296,0.0568928240304558,0.7827251106776886,0.7425295319195838,0.0,0.0,0.0,0.0
0.04168977701578839,0.5186090631565476,0.8528189468679374,0.002671332891747826,-0.5275615330326289,-0.0013584189785263248,0.8495115346731453,0.04183365556391461,0.41179365800656187,-0.6797643075774988,0.01855651801783402,0.26709097322036013,-0.5734996264297725,0.05310366350122675,0.6488191393549045,0.8997199179073023,0.04439874348193495,0.7827403483175082,0.7362608251507836,0.0,0.0,0.0,0.0
0.04088779682888344,0.5213219261499076,0.8526912214690626,0.002618500354896286,-0.5277163744323534,-0.0012612353098329365,0.8494156702683069,0.0359788138583424,0.4118572685575553,-0.6813054803500389,0.02326740240677119,0.2635522151787392,-0.5780217834554432,0.06325190110259515,0.6427114228410294,0.9045479623020302,0.03099963360990188,0.7812111959591586,0.7309620124284807,0.0,0.0,0.0,0.0
0.03983129750281312,0.5243131647950481,0.852353061048533,0.0025243441886760912,-0.5278251097683215,-0.00113578042544982,0.8493485687203468,0.029536224367061856,0.4111269989611784,-0.6828120853141714,0.027672048694546633,0.26077620529583806,-0.5808451205761855,0.0721715796003525,0.6372448984498348,0.9071201354303842,0.016735863567630026,0.7780712628964148,0.726946039493669,0.0,0.0,0.0,0.0
0.038547114370522766,0.5275816017837481,0.85177871117875,0.0023889293733397035,-0.5278959048838173,-0.0009828534442423364,0.8493051516518971,0.022514010650334378,0.40972492765469665,-0.6845208679608763,0.031823672052693985,0.2590115481761197,-0.5809081278663208,0.07948342499216825,0.633319576426638,0.9057075735968563,0.001694381135145388,0.7732868039878343,0.724457564134122,0.0,0.0,0.0,0.0
0.03704404461349649,0.5311123935933132,0.8509684522109555,0.002216541998447108,-0.5279352188490787,-0.0008062532110598415,0.8492813677434022,0.014947393076877959,0.4076030366332505,-0.6862816615530667,0.035777523040600244,0.2583082850597142,-0.5782784166122386,0.08519263718916709,0.6310182727765246,0.9003265948088393,-0.01402267101457586,0.7669133894687827,0.7234789471453351,0.0,0.0,0.0,0.0
0.035316298800435256,0.5348765651924415,0.8499485420928952,0.0020157234555882443,-0.5279464458840463,-0.0006125175694236749,0.8492750508284,0.006901733403845164,0.4045723139031936,-0.687612710076105,0.039608542307968606,0.25852530115325445,-0.5741627538974249,0.08971968838626457,0.6296030410497783,0.892705971614806,-0.030284214402767365,0.7591071785898807,0.723724810375429,0.0,0.0,0.0,0.0
0.03335286188767137,0.5388250005733588,0.8487586066149685,0.0017973677880658734,-0.5279367944658142,-0.000410460752391546,0.8492816623713041,-0.001510999222698354,0.4003597618847689,-0.6878080921207469,0.04342938983608271,0.2593280918364043,-0.5694443550120203,0.0935643263129348,0.6286615078135821,0.8838284523180373,-0.04688223822055486,0.7500900564363078,0.7248295018402587,0.0,0.0,0.0,0.0
0.031146201129946396,0.5428868865236708,0.8474410283364245,0.001573470588064854,-0.5279158752108744,-0.00020970889111850567,0.8492951836157002,-0.01012896355535688,0.39468207756849166,-0.6861091328167448,0.04740041717135262,0.2605097053806035,-0.5647678954694547,0.09724171715805305,0.6280029003679435,0.8741446676727233,-0.06352095875852615,0.7401011377729911,0.7264822221776928,0.0,0.0,0.0,0.0
0.02870190809560541,0.5469689044076579,0.8460388504132773,0.001358964317749168,-0.5278977706604722,-2.278873224907925e-05,0.849306832910439,-0.01873691944953873,0.3873035767962925,-0.68179178125688,0.05170495235058051,0.26213733449644055,-0.5606702720957345,0.10138094083625004,0.6275685274026505,0.8637776313253427,-0.07985286865359954,0.729393859014702,0.7284744047765223,0.0,0.0,0.0,0.0
0.026049760490000785,0.5509541346362056,0.8445910280510364,0.001175441629673209,-0.5279033459001509,0.00012970052887838882,0.8493036317490781,-0.027059352628245055,0.3781014543938993,-0.674270972831548,0.056489322209133816,0.2645885725528791,-0.5577235551821366,0.10689164203168863,0.6273802465897694,0.8526316142633608,-0.09554157211958503,0.7182122323153398,0.7307738753297472,0.0,0.0,0.0,0.0
0.023254276711708363,0.5547009170917241,0.8431088252649073,0.0010547340517045103,-0.5279342423839568,0.0001818267631418786,0.8492845755066942,-0.03468963477043479,0.3672144373895425,-0.6635304575882556,0.061837479578840136,0.2684655587233108,-0.556863357963247,0.11494145198545408,0.6274573954439926,0.8404487161034804,-0.11044734331845651,0.7065608456452627,0.7336707825026314,0.0,0.0,0.0,0.0
0.020361253062347852,0.5580491327011912,0.8416507181530035,0.0010271679580308366,-0.5280871175368418,0.00013182846045790405,0.8491895688471879,-0.041314904798182325,0.3543875590810851,-0.6483045109006,0.06823928058817758,0.27472507599916424,-0.5595456818021103,0.1278554888751873,0.6277208384001741,0.8268684632438041,-0.1241410783840862,0.6948904652059552,0.7374497718430364,0.0,0.0,0.0,0.0
