zhuoxili-jackie/tripod-support-walk/examples/pcbA样数据/trajectory_trotting_acc_02.csv
root_pos_x,root_pos_y,root_pos_z,root_rot_x,root_rot_y,root_rot_z,root_rot_w,FL_hip_joint,FL_thigh_joint,FL_calf_joint,FR_hip_joint,FR_thigh_joint,FR_calf_joint,RL_hip_joint,RL_thigh_joint,RL_calf_joint,RR_hip_joint,RR_thigh_joint,RR_calf_joint,FL_foot_joint,FR_foot_joint,RL_foot_joint,RR_foot_joint
0.01,0.0,0.8259446621,0.0,-0.523845373591082,0.0,0.8518133742594206,0.0,0.27,-0.52,0.0,0.27,-0.52,0.0,0.6572093368,0.8119390607,0.0,0.6572093368,0.8119390607,0.0,0.0,0.0,0.0
0.011541579443901636,-0.0004534449229506473,0.8268948623676109,0.00012046889146999418,-0.5246383713533614,-4.421680738955842e-05,0.8513251804309634,0.0008852464069462891,0.27682328695238756,-0.5234294993747531,0.0008852464069462897,0.2789432229043178,-0.5278816726240897,0.0012174138916540148,0.666998419759119,0.8044736767254616,0.0012174138916540202,0.6663660820506152,0.8069408284291671,0.0,0.0,0.0,0.0
0.01435438236370001,-0.001389053073586826,0.8287825912469187,0.00023176024680809817,-0.5262131828369081,-0.00017031603943748336,0.8503526347864664,0.002929172694015719,0.28836471021654136,-0.5268019183434798,0.002930856486849739,0.2944869680873984,-0.5395579442632144,0.004330126722852349,0.6860561354137132,0.7891286228665698,0.00433690550673072,0.6842783564799324,0.7966615884138579,0.0,0.0,0.0,0.0
0.017054488635065226,-0.002295023166058434,0.829946368752155,0.0005570180749510744,-0.5263287803705047,-0.00028029534567665024,0.8502809101226961,0.004660007808714936,0.30451524427983795,-0.5484408104157268,0.006798703626732339,0.2912080450021454,-0.5376722827081083,0.011959625670067312,0.676956020474126,0.8068547640125294,0.00641907485824843,0.6955112623702376,0.7879070175921413,0.0,0.0,0.0,0.0
0.020126704866924035,-0.0030997491446751752,0.8308966766339595,0.0008767416825000157,-0.5264234941472825,-0.0004260644140918002,0.8502219443197777,0.006284415726500312,0.3233885712452582,-0.5754300453622845,0.012071166747755012,0.28703072084041026,-0.5391803494437277,0.021407025572800227,0.6695470519900191,0.8208202858054345,0.007931142846015505,0.7064438127238868,0.7807504741067357,0.0,0.0,0.0,0.0
0.023450926264788112,-0.0036826405217555594,0.8315896787935648,0.0011155451906761113,-0.5263884715043746,-0.0005359559396836079,0.8502432859937481,0.007490618599449373,0.34443789098639455,-0.6076954578482073,0.017169416737590183,0.2833648128966677,-0.5428335966646735,0.0305263383132837,0.6648106569249825,0.8324924305028087,0.009028884587403375,0.716605536344222,0.7749439563112105,0.0,0.0,0.0,0.0
0.026507141177810497,-0.004155606213329227,0.8322901142115676,0.0013547379300251766,-0.5265370699731843,-0.0006371226101041646,0.8501508529102201,0.008459556025000835,0.36229163073697934,-0.6332577822543854,0.022238050286914474,0.2807161401363056,-0.5475104666849258,0.039310893170532685,0.6616799545994597,0.8429650077875592,0.0096619476311343,0.7267788357531694,0.7691051434515525,0.0,0.0,0.0,0.0
0.02910919166798438,-0.004523126533560933,0.8330175504770568,0.0015845428351467501,-0.5267846097192722,-0.0007340116757136321,0.8499970149440393,0.009208872481439818,0.37657995201536354,-0.6521153898361425,0.027010461863253794,0.278611502553284,-0.5528472788882841,0.047762008650984164,0.6589464873912723,0.8525837994248848,0.009849151805011997,0.7364750223635724,0.7627992769053922,0.0,0.0,0.0,0.0
0.031182914975903503,-0.004765463767976985,0.8337335095777128,0.001793496171035745,-0.527061379339906,-0.000823522692220326,0.8498249276116673,0.009697734475415965,0.38748122451765493,-0.6652690461175725,0.031346816041155315,0.2765792583961338,-0.5586048308445698,0.055903097899859,0.6560063631240904,0.8615240581564859,0.00954476050632752,0.7451581792470096,0.7562379829511767,0.0,0.0,0.0,0.0
0.03272448716067782,-0.004847068136495829,0.8343966525218293,0.00197298946455168,-0.5273256526704576,-0.0009007648282261047,0.8496604921796546,0.009849026448383131,0.39537835981256864,-0.6738547317837053,0.0351965041585935,0.27430565337059715,-0.5645955844385424,0.06371216070278311,0.6526442778505308,0.869915029736943,0.008628426958857665,0.7524876948967036,0.7497203693645205,0.0,0.0,0.0,0.0
0.03376911909925647,-0.004726522680116724,0.8349738465456041,0.002117314586650696,-0.527556556961962,-0.0009604661929246563,0.8495167294939362,0.009571706055905677,0.4007331380663066,-0.6789477194585516,0.03855446127161592,0.2716539239229913,-0.570635992977797,0.07113044061727351,0.6488516839420577,0.8778367786022955,0.006945715265375512,0.758305483375571,0.7434892594503901,0.0,0.0,0.0,0.0
0.034369883535637864,-0.004363965723701511,0.8354370280167505,0.0022226479255836045,-0.5277451412282832,-0.000997934493760031,0.8493992758843655,0.008778844617403725,0.40402189830030266,-0.681531577702281,0.0414335041795953,0.2686700296792126,-0.576509462747275,0.07805812673692591,0.6447325681054947,0.885273418355282,0.004346462784157636,0.7625565475158745,0.7377464014271459,0.0,0.0,0.0,0.0
0.034584111720392295,-0.0037259819917569662,0.8357580257428532,0.0022861575114663797,-0.5278885475803053,-0.0010094286785482132,0.849309976316734,0.007399125601721988,0.4056935408768532,-0.6824914153384353,0.043853489372953976,0.26559075961556,-0.5819077980749305,0.08432688625230994,0.6404817541910512,0.8920352878210972,0.0007133884125646761,0.7652163026028411,0.7327066060995531,0.0,0.0,0.0,0.0
0.034464724226060166,-0.0027890643660975147,0.8359054244993744,0.0023052302695414986,-0.5279871009121951,-0.0009919631397504339,0.8492486815961914,0.005383878090149684,0.4061366128721619,-0.6825952789436064,0.04584147570632747,0.26282550255879783,-0.5863497766690352,0.08966159772103464,0.6364197271776922,0.8976317772712333,-0.004015480262358165,0.7662444444705898,0.7286405768095097,0.0,0.0,0.0,0.0
0.03405433171772747,-0.0015425371604156062,0.8358464615717305,0.002277301934786692,-0.5280439347217422,-0.0009431331507329636,0.8492134757523212,0.002712181981694355,0.4056435586745588,-0.682434059791741,0.04743374858386617,0.2608457852216377,-0.589082644692778,0.09367284437902804,0.6330834997520074,0.9010657504575551,-0.009832693070413128,0.7655776414308648,0.7258684771029871,0.0,0.0,0.0,0.0
0.03338072675929412,9.65884308115443e-06,0.835559299436976,0.0022020310796333417,-0.52806758405478,-0.0008632688991690018,0.8491990535183609,-0.0006041674753844276,0.40436049018246145,-0.6822744819969006,0.04866922856063254,0.2598960895556137,-0.5890145562721825,0.09597988581155976,0.6313356623659804,0.9006230614113032,-0.01668018275655564,0.7631857317998868,0.7246393376305654,0.0,0.0,0.0,0.0
0.032452872742583905,0.0018535849352272285,0.8350461475437619,0.00208285270314689,-0.5280641361565902,-0.0007553707128410125,0.8492016010611951,-0.004531994254561682,0.40226946907590316,-0.6820200358567687,0.049591376410433374,0.2600184248654958,-0.5861968550342256,0.09660270501446358,0.6312144948837093,0.8963062924503846,-0.024482942313052855,0.7591220357373647,0.7249438125603356,0.0,0.0,0.0,0.0
0.03126399383754155,0.003965256115251968,0.8343334191619715,0.0019267729539419831,-0.5280361691639447,-0.0006249416406083648,0.8492194657734806,-0.009015690746309386,0.3992106021059654,-0.6812519625411275,0.05025544683802417,0.26106101054727116,-0.5818365724783826,0.09597330900427944,0.6319357209565917,0.8898202071848965,-0.03314375286808631,0.7535323865772631,0.7265067899576545,0.0,0.0,0.0,0.0
0.02980066689701116,0.006304596302294414,0.833459890584062,0.0017426335232369665,-0.5279899289018997,-0.00047997434159441663,0.8492487078772637,-0.013961330577541687,0.39493142462954334,-0.6793178520347023,0.05073871715062016,0.26267493463243713,-0.5768287820934112,0.0945720863173333,0.6330421638670038,0.8821413983303158,-0.04250312454687695,0.7466214226351281,0.7289660780134278,0.0,0.0,0.0,0.0
0.028051587552773614,0.008814779597617615,0.8324663832257573,0.0015394734255114,-0.5279341479029267,-0.00032923689070487455,0.8492838495477544,-0.01923613767009866,0.38915766312553735,-0.6754961585187566,0.05115472074466187,0.2646328551644387,-0.5718426852743584,0.09284574109876213,0.6343021161417068,0.8737353815998196,-0.052324321294431084,0.7386100613888726,0.7319966002694389,0.0,0.0,0.0,0.0
0.026017393772534272,0.011422466823145717,0.831395080916157,0.0013277624941443425,-0.5278825012800743,-0.0001836510277375221,0.8493163534051088,-0.024667732890067722,0.3816489078137451,-0.6690733928584841,0.051648400771329324,0.26697738219671746,-0.5674575510135458,0.09128136445757588,0.6356239930519324,0.8647667382842897,-0.06232032486213559,0.7297480016847824,0.7353341360445859,0.0,0.0,0.0,0.0
0.02372274787042459,0.014038031578453194,0.8302903135269497,0.001121635540102837,-0.527858576252863,-5.8826762242873857e-05,0.8493315382990482,-0.03004308120572517,0.3722588287101195,-0.6594086272046692,0.052373285199706694,0.27008175710284255,-0.5643139430818455,0.09054800951849593,0.6370209308268507,0.8552270564614348,-0.07219660035542838,0.7203391052345804,0.7387907267560364,0.0,0.0,0.0,0.0
0.02123173308254923,0.016554613627304704,0.8291906902529862,0.0009415991580297411,-0.5279024959042286,2.079052855330651e-05,0.8493044611780074,-0.03510351132056255,0.3610214805459198,-0.6460660876368389,0.053454361422542285,0.2746728881037133,-0.5633082436809136,0.09165192671479977,0.6386229999872177,0.8450021896347218,-0.081702874037601,0.7107214179654373,0.7423742504856715,0.0,0.0,0.0,0.0
0.01866613504948699,0.018843024995624638,0.8280911912349478,0.0008091952895411176,-0.5280613093118273,-5.494506590226598e-06,0.8492058636047402,-0.0394774918515896,0.3483413818149726,-0.6293084999801934,0.055010287253857856,0.2818373542972696,-0.5660975425242628,0.09594402716496382,0.6406617081631555,0.8340159845216646,-0.09072435479057386,0.7010256247568423,0.7466651479206522,0.0,0.0,0.0,0.0
0.016566442373153925,0.02090430133096088,0.8269383688755286,0.0007504874249826231,-0.5283559381854207,-0.00013443249592787104,0.84902262707229,-0.043240754693162305,0.33776478121032677,-0.6151329131794345,0.05687115609461649,0.29270183483157547,-0.573950786875826,0.10501874150429509,0.644555742879583,0.8220577962431305,-0.09964563969545047,0.6920119307627755,0.7523699236855397,0.0,0.0,0.0,0.0
0.015137740687785783,0.022535236353867283,0.8258391542273508,0.000755568189103654,-0.5290142605342152,-0.00039023247703926547,0.8486125081488978,-0.045929323351381335,0.3299135732289056,-0.6029640662030133,0.05937655081679167,0.3089978052449574,-0.591266178612757,0.12013929174796169,0.6507948363545903,0.8087162190759577,-0.10795654274214381,0.6848558847791075,0.7599259911853758,0.0,0.0,0.0,0.0
0.014616253202537179,0.023497937210587107,0.8249585577055435,0.0007045909555698215,-0.5301421506413524,-0.0006930602349010398,0.8479082045436628,-0.047118950155174276,0.32583623077256524,-0.5935472819912173,0.06256159895391265,0.33176665817202905,-0.6234917326540416,0.13879048418132353,0.6601224384674342,0.7934758852854485,-0.11399114443681212,0.6811334119912622,0.7690094159251138,0.0,0.0,0.0,0.0
0.01451334520393169,0.02385116166500466,0.8248533908559562,0.0004152509852398887,-0.5302205269198924,-0.000697630633203606,0.8478593832180608,-0.047508858434125056,0.32566814246235193,-0.593597402544088,0.06259728338729922,0.33181132542117786,-0.6234951708878143,0.13881384213697742,0.6601531096476334,0.793482957997465,-0.1141091313471317,0.6810149171850451,0.768962406517496,0.0,0.0,0.0,0.0
0.01451334520393169,0.02385116166500466,0.8248533908559562,0.0004152509852398887,-0.5302205269198924,-0.000697630633203606,0.8478593832180608,-0.047508858434125056,0.32566814246235193,-0.593597402544088,0.06259728338729922,0.33181132542117786,-0.6234951708878143,0.13881384213697742,0.6601531096476334,0.793482957997465,-0.1141091313471317,0.6810149171850451,0.768962406517496,0.0,0.0,0.0,0.0
0.01533970186941067,0.025560173402999636,0.8254544892014534,0.0003493013303503384,-0.5298921866161701,-0.000663369808564026,0.8480646841439701,-0.051064686487690504,0.3340580577445737,-0.6079329783367594,0.05916883416277524,0.3352163050393412,-0.6279681802148422,0.13181120180983075,0.6634108812444662,0.79245578012315,-0.12109779064473142,0.686221905634666,0.7559287396222782,0.0,0.0,0.0,0.0
0.017545272563088063,0.028932799223076077,0.8283048235277314,-2.5869433326280974e-05,-0.530533357950788,0.0001726463758245594,0.8476640405405094,-0.05936717894917859,0.3489843666403795,-0.6210715097885005,0.05088715347409844,0.34077526036138067,-0.6204648911355184,0.12353895534643955,0.6806329435558564,0.7769783568411939,-0.1313280602220202,0.710585374944025,0.7176205038241095,0.0,0.0,0.0,0.0
0.019087003466389318,0.032336402950403714,0.8304007790579866,-0.00016956968462147353,-0.5291619207370976,-0.0002191994177731583,0.8485208216888747,-0.05645951592940841,0.32628490192279275,-0.5852036634128422,0.04500494295570266,0.34674755850726224,-0.6285286971957146,0.10635538991774028,0.6915377226867839,0.7630656037743864,-0.11470130533947917,0.6884454683408517,0.7602467579819207,0.0,0.0,0.0,0.0
0.02119117830645374,0.03607773075196602,0.8318841215541707,-0.0003188186955496417,-0.5282871056532571,-0.0003467785380142806,0.8490656700749296,-0.05229812083066075,0.30899246549934617,-0.5655798944094147,0.03787414869311746,0.35539041476229516,-0.6403421903528523,0.08969529051593153,0.7006874625249779,0.757256579493411,-0.09579237555432707,0.6754052034128651,0.7897644877808853,0.0,0.0,0.0,0.0
0.023758490681111244,0.03989918206929991,0.8329475021192575,-0.0005671656722640514,-0.5278010071055247,-0.0002278146151308301,0.8493678374661918,-0.04748561663884833,0.29719010960258113,-0.5564622149621798,0.03013361164243309,0.3661631889459626,-0.6547577611885653,0.07453524732094385,0.7087994428975163,0.7567172923718463,-0.08069075943774565,0.6685315023289902,0.8107882368656956,0.0,0.0,0.0,0.0
0.026322364037378723,0.04371204975231599,0.8340007046830367,-0.0008696155117634149,-0.5276041034669074,1.2872357657342581e-05,0.8494899373200632,-0.04291170273545106,0.2896351996723865,-0.5536696623595659,0.022135545921388538,0.3757951256117816,-0.665406070598852,0.06001025037170667,0.7173677187608167,0.7566920258433729,-0.07035469264592006,0.6644886995588417,0.8270463891597878,0.0,0.0,0.0,0.0
0.0287407853458196,0.04742342711040791,0.8351126382490204,-0.0011865364524553895,-0.5275528922859389,0.00029251845540236585,0.8495213077992457,-0.038797577141326485,0.284777264913155,-0.5544215468921909,0.014224307845977753,0.3839073051584056,-0.6723709377180951,0.04582222515178663,0.7264409245453526,0.7557527649610148,-0.06357695296069375,0.6619172974789379,0.8405100711752844,0.0,0.0,0.0,0.0
0.030924177113087523,0.05098000221090751,0.8362467570984107,-0.0014863639858163163,-0.5275563330760391,0.0005663340913129621,0.8495185609621263,-0.03511488830275242,0.2814140455969853,-0.5572297556089268,0.006591968680079547,0.39036848430374266,-0.676213784262619,0.03183861850964416,0.7355477203424072,0.7539040878583966,-0.05892252593916083,0.6601214183246795,0.8522859938662454,0.0,0.0,0.0,0.0
0.03282661915750827,0.0543423844951907,0.8373521513921713,-0.0017517396177935813,-0.5275671569912999,0.0008119475721704841,0.8495111341316067,-0.031689579312603994,0.27873045031581967,-0.5612241687235051,-0.0006354693752960577,0.39519166258810656,-0.6775069705122906,0.018103391091117853,0.7442318958725311,0.7515039041719432,-0.05526610708202947,0.6587420952920092,0.8630013545941647,0.0,0.0,0.0,0.0
0.034432406294489515,0.05747911491850851,0.8383868722014396,-0.001975994010006142,-0.5275646636460593,0.0010213219161989506,0.8495119646133517,-0.028311224725748128,0.27625783444796853,-0.5658433985486204,-0.007371753169281608,0.3984822037688474,-0.67676108936483,0.00477550306198027,0.7521594741796778,0.7489290433922661,-0.05186207056896034,0.6575926163323207,0.8729973128311116,0.0,0.0,0.0,0.0
0.035743215627862854,0.060366786502196894,0.8393183389244807,-0.0021578503197905003,-0.5275411378762848,0.001193407824250022,0.8495259073789081,-0.024801874251837885,0.27382650967826744,-0.5706490752029622,-0.01355977397834151,0.40039270365257157,-0.6744339934796223,-0.007954008537266674,0.7590946354701872,0.7465208711370689,-0.04824763789045622,0.6565944146839338,0.8823869060013774,0.0,0.0,0.0,0.0
0.03676777910601973,0.06299111555428547,0.8401177753511654,-0.0022983381311000566,-0.5274945591131247,0.0013298553151354956,0.8495542591457746,-0.02105081734516843,0.2715324774650982,-0.5751891204138676,-0.01916743281707478,0.40108157112133086,-0.6709314792041489,-0.019917077638663124,0.7648470183645375,0.7446205988777307,-0.04410271257141499,0.6557744424693256,0.8910318639027208,0.0,0.0,0.0,0.0
0.03751394013543812,0.06534763610605794,0.8407551587585745,-0.0023991091891672066,-0.5274243844897154,0.001433077824428294,0.8495973806507954,-0.017022623344547645,0.26968521071941143,-0.5788769589104212,-0.02418626111279381,0.40067848202161854,-0.6665974984371807,-0.030998252063287178,0.7692245907866231,0.7436095800274872,-0.03912730726848466,0.6552989193552494,0.8984424970583903,0.0,0.0,0.0,0.0
0.03798277407565749,0.06744210785916488,0.8411987094707926,-0.002461586368744059,-0.5273301885999984,0.0015053166224577948,0.8496555459746646,-0.012741325081191282,0.2686730079452641,-0.5808747178164081,-0.028630437603890106,0.3992503477719137,-0.6616704613844366,-0.041148836431727384,0.7720179083380777,0.7439087845639505,-0.03298448885990326,0.6555559193902668,0.9035847343401613,0.0,0.0,0.0,0.0
0.0381643770987321,0.06929018403324094,0.8414252732181589,-0.0024876641075358254,-0.5272134028241526,0.0015498256897667876,0.8497278608179192,-0.0082500809216536,0.2686610455348169,-0.5800229009017307,-0.0325362380607888,0.3967559003183325,-0.6561574800779542,-0.050373206558533355,0.7730498282031459,0.7458639967322978,-0.025381391847562936,0.6572646846284055,0.9046784762872537,0.0,0.0,0.0,0.0
0.03803347148128635,0.07091384628808617,0.841434282789658,-0.002476225346237779,-0.5270691389396771,0.0015665829902412475,0.8498173550258648,-0.0035723883166414484,0.26962015894811747,-0.5763254623952124,-0.03594822904921414,0.3930210616701261,-0.6497913085239504,-0.05874381997227347,0.7722356912071359,0.7495530335810732,-0.016408571850501687,0.6603306531958686,0.9016835900970449,0.0,0.0,0.0,0.0
0.03755171223964348,0.07234097377798605,0.8412476680962121,-0.002422070581910652,-0.5268852302813674,0.0015515893062798191,0.849931573867021,0.0013091512969929994,0.2713269894183433,-0.5709570069559796,-0.03891752149598564,0.38775029288312945,-0.6420543438970958,-0.06639991536876313,0.7695857148288281,0.7547786636311792,-0.006509207632015301,0.6638480022569212,0.8963180624605709,0.0,0.0,0.0,0.0
0.03667647925815231,0.07360620023456853,0.8408951279905829,-0.0023175873439910664,-0.5266492285405107,0.0015000753418129848,0.8500782132489674,0.006453273946863744,0.2733292153067894,-0.5647735342371806,-0.041508707742169346,0.38057477386741595,-0.6322693752542948,-0.07352657117902231,0.765150275992885,0.7612524122632595,0.003892864050031527,0.667232813525449,0.8895962088803119,0.0,0.0,0.0,0.0
0.03537007980935782,0.07474710361416512,0.8404023576018168,-0.00215164139351208,-0.52634743433087,0.0014048471160672418,0.8502657085977329,0.011943509589743332,0.2752397128932486,-0.5583629154725774,-0.04379112653431094,0.37112738497148784,-0.6197748815128086,-0.08035287210857336,0.7589783275862043,0.7687099931372595,0.01450909180237264,0.6701056250654612,0.8820509665590872,0.0,0.0,0.0,0.0
0.03361312587941561,0.07579830664486069,0.83978941803354,-0.001911490248707937,-0.5259677809338534,0.0012575197515255834,0.8505014157946015,0.017870080356078726,0.27686149909612695,-0.5521250196501012,-0.0458282390796452,0.3591267465722542,-0.6040510581053958,-0.08710814937264415,0.7511436761907688,0.7769188886062124,0.025212194413156183,0.6722294633293024,0.8739659922317953,0.0,0.0,0.0,0.0
0.03142521519960228,0.07678271627011356,0.8390709407345454,-0.001588527584348853,-0.525507493459527,0.0010525464884391512,0.8507868376061589,0.024296212020120722,0.27822411984239975,-0.5463163145703842,-0.04766298131379147,0.34450646241620886,-0.584886806538874,-0.09393578302629761,0.7418010089279712,0.7856761634271677,0.03610591996940507,0.6735717811575648,0.8655545525725764,0.0,0.0,0.0,0.0
0.028896521232474208,0.07769813091975375,0.8382491425224708,-0.0011878590763779108,-0.5249830093855699,0.0007934541642529637,0.8511115081337901,0.031206388051640353,0.27956238669935274,-0.5410175068971241,-0.049295760201733825,0.32765606362986155,-0.5627559366481736,-0.10077118831315153,0.7312264127110805,0.7948891447511989,0.04774341177779665,0.6745199018431491,0.8571063389853432,0.0,0.0,0.0,0.0
0.026234832770251394,0.07849516691205906,0.8372808069686466,-0.0007273163281336848,-0.5243967676908554,0.0004848150080248353,0.851473585028185,0.03852180315210885,0.2810783175135934,-0.5359367419749836,-0.050634292691957336,0.31003935134114685,-0.540219827913553,-0.10731043513356259,0.7196883822114225,0.8047894135821795,0.06146254184928068,0.6760917177425058,0.8490595151501357,0.0,0.0,0.0,0.0
0.023856287146452937,0.07904155422052435,0.8361300622863906,-0.0002733692389274373,-0.5237379881132554,0.00016159523211906095,0.8518793453085475,0.04621702439405498,0.28255575289916407,-0.5299531700567086,-0.05145093798744623,0.295094330006311,-0.5232735505953846,-0.11255265657452557,0.7078481574883634,0.8153450984294419,0.07970482346429031,0.6800332200159712,0.8418971890957829,0.0,0.0,0.0,0.0
0.02194696246976878,0.07934153151450658,0.8350203601059522,7.905989945464669e-05,-0.5231262189944073,-9.197361198392794e-05,0.8522552107737461,0.0532434592919991,0.28356437131228246,-0.5232510229343609,-0.0518298187113583,0.28373852130580035,-0.5118813875838114,-0.11581938937531143,0.6973203868813356,0.8247695921850102,0.10239469329472763,0.6860417359782366,0.8362039780592171,0.0,0.0,0.0,0.0
0.020750244540300496,0.07939422864842123,0.8342557709030393,0.0001812466814320717,-0.5226251668343643,-0.00015379127286209185,0.8525625364096394,0.058058297105298154,0.28271248006077304,-0.516063505336397,-0.05187221552093374,0.27718067641383864,-0.5063330120318311,-0.11592868649854234,0.689968903721712,0.8304355394204282,0.1250011572467226,0.691993105940687,0.8324827114341898,0.0,0.0,0.0,0.0
0.02070953236165517,0.07932654202319138,0.8342209382449045,0.0002592680316911925,-0.5226160757255225,-0.00015393037548617065,0.85256808905728,0.058104286331665596,0.28274949176546976,-0.5160607820077944,-0.05181430938866113,0.2770317102062304,-0.5063217039810303,-0.11594099670525082,0.6898294220615103,0.8303730390664241,0.12500604569418003,0.6920397282405694,0.8324987829253113,0.0,0.0,0.0,0.0
0.020709532361596557,0.07932654202323125,0.8342209382449498,0.0002592680313901697,-0.5226160757256673,-0.00015393037557816756,0.8525680890571914,0.0581042863319951,0.28274949176567454,-0.5160607820075562,-0.05181430938824802,0.27703171020918543,-0.5063217039857536,-0.11594099670460326,0.689829422061666,0.8303730390671659,0.12500604569485885,0.6920397282409967,0.8324987829253863,0.0,0.0,0.0,0.0
0.020709532361596557,0.07932654202323125,0.8342209382449498,0.0002592680313901697,-0.5226160757256673,-0.00015393037557816756,0.8525680890571914,0.0581042863319951,0.28274949176567454,-0.5160607820075562,-0.05181430938824802,0.27703171020918543,-0.5063217039857536,-0.11594099670460326,0.689829422061666,0.8303730390671659,0.12500604569485885,0.6920397282409967,0.8324987829253863,0.0,0.0,0.0,0.0
0.022036862990652394,0.07946476149301496,0.8350172031301878,0.00033287597294006456,-0.5233378629566404,-0.0002038368552991323,0.8521251837846947,0.05788389747065972,0.28948963435244646,-0.5206299720590417,-0.0521076198780602,0.2831816950384621,-0.5100086433032692,-0.11838493736738388,0.6984767532426007,0.8253015762138814,0.12494291363473198,0.7004664786724123,0.8268785973579612,0.0,0.0,0.0,0.0
0.024427700278187046,0.07987192047424932,0.8364501352480693,0.000387915477795929,-0.5246604856465289,-8.903730268585133e-05,0.8513114684973351,0.05682509225867135,0.30196127991772226,-0.5297686008427196,-0.053294587249679254,0.2937419527551935,-0.5151884137882969,-0.12228233945284106,0.7138290771736623,0.8163867755323144,0.12553664374711457,0.7161645075969549,0.8163351076000328,0.0,0.0,0.0,0.0
0.026793064276184143,0.08026413020041444,0.8373666415646974,0.000799929651950802,-0.5249741864432879,-0.0004704609931044068,0.8511176430712818,0.05653332304887669,0.317604010031383,-0.5503658870846583,-0.04710124859051958,0.2935707672507468,-0.5203033597742583,-0.09677176222635173,0.7035341757806338,0.8276789176815704,0.12076646085532768,0.7261052595372463,0.8069848670948837,0.0,0.0,0.0,0.0
0.029447317862036106,0.08082697548439378,0.8381424244688945,0.001256630230059458,-0.5252561753283522,-0.0008755421181593812,0.8509427739783066,0.05592207498876981,0.33547986713550626,-0.5752660395831148,-0.0384662125530164,0.29137230603162084,-0.5263827819334509,-0.07008698249745532,0.6940634424455451,0.8374348343052782,0.11475112177114392,0.7359197070842736,0.7983100679831823,0.0,0.0,0.0,0.0
0.03211105892931263,0.08159922866704579,0.8387730054595952,0.0015973447444783343,-0.5254709005924871,-0.0011050712624710505,0.8508093558123304,0.054651376912783635,0.35372430189707227,-0.6019439660919683,-0.029542456116156066,0.28868505681810064,-0.5327438912662831,-0.048474660946842,0.6873657500362564,0.8465297460765872,0.10902609060751761,0.7452985845424493,0.7901953245936543,0.0,0.0,0.0,0.0
0.034498211721165004,0.08250128996363355,0.839376976985172,0.001870702829937381,-0.5257711408411906,-0.0012482229909235557,0.8506230950713952,0.05296235171089848,0.36955877903384216,-0.6242682237591671,-0.02114727438673116,0.28623881988069927,-0.5391088462456927,-0.03160781935083676,0.6827486290484959,0.855447706110789,0.10327411883039196,0.7543646526746144,0.7821452309560406,0.0,0.0,0.0,0.0
0.03645147577420701,0.08350197232159076,0.8399610961178148,0.002088747172582493,-0.5261138809772143,-0.0013389366823025554,0.8504105059481,0.050964182431388096,0.382341654604288,-0.6414319150031558,-0.01366024040045891,0.2839404111071598,-0.5454983719004802,-0.01778136095857291,0.678923375982804,0.8641469465214688,0.09731041228817275,0.7626058463020507,0.7740891256217178,0.0,0.0,0.0,0.0
0.0379103546990916,0.08460511674275126,0.8405042821582885,0.002259990551072882,-0.5264571502824957,-0.0013965554337814219,0.8501975129298269,0.04868196904304154,0.39208918554022976,-0.6538412405607305,-0.0071096802627472035,0.2815512702721057,-0.5519120340601374,-0.005691699219296752,0.6750967732314759,0.8725403142144789,0.0909354230549176,0.7696107489723478,0.7661848915901276,0.0,0.0,0.0,0.0
0.03887681958305652,0.08583610401112395,0.8409837571853779,0.002389362120564379,-0.5267756023891634,-0.0014293388849982817,0.8499998309803024,0.04608293945097354,0.3990989772567705,-0.6622715650273846,-0.001368318390438366,0.2788732501860456,-0.5583112811554307,0.005423777485837654,0.6709000667987212,0.8805894047256642,0.08396950577446337,0.7751693813981744,0.7585960869032797,0.0,0.0,0.0,0.0
0.03938749913829955,0.08723041806427095,0.8413783938307101,0.002479049265114332,-0.5270563596905307,-0.001438887609498114,0.8498254983388968,0.04310465291380366,0.4037867865038939,-0.6676009513927561,0.0037236566042277777,0.27581503738040425,-0.5646111338463444,0.01592587605399466,0.6662357015380046,0.8882654285967094,0.07626287881183194,0.7792160005981515,0.7514529759937085,0.0,0.0,0.0,0.0
0.03949416302440579,0.08882546833928079,0.8416658419722717,0.002529618832674545,-0.5272937944433751,-0.001423915894270589,0.8496780730568461,0.039676883176717595,0.4065982558505691,-0.6707051416369048,0.008302014090793126,0.2724339367488066,-0.570658682683079,0.025916190694502864,0.661169053843923,0.8954798209323761,0.06769758293201678,0.7817490217611347,0.7448857611351977,0.0,0.0,0.0,0.0
0.03925113564323489,0.09065499566959288,0.8418192608934428,0.0025406955464689685,-0.5274859257113338,-0.00138243088865628,0.8495588454765423,0.03573608272092691,0.407956627749845,-0.6724073257157668,0.01246579071283926,0.26896495836312173,-0.5761866101120507,0.03531777030072075,0.6558827182931343,0.901991294205717,0.05819237674510596,0.7827674432280814,0.7390704429173195,0.0,0.0,0.0,0.0
0.0387074793213293,0.09274480788726563,0.8418058827288738,0.002511113270890063,-0.5276326840891259,-0.001312484856467748,0.8494679054411337,0.03123488933114198,0.40822640432155805,-0.6734372231047288,0.016287007648755937,0.2658120973427847,-0.5807409326181242,0.04390135081337321,0.6506939561850705,0.9072675727558752,0.04771451569146132,0.7822342951707408,0.7342599242497394,0.0,0.0,0.0,0.0
0.037901956278829745,0.09510886644325071,0.8415901863664417,0.0024391907266110148,-0.5277362232456698,-0.0012123815639934993,0.8494039434532542,0.02614955104986213,0.4076769238232244,-0.6743592028728271,0.01982446385722518,0.2634413536163388,-0.5835887078995506,0.05130881056218016,0.6461398685983484,0.9102721138507931,0.03629276975905606,0.7800781078915853,0.7307683350339509,0.0,0.0,0.0,0.0
0.036859395133830394,0.09774615421729131,0.8411474360056767,0.0023250052504220475,-0.5278041503148242,-0.001082897989912939,0.849362231673257,0.020487551509352563,0.4064314173088926,-0.675414492468063,0.023126751741001095,0.26209401666412,-0.5836538881740102,0.0571809727119853,0.6430930200953254,0.9092536805683769,0.02400324073052582,0.7762587161487347,0.7288427161958057,0.0,0.0,0.0,0.0
0.03558692827377708,0.10064308342386856,0.8404785054215577,0.0021723408465163874,-0.5278422489323564,-0.0009275720050880941,0.8493391435624842,0.014281676519722512,0.404445676790008,-0.6764647068253761,0.026240825206958193,0.2618151705577488,-0.5809974820434362,0.06152581311462824,0.6416182665263659,0.9042220294276424,0.010938071846552551,0.7708256134082653,0.7284668277510028,0.0,0.0,0.0,0.0
0.03407724629101418,0.10377317924172084,0.8396099936419865,0.0019887291767580247,-0.5278532707150522,-0.0007526207679866519,0.8493329165372451,0.007592537270472831,0.40153401824420004,-0.6770401347575239,0.029225919875900695,0.26246138317761236,-0.5768296158784133,0.06474322963756547,0.6409700310256045,0.8969230420876846,-0.0027845986309066977,0.7639286572249102,0.7293538705462589,0.0,0.0,0.0,0.0
0.032317716743631084,0.10709176695097947,0.838581239004015,0.0017837649118639023,-0.5278436817155318,-0.0005667133492037998,0.8493394755289027,0.0005234049777373364,0.39742524750132757,-0.6764471069041946,0.03216986236756874,0.26369466062244273,-0.572044668169814,0.06730004203232844,0.6407316709492239,0.8883608228203995,-0.01697536982539821,0.7557810218058939,0.7311334201170936,0.0,0.0,0.0,0.0
0.030298665900747666,0.11053466455067681,0.8374336639642317,0.0015677618633540406,-0.5278223795936066,-0.00037941044369981626,0.8493532443987,-0.006777291871000053,0.39183288356807383,-0.67393334299927,0.03520235567611555,0.265302467778988,-0.567306805594049,0.06965784896484284,0.6407070904273828,0.8790122164150983,-0.03135887545443811,0.7466122455860029,0.7334832391170467,0.0,0.0,0.0,0.0
0.028022788739226322,0.11401750321757068,0.8362093087771276,0.0013531612046608855,-0.5278031092114114,-0.00020282040475962825,0.8493656490142538,-0.014112989202969842,0.3845091842231162,-0.6687651543344278,0.03847856529595328,0.26734706255116913,-0.5631842191618889,0.07234815538942622,0.640834588690161,0.8690374310641604,-0.04560197846748855,0.7366729746857308,0.7361672246900126,0.0,0.0,0.0,0.0
0.025516499584021034,0.11743496148964135,0.8349485652425555,0.0011572731203935997,-0.5278080610611655,-5.537437694371673e-05,0.8493628837731585,-0.021234230148063277,0.3753063854582988,-0.6603105879925013,0.04213311003194027,0.27021535871423125,-0.5602972495542722,0.07610732609174731,0.6411485863017227,0.8584012256294581,-0.059363942423748844,0.726234664774903,0.739083890033199,0.0,0.0,0.0,0.0
0.02284267796021963,0.12066002593051249,0.8336736629075376,0.0010047376430955127,-0.5278553283066617,1.5155844276823583e-05,0.8493337051188039,-0.027795893419630405,0.36430262226349575,-0.6483497703899515,0.04624576596186812,0.27458419354251057,-0.5595944418497996,0.08190518111586423,0.6417427643907735,0.8469381481686463,-0.07242995596597046,0.7154515976544888,0.7423957560863411,0.0,0.0,0.0,0.0
0.02007664630825003,0.12354462413268451,0.8324163352738977,0.0009198657483794283,-0.5280238378124248,-1.8600401080366566e-05,0.8492290504939571,-0.033454556608203484,0.3514760699739243,-0.6321645031636203,0.05114374793031288,0.2815148163238042,-0.5626791186445579,0.09149544838398752,0.6427097778055407,0.8344641211045221,-0.08446393079419764,0.7046581300600049,0.7465020640891986,0.0,0.0,0.0,0.0
0.017806339464082603,0.1260821461342074,0.8311107231286051,0.000936275074333018,-0.5283226887555662,-0.0001839748927254308,0.8490431238095701,-0.038210611283381754,0.3407015973720678,-0.6183523993282406,0.05636180701529608,0.29208916553692993,-0.5707941739587975,0.10621842746472898,0.6455484550733293,0.8206736686983941,-0.09603012565974409,0.6945553101668887,0.7522197058186115,0.0,0.0,0.0,0.0
0.016240384987053845,0.12804840458335506,0.8298550511361011,0.0010408556403309294,-0.5289755266923798,-0.0005014114638191343,0.8486362927465448,-0.041568203948248644,0.33262680322883675,-0.6064450637432027,0.061855047435895635,0.30795878198969745,-0.5882702937527647,0.12699112825120956,0.6508327091730662,0.804989397564612,-0.10652841962506612,0.6862498317041591,0.7601603402127113,0.0,0.0,0.0,0.0
0.01562816732135845,0.12919483794223668,0.8288354657612258,0.0010921248264859104,-0.5300982453243429,-0.0008690352894745885,0.8479350814449663,-0.04310830916905241,0.32835122457726357,-0.5971855088451491,0.06699721609863252,0.3301976282796493,-0.620438999524699,0.14998816010335206,0.6597775438054757,0.7868478407878605,-0.11410336692194031,0.6815043138702912,0.769898444273805,0.0,0.0,0.0,0.0
0.015511904448219628,0.129594271298357,0.8287151454804049,0.0007703930664493702,-0.5301905832655258,-0.0008729561034587385,0.8478776974651039,-0.04355645820575163,0.3281667211219758,-0.5972441247902257,0.06704753731069708,0.3302424712174315,-0.6204425261488902,0.1500142189016665,0.6598082426135108,0.7868537966573972,-0.11423652034999741,0.6813724477910382,0.7698450083751673,0.0,0.0,0.0,0.0
0.015511904448219628,0.129594271298357,0.8287151454804049,0.0007703930664493702,-0.5301905832655258,-0.0008729561034587385,0.8478776974651039,-0.04355645820575163,0.3281667211219758,-0.5972441247902257,0.06704753731069708,0.3302424712174315,-0.6204425261488902,0.1500142189016665,0.6598082426135108,0.7868537966573972,-0.11423652034999741,0.6813724477910382,0.7698450083751673,0.0,0.0,0.0,0.0
0.016351085447168175,0.13140722990297715,0.829356431385272,0.0006462352842191489,-0.5298875532269037,-0.0008090612084025847,0.848067278424963,-0.04731814235290074,0.3367125640467325,-0.6116740150117483,0.06340871531544166,0.3335192648406076,-0.6243186724328224,0.14306678412771,0.6631523772081382,0.7859410613595675,-0.12127528922270576,0.6870050332209712,0.7561624226298611,0.0,0.0,0.0,0.0
0.01857843223666042,0.1349419634643369,0.8322845504968273,0.0002713800075916107,-0.5304993325274492,1.545103295966774e-05,0.8476853097123295,-0.05593671200140826,0.3520434180542073,-0.6254172440866949,0.054823907279051176,0.3390670510912225,-0.6166553839855485,0.13415630961239794,0.6806586915398745,0.7702763785113983,-0.1322499428580066,0.7118483362193143,0.7163385523298251,0.0,0.0,0.0,0.0
0.02012070423822248,0.13851038981649022,0.8344347251076929,6.170056425213798e-05,-0.5291363633169085,-0.0003378401085699075,0.8485367352524333,-0.05334953017517989,0.32863864819918964,-0.5881360403991529,0.04860310214960351,0.3447778777705705,-0.6239014394981771,0.11680510865004846,0.6916784176588894,0.756476028821929,-0.11584345830583223,0.6895237235251932,0.7595201611010705,0.0,0.0,0.0,0.0
0.022236164105531094,0.14242742025998634,0.8359790522645726,-0.00013432798085631677,-0.5282761368816697,-0.000442238823143151,0.8490724996030646,-0.04954025617937386,0.31089363603140424,-0.5675813209673716,0.04112807977781835,0.3532263620208593,-0.634987001869261,0.0998340954402736,0.7009914407781288,0.7508323307948213,-0.09735835185431747,0.6763654651366678,0.789328139850558,0.0,0.0,0.0,0.0
0.024809572103102327,0.14643947165561516,0.837074509015931,-0.0004113475924961681,-0.5278026544393077,-0.0003148725446399014,0.8493668757464348,-0.04510071700685797,0.29877091615407175,-0.5578901276514628,0.033027322041805925,0.363807398074099,-0.6488326552994221,0.0841639970963881,0.7090992796617895,0.7508244189950469,-0.08260411674417706,0.6694272150337148,0.810382691053607,0.0,0.0,0.0,0.0
0.027383960297361058,0.1504344376766735,0.8381512480732229,-0.0007285894810531219,-0.5276067132631267,-7.367739183257987e-05,0.8494884459771603,-0.0408473416781249,0.29103009743147,-0.5547867263459509,0.02468641861820242,0.3733061212671614,-0.659121210400997,0.06903969911778617,0.7176441165068269,0.7513242670451872,-0.07258552102513059,0.665320344309475,0.8265736853407769,0.0,0.0,0.0,0.0
0.029819517966107257,0.15430966434817672,0.8392827180477338,-0.0010543366064910769,-0.5275525586937373,0.00020372626529953675,0.8495217152525413,-0.03699519849514057,0.2860891946972298,-0.5553818791477491,0.0164665376242396,0.38133460406465697,-0.6658503287692571,0.054263128807432066,0.7267167535731239,0.7508372363462301,-0.06612535062313195,0.6627050000237574,0.8399425315764625,0.0,0.0,0.0,0.0
0.03202636571227691,0.15800739298310898,0.8404328447184735,-0.001361019642765709,-0.5275527620230618,0.00047567304319288934,0.8495210442611334,-0.033521338084501605,0.2827125839162284,-0.5581257149290113,0.008566916273680995,0.38775870484428887,-0.6695502482224152,0.03975735356749179,0.7358466418822973,0.7493655630256291,-0.06178299924439163,0.6608958896123545,0.8516256236160272,0.0,0.0,0.0,0.0
0.03395689734486044,0.1614866343534286,0.841550835759816,-0.0016329714499436494,-0.5275615364031214,0.0007210355606441387,0.8495149432587645,-0.030258997199900134,0.28005764028219754,-0.5621097511045534,0.0011165001129770716,0.39258572689986143,-0.6707744533355385,0.025592856178338175,0.7445706037353983,0.74727480316115,-0.05841434187307601,0.6595353225499405,0.8622624258542906,0.0,0.0,0.0,0.0
0.03559301714123592,0.16471619881542365,0.8425948897794819,-0.0018631986791254609,-0.5275582168803227,0.0009311575711629531,0.8495163266461182,-0.027003314036164204,0.27763460637871906,-0.5667489674901733,-0.005797714764882715,0.3959130534921539,-0.670022338953677,0.01192787690536917,0.7525473007922858,0.7449512227430212,-0.05526217404049901,0.6584270178619804,0.8721982351591189,0.0,0.0,0.0,0.0
0.036933926311365814,0.16767388120710833,0.843532813590116,-0.0020499214785898467,-0.5275350710833289,0.0011041744469369905,0.8495300626804383,-0.023581129451324685,0.2752593628790915,-0.5715889056916054,-0.012119678758714437,0.3978829957448983,-0.6677364643830259,-0.0010538682551856533,0.7595350077426638,0.7427446176350732,-0.05185545098839209,0.6574825208579971,0.8815469434756686,0.0,0.0,0.0,0.0
0.03798613781766817,0.1703469190926375,0.8443364801402052,-0.0021938663406000057,-0.5274898688335345,0.0012412741268190018,0.8495575816076284,-0.019886147177258853,0.27301785679051177,-0.5761657255474301,-0.017819548642220753,0.3986439395360053,-0.664306929449186,-0.01319090035670389,0.7653386267589048,0.7410006574352284,-0.047867706808833024,0.6567195287189392,0.8901698804186321,0.0,0.0,0.0,0.0
0.03875580249772356,0.17273240812404217,0.8449765832988192,-0.0022965029314188927,-0.5274220143825669,0.0013445190857457085,0.8495992803006306,-0.01588691747162477,0.2712137251831247,-0.5798836695365686,-0.022891296042857646,0.3983171028545715,-0.6600629444158445,-0.02437389532919075,0.7697633313030869,0.740103943230025,-0.04299588469326622,0.6562972662527019,0.8975768236956005,0.0,0.0,0.0,0.0
0.03924297335465583,0.1748374923698917,0.8454218457354661,-0.0023591708613646153,-0.5273311841294893,0.0014158690829002498,0.8496553724141204,-0.011610956594443774,0.2702326047213505,-0.5818977344654077,-0.027351232596443488,0.39696386803343564,-0.6552325078418173,-0.034559398700663824,0.7725978293508515,0.740479996815276,-0.03690151265822987,0.6565999432495975,0.9027336374850792,0.0,0.0,0.0,0.0
0.039437453978341044,0.17667884404301185,0.8456490437862876,-0.002383645841520719,-0.5272186983373726,0.0014583174066177546,0.8497250353298356,-0.007103444098312605,0.2702387726990621,-0.581044692245595,-0.031237196187824078,0.39454191964586877,-0.6498226315334428,-0.043756507713642825,0.7736619480275194,0.7424824250476365,-0.029291666773191456,0.65834499516177,0.9038608490569785,0.0,0.0,0.0,0.0
0.039314429530861325,0.17827887634261524,0.8456569218225866,-0.00236888721414111,-0.5270794261934998,0.0014719249739210682,0.8498114498485936,-0.002387501104086108,0.271204680317163,-0.577331040452264,-0.034594773660867696,0.3908809909070081,-0.6435761083709259,-0.05203848109721171,0.7728666589728069,0.7461997438159783,-0.02026062540064306,0.6614393741056802,0.9009181477449464,0.0,0.0,0.0,0.0
0.03883657865418761,0.17966546883364384,0.8454661210311261,-0.002309983250649673,-0.5269008076223288,0.0014531495788962854,0.8499224030819641,0.002557128030353224,0.27291092600689404,-0.5719401447371878,-0.03747595395280236,0.38569326734552367,-0.6359939974437416,-0.05954201736701897,0.7702160238363871,0.7514487311622328,-0.010258465497185107,0.6649819302909209,0.8956227106399477,0.0,0.0,0.0,0.0
0.03796243499891238,0.18087338620118415,0.8451045061031706,-0.0021995870905843298,-0.526669666133798,0.0013977780227950193,0.8500660390862252,0.0077934455862401514,0.27490997641508275,-0.5657401218102518,-0.03994690876514397,0.37861934927793567,-0.6264241008153816,-0.06645125307502543,0.76575149619266,0.7579593284055398,0.00028471169104146536,0.6683945047572198,0.8889884581838216,0.0,0.0,0.0,0.0
0.03665507977069809,0.1819410231928797,0.8445957043393184,-0.0020269974486506197,-0.5263713416250901,0.0012994795798144615,0.8502513824451963,0.013408539823842167,0.2768198991197915,-0.5593336238933881,-0.04208054998313229,0.369299597543483,-0.6142281587851139,-0.07299618191424966,0.7595104198482575,0.7654884943798731,0.011077940386009502,0.6713033353733577,0.8815472823207854,0.0,0.0,0.0,0.0
0.034894947284773596,0.18290522871408685,0.843957771514585,-0.0017799392752612807,-0.5259927151825541,0.0011507804396621599,0.8504864320466496,0.01949334792561315,0.27844943045673726,-0.553139345277999,-0.043946885987228415,0.35745339042271385,-0.5988985062774093,-0.07941406012784505,0.7515533350375481,0.7738266028839965,0.021992869522478597,0.6734730014426197,0.8735793124991629,0.0,0.0,0.0,0.0
0.032699848492434916,0.18379339993812913,0.8432040678571521,-0.0014494733164359956,-0.5255294812328032,0.0009462074767917137,0.8507736291597763,0.02610622818599371,0.2798336105468446,-0.5474380756334123,-0.04559902295565321,0.34300343170091774,-0.5802180037857473,-0.08587474644914521,0.7420228906944321,0.7827884678942333,0.03312150985514166,0.6748569250951535,0.8652886233522028,0.0,0.0,0.0,0.0
0.03015632069950381,0.18461076908576676,0.842337256311017,-0.0010399858078713705,-0.5249979437424126,0.0006886009016380416,0.8511025809645723,0.0332150835262692,0.2812189635615451,-0.5423439559084576,-0.04705171229424865,0.32630628479334733,-0.5586039823432406,-0.09235634507437139,0.7311916066665193,0.7922899777962239,0.04498101628002598,0.6758106633264952,0.8569520282630712,0.0,0.0,0.0,0.0
0.027466968819042873,0.18531875931344413,0.8413179640360826,-0.0005721061961002034,-0.5244098210782577,0.0003846782764364082,0.8514657152662071,0.04069613540415678,0.282846821259332,-0.5376092483937976,-0.048233828007991884,0.30873951680980005,-0.5363986732401953,-0.098578853329298,0.7193510968371258,0.8025694524452853,0.058858291177174116,0.677334895840658,0.8490036387005275,0.0,0.0,0.0,0.0
0.02505721411625909,0.18579080569117046,0.8401020743874688,-0.00011391011319255824,-0.523755675535617,6.692771461841419e-05,0.8518685197196787,0.04850728791003818,0.2845056193866299,-0.5320590926097538,-0.04892104036553821,0.293809317134653,-0.519736710810711,-0.10356582731366194,0.7071456926167574,0.8136816401138776,0.07720228003634146,0.6812452807097559,0.8419044950054165,0.0,0.0,0.0,0.0
0.02311736166262148,0.1860406316344987,0.8389165652774085,0.00024334858004835752,-0.523157782577821,-0.00018455272232862635,0.8522357897026026,0.05557891068545784,0.2858248405842838,-0.5260088536201948,-0.04921148166236529,0.2824202919104057,-0.5085357001949565,-0.10671626876342429,0.6962310897956832,0.8238214535736265,0.09987276175624776,0.6872364741493973,0.8362385178091096,0.0,0.0,0.0,0.0
0.021901222831948765,0.18607403798003355,0.8380818877308086,0.00035782279249712304,-0.5226824505845863,-0.0002565701071550233,0.852527337969593,0.06037701820006068,0.28549177758047234,-0.5198464958251805,-0.049208332935312266,0.2758089903050782,-0.5030729174272127,-0.10695301188282522,0.6885942251106696,0.8302193261937526,0.1222740070374717,0.693210444018634,0.8325242004035849,0.0,0.0,0.0,0.0
0.02185817211213603,0.1860012268346097,0.8380449439341406,0.00043986171767032887,-0.5226747959821784,-0.00025628312459989263,0.852531992646386,0.06042291952760634,0.28552982373869135,-0.5198440689157715,-0.04914536746722302,0.275656928608552,-0.5030629097349875,-0.10696402038673761,0.6884525529576855,0.8301561633074525,0.12227858251349456,0.6932573960883418,0.8325401745719756,0.0,0.0,0.0,0.0
0.02185817211213603,0.1860012268346097,0.8380449439341406,0.000439861717670448,-0.5226747959821784,-0.000256283124599944,0.852531992646386,0.06042291952760629,0.2855298237386913,-0.5198440689157714,-0.04914536746722308,0.2756569286085521,-0.5030629097349882,-0.10696402038673794,0.6884525529576855,0.8301561633074522,0.12227858251349372,0.6932573960883414,0.8325401745719756,0.0,0.0,0.0,0.0
0.02185817211213603,0.1860012268346097,0.8380449439341406,0.000439861717670448,-0.5226747959821784,-0.000256283124599944,0.852531992646386,0.06042291952760629,0.2855298237386913,-0.5198440689157714,-0.04914536746722308,0.2756569286085521,-0.5030629097349882,-0.10696402038673794,0.6884525529576855,0.8301561633074522,0.12227858251349372,0.6932573960883414,0.8325401745719756,0.0,0.0,0.0,0.0
0.02317280718897975,0.18616556166079443,0.8388368114750782,0.0005125607453266758,-0.523393639669273,-0.00030838444900044195,0.8520908050990018,0.06015466986721641,0.2922342269587284,-0.5243910955441395,-0.04948494866181526,0.28166964114701953,-0.5065349433110022,-0.10943996120937567,0.6970249424242909,0.8251809041881915,0.12204498595816006,0.701634946161656,0.8268647327808101,0.0,0.0,0.0,0.0
0.0255431576882294,0.18661756299991733,0.8402700205611625,0.0005550282627461265,-0.5247040353623535,-0.0001799964511216659,0.8512845204861692,0.058990066066749905,0.3046785515854124,-0.5335977733722677,-0.05077474697991989,0.29200712090439335,-0.5113419318145265,-0.11322967622469916,0.7122308333984002,0.8163350826661945,0.12247615822191331,0.717306401756572,0.8161291376920554,0.0,0.0,0.0,0.0
0.027895432167643786,0.18705558099777364,0.84116963516202,0.0009442921970482263,-0.5250251270919927,-0.0005488417069748237,0.8510860256208324,0.05860831494372698,0.32028683186456514,-0.554204077945961,-0.04463845372745718,0.2923959155303031,-0.5175761515540878,-0.08870184073402089,0.7021418608114481,0.8276831702261692,0.11761937760645255,0.7271960413432927,0.8068231421109214,0.0,0.0,0.0,0.0
0.030531521541053416,0.18766688806019136,0.8419373768276811,0.0013734351450738575,-0.5252995776142009,-0.0009333905749299899,0.850915739786425,0.057891843348386214,0.33812053138262554,-0.5791579365851355,-0.036100370550028224,0.2905491378587468,-0.5243380709199051,-0.06300642977319658,0.6928011076540358,0.8374794629974031,0.1115450281614175,0.7369728095314579,0.798046339392867,0.0,0.0,0.0,0.0
0.03316365413452244,0.18848012973500472,0.8425658920874486,0.0016958689170809122,-0.5255136803324497,-0.0011481189501078533,0.8507826853168418,0.05653034303068089,0.35617140410303133,-0.6055533322425293,-0.027245847617509818,0.28806088480089403,-0.5310801525148243,-0.04203886197328335,0.6861268995462085,0.8465865956232046,0.10572027997987582,0.7463141041006554,0.7898090626514069,0.0,0.0,0.0,0.0
0.0355144496555322,0.18941723758931717,0.843166427007216,0.0019561980286174627,-0.5258110201436949,-0.0012811595623336027,0.8505982030400109,0.05476456418759763,0.37180553573099767,-0.6275981908435669,-0.018907901893823173,0.28570673647568795,-0.537662523201106,-0.025530280661562942,0.6814501982254852,0.8554876726714441,0.09984258284424477,0.7553057222887855,0.7816598191243128,0.0,0.0,0.0,0.0
0.03743145880623542,0.19044786980272324,0.8437453954002473,0.0021650017560047056,-0.5261495827879396,-0.0013649950642494087,0.8503881855293782,0.05270097050238514,0.3844084976468019,-0.6445292005177153,-0.011469278192721939,0.2834364456770906,-0.544166375798216,-0.011888832422069381,0.6775315399162914,0.8641520248226917,0.09374534477508009,0.763449591727553,0.7735363281198608,0.0,0.0,0.0,0.0
0.0388565897003787,0.19157626364537142,0.844282810818929,0.0023296794374719084,-0.5264884775739467,-0.001417804725284542,0.8501778904472566,0.05036297102462273,0.39400100354606743,-0.6567498772270969,-0.00495825303514247,0.28104085239614796,-0.5506292809689485,0.00010891181898736203,0.6736045734285269,0.8725016518163001,0.08724409378339075,0.7703512131297964,0.7655878539423636,0.0,0.0,0.0,0.0
0.03979284535186244,0.19282802726211593,0.8447567498293214,0.0024543719010683847,-0.526802842692491,-0.0014470874325848769,0.849982733311474,0.047716899495422224,0.4008799233220928,-0.6650280664755426,0.0007525218117445378,0.27833929629100124,-0.5570376967908314,0.011179321226373821,0.6693115490894751,0.8805027390070286,0.08016913193461772,0.7758116031627688,0.7579682980822473,0.0,0.0,0.0,0.0
0.04027722040637497,0.19423889316329013,0.8451464704972206,0.0025407376953687903,-0.5270799008726642,-0.0014540047428323057,0.8498106898705344,0.044699741964632764,0.40545951301670696,-0.6702369250094742,0.00582209236909584,0.2752503172567912,-0.5633235356458748,0.02165978201271233,0.6645580710323964,0.8881284737011973,0.07237572871450383,0.7797704619700384,0.7508012972458852,0.0,0.0,0.0,0.0
0.04036157029883915,0.19584659642287047,0.8454296952362057,0.0025890017009814158,-0.527313984382734,-0.0014370348098023636,0.8496653422822149,0.04124072042273268,0.4081842364551294,-0.6732498952468634,0.010384717742715734,0.27183663850770445,-0.5693452540002332,0.03164094367320763,0.6594100843515925,0.8952913637207666,0.06374725232446198,0.7822282597684882,0.7442132620291179,0.0,0.0,0.0,0.0
0.04010021530600085,0.19768525890080374,0.8455794948330206,0.0025985501296256343,-0.5275030244088921,-0.001394050617184636,0.8495480347805958,0.03727567571899151,0.4094767873504227,-0.6748899608531894,0.014537472599980544,0.26833617284872646,-0.574843390467996,0.04104035173732879,0.654050712115944,0.9017512991220299,0.05420157386646524,0.7831842490251764,0.7383783245267699,0.0,0.0,0.0,0.0
0.03954219260515061,0.19978106550838015,0.8455629684815749,0.0025680303180017055,-0.5276468669163258,-0.001323009289524983,0.8494589093653034,0.03275661418156875,0.40970154666455477,-0.6758876800195801,0.018350326683481747,0.2651544013648122,-0.5793695324791445,0.04962442771151956,0.6487988065710305,0.9069778345755364,0.04370412464702684,0.7826009691745954,0.7335486540318209,0.0,0.0,0.0,0.0
0.0387262138145207,0.2021482844743471,0.8453445054682991,0.0024956103279107993,-0.5277476165043355,-0.0012221298817366357,0.8493966868322693,0.027659212409205474,0.40912771062648196,-0.6768080296681134,0.021880372332016017,0.2627580672876776,-0.5821945578882289,0.05702984820096763,0.644194193780214,0.9099372419976558,0.032281730674352936,0.7804063549208667,0.7300381667088044,0.0,0.0,0.0,0.0
0.03767699273873489,0.20478609446650922,0.8448993666102799,0.0023812867930598195,-0.5278128705048895,-0.0010921202812976343,0.8493566450413449,0.021990468846968026,0.4078780451534117,-0.6778918654611567,0.025175313107461524,0.2613887431606668,-0.5822441655987208,0.0628918480974036,0.6411121397500136,0.908881900658474,0.020008539333092136,0.7765597083912975,0.7280937890111138,0.0,0.0,0.0,0.0
0.036401501787589184,0.20768108120007392,0.8442284362784324,0.002228866989192833,-0.5278484474189497,-0.0009364859422365795,0.8493351350929907,0.01578258973815596,0.405907968936898,-0.6790003353583077,0.02828202001837402,0.2610911627474933,-0.5795780744977086,0.06721772012057958,0.639617900919494,0.9038221695831051,0.006974504129179443,0.7711098453271339,0.7276996650629989,0.0,0.0,0.0,0.0
0.03489223623079277,0.21080694327960792,0.8433582945345035,0.0020459921321863976,-0.5278571458370296,-0.0007614186590339024,0.8493303643145025,0.009095455180087083,0.40303170438932695,-0.6796638465844526,0.03126036228599021,0.2617207732115732,-0.5754018806294148,0.07041138448940355,0.638964125116737,0.8965009961137502,-0.00670449290687151,0.7642056527736193,0.7285700714713725,0.0,0.0,0.0,0.0
0.03313631342668129,0.2141191280218366,0.842328236063569,0.0018424173598149492,-0.5278454208480146,-0.0005755278336330949,0.849338263565093,0.002031564269070985,0.3989780584083598,-0.6791895099647659,0.034199434994377775,0.2629375028624873,-0.5706027663612455,0.07294341206557675,0.6387323635661105,0.8879196746414263,-0.02084121204833019,0.7560588642022261,0.730336250527471,0.0,0.0,0.0,0.0
0.031123757450334383,0.21755357940570047,0.8411795484958846,0.0016286645674458713,-0.5278220467380483,-0.00038827992367893634,0.8493533326405949,-0.005261524534995071,0.39346079734100264,-0.6768272569498703,0.03723035682798613,0.2645248355019479,-0.5658348057982888,0.07527906370954414,0.6387253842419153,0.8785524690699864,-0.03516273812832972,0.7468966218443576,0.7326786112360217,0.0,0.0,0.0,0.0
0.028856832430972115,0.22102611539530373,0.8399539879696724,0.001417494930226991,-0.5278004540919299,-0.00021168783837414223,0.8493671918297377,-0.012588302365289477,0.38623244316700484,-0.6718471863193026,0.04050940187723704,0.2665372645082695,-0.5616518496728901,0.07795612337321202,0.6388798410942246,0.8685565032246079,-0.04933952073668117,0.7369654881490302,0.73536466664815,0.0,0.0,0.0,0.0
0.026361178687051113,0.2244316943253013,0.8386915340685147,0.0012267677728422348,-0.5278022390651795,-6.414149737551935e-05,0.8493664034823151,-0.019700583653063382,0.3771442365294189,-0.6636207566298752,0.04417154419116336,0.26934724497831053,-0.5586532781152104,0.08172436395565265,0.6392247469173387,0.8578917644376636,-0.06303644353158488,0.7265305314433205,0.738296498497822,0.0,0.0,0.0,0.0
0.023698140299718905,0.22764364493560552,0.837414138319082,0.001082078621974865,-0.5278448007850545,6.619455183527309e-06,0.8493401529106138,-0.02625478612634846,0.36626770560231803,-0.6519213881380249,0.048295689285692084,0.27360730024555474,-0.5577560458609212,0.0875802523395631,0.6398400113640725,0.8463852277544808,-0.07604613412606553,0.7157383402956635,0.741637536899161,0.0,0.0,0.0,0.0
0.020940738975721147,0.23051426992315024,0.8361535591929079,0.0010095300659220697,-0.5280075285363363,-2.7095180713797053e-05,0.849239088787043,-0.03190913146206746,0.3535673811230301,-0.6360045703447041,0.05320344329546802,0.2803430105244095,-0.5605111685775955,0.09731541715958317,0.6407987936550888,0.8338411334141721,-0.08804715978871544,0.7049167362506925,0.7457872709357539,0.0,0.0,0.0,0.0
0.018675568893150515,0.2330394033503443,0.8348397674526554,0.0010442106367788133,-0.5282944225553647,-0.00019252637060707993,0.8490605842074147,-0.036668927496505986,0.3429107036934768,-0.6224915259477052,0.058412745641962416,0.29057248270405167,-0.5680857005885369,0.11232500613497626,0.6435630248514087,0.8199378995276202,-0.0996255924689875,0.6947325921158416,0.751574036061776,0.0,0.0,0.0,0.0
0.01710798279137995,0.23499681402230757,0.8335702987370326,0.0011761977861901533,-0.5289279135106641,-0.0005099908733777665,0.8486657874436392,-0.04004541464560337,0.3349231486474226,-0.6108823193814199,0.06385673328862014,0.30586099780430565,-0.5846547236995585,0.13350325457428622,0.648689903634355,0.8040746087941566,-0.11020799391067213,0.6862788469493807,0.7596019187036003,0.0,0.0,0.0,0.0
0.016483429277081137,0.23614084094426063,0.8325353713679896,0.0012667357397269975,-0.5300261499182658,-0.0008763074112218379,0.8479798982692377,-0.04162976229395239,0.3306595675293565,-0.6018143703771561,0.06888166507243804,0.3272188579292086,-0.6153645938227926,0.1568320201717241,0.6574302426835146,0.7856948511969736,-0.11796303192349072,0.681338247511394,0.7694004560645197,0.0,0.0,0.0,0.0
0.01636689959312905,0.2365384312862776,0.8324151623099352,0.000947059814337009,-0.5301190659441942,-0.000880171842956184,0.8479222277412534,-0.04207747059492702,0.33047656404646114,-0.6018743596439543,0.06893253606299818,0.32726392927732934,-0.615367601349734,0.15685840343360574,0.6574606515805771,0.7857008202017205,-0.11809657857801484,0.6812066811597242,0.7693470498227837,0.0,0.0,0.0,0.0
0.01636689959312905,0.2365384312862776,0.8324151623099352,0.000947059814337009,-0.5301190659441942,-0.000880171842956184,0.8479222277412534,-0.04207747059492702,0.33047656404646114,-0.6018743596439543,0.06893253606299818,0.32726392927732934,-0.615367601349734,0.15685840343360574,0.6574606515805771,0.7857008202017205,-0.11809657857801484,0.6812066811597242,0.7693470498227837,0.0,0.0,0.0,0.0
0.01722296455973454,0.23836254558681735,0.8330637358288502,0.0007895010515245899,-0.5298297121161907,-0.000811761639571684,0.8481032919933779,-0.04583771644418417,0.3391106692424425,-0.6163839191436388,0.06530220685949509,0.33062134405056376,-0.6192605664732026,0.15011767913829607,0.6608228195724348,0.7848689001668419,-0.12500191222011228,0.6869922145898137,0.7555680472058758,0.0,0.0,0.0,0.0
0.01948079096261418,0.24193646277602615,0.8360214870834348,0.0004254170941655848,-0.5304252541615438,-1.2433843381031736e-05,0.8477316017545631,-0.05450548186646286,0.35470755964939504,-0.6305209410260307,0.056689348188326875,0.3363593952234153,-0.6119378548051226,0.14097421114913336,0.6784762336273508,0.7691733842874433,-0.13632318834406942,0.7120265616300128,0.715128308183313,0.0,0.0,0.0,0.0
0.02103795261958099,0.2455389910334787,0.8382001077946192,0.0001807236292600877,-0.5290715201531755,-0.00035821244540706817,0.848577141800097,-0.05190261805048515,0.330596315179981,-0.5916537253021371,0.050428985968558306,0.3421186134787789,-0.6190858907696186,0.12374590880863377,0.6896051760858435,0.7553650009201736,-0.11947094131573865,0.6897473687078579,0.7586900038203269,0.0,0.0,0.0,0.0
0.023179943783620094,0.24949895032492442,0.8397777321458249,-3.509837110386478e-05,-0.5282249925218461,-0.0004639328916864198,0.8491043168007522,-0.04812494316638798,0.312421627533321,-0.5700511733124457,0.042902228814956804,0.3506922810220362,-0.6301842213171371,0.10678943685418031,0.699085506490242,0.7497324645372081,-0.10072545334108847,0.6766648208496459,0.7887529277024184,0.0,0.0,0.0,0.0
0.025780334423433592,0.25356707355855385,0.8408870586090902,-0.0003223246770785333,-0.5277680247511816,-0.00034476082870846296,0.8493884207457797,-0.04376528778302785,0.30002526135062535,-0.5597065490284766,0.03472885044417266,0.36141071235023187,-0.6441372325630186,0.09101986767422535,0.7072623155170785,0.7499937836896512,-0.08585190221296349,0.6697954946496835,0.8099257259973095,0.0,0.0,0.0,0.0
0.028383381732241978,0.2576194941780687,0.8419716156489636,-0.0006424911263877727,-0.5275811906295513,-0.00011355210696840298,0.8495043623225114,-0.039588976074377044,0.2921289816680874,-0.5562298206972791,0.026307437193989945,0.3710604949599395,-0.6546196532317724,0.07573256379009675,0.7158491074106983,0.7507880871225454,-0.07581607809718295,0.6657250607725584,0.8261641132655768,0.0,0.0,0.0,0.0
0.03084853740067986,0.2615484952313992,0.8431102923958682,-0.0009685048229214038,-0.5275328429322635,0.00015444188348719183,0.849534070990632,-0.03580171949594682,0.28711548056342606,-0.5566179304450284,0.018008301150991154,0.3792365116773692,-0.6615520043728068,0.060779883264363385,0.7249711418949899,0.7505554399538565,-0.06941226540368803,0.6631354026865618,0.8395470815735477,0.0,0.0,0.0,0.0
0.033084972849524684,0.26529383440259235,0.8442679071556037,-0.0012750133918034538,-0.5275372944563371,0.00041894487114066013,0.8495308127335545,-0.03237928425782538,0.2837195127598059,-0.5592539867882846,0.010035277144310602,0.3858009004440368,-0.6654439789841832,0.046112551069056505,0.7341604315363909,0.749288274011881,-0.06516556386794957,0.661354725171988,0.8512300690209197,0.0,0.0,0.0,0.0
0.03504406167018478,0.2688133185423992,0.8453933222268141,-0.001547106835545582,-0.5275497749461766,0.0006589586454459916,0.8495224583188966,-0.029155473598942768,0.2810774208892147,-0.5631885979416212,0.002520656963280672,0.390758940991766,-0.6668425427421262,0.03181275363885461,0.7429495203747281,0.7473591097714666,-0.06190579060145564,0.660031550508054,0.8618623401180918,0.0,0.0,0.0,0.0
0.03670663770918278,0.2720751922638467,0.8464442418768318,-0.0017778011171153659,-0.5275497962078829,0.0008655092579378747,0.8495218083356857,-0.02592647460144561,0.2786836389982939,-0.5678115605731751,-0.004446352843058239,0.3942065143316585,-0.6662474193247292,0.01804238929685662,0.7509912461692314,0.7451619981507642,-0.0588573164532996,0.6589685617347498,0.8717942715164884,0.0,0.0,0.0,0.0
0.0380709273102305,0.2750570697975917,0.8473880989081022,-0.0019650357644525928,-0.5275296607636482,0.0010361845528794175,0.8495337085546442,-0.02252007238951548,0.2763431159120275,-0.5726524151631225,-0.010808167505336967,0.39628413682482705,-0.6641016528545614,0.004984795065697109,0.7580391684404586,0.7430537289258443,-0.05553853141793965,0.6580732188463668,0.8811426301128035,0.0,0.0,0.0,0.0
0.039142654914968635,0.2777462091963519,0.8481965614119178,-0.0021092280778237512,-0.5274872084412989,0.001171633684044802,0.8495595466841814,-0.01883093061227798,0.27413455776478735,-0.5772366116271535,-0.01653392076140502,0.3971384447765939,-0.6607949079151128,-0.007200020387988488,0.763895008376504,0.7413853797610644,-0.05161728719531078,0.6573585144843385,0.8897706466079908,0.0,0.0,0.0,0.0
0.03992744191961013,0.2801398078968273,0.8488402331339739,-0.0022116071002002535,-0.5274220317797572,0.0012734645202258914,0.8495996042109853,-0.014828715326519453,0.2723572085956762,-0.5809606994749279,-0.02161686887594464,0.3968894255195462,-0.6566554000807995,-0.018404099571812785,0.7683622665896876,0.7405457645693707,-0.046787190418823205,0.6569798886186919,0.8971896946070721,0.0,0.0,0.0,0.0
0.04042513472582126,0.28224508525878145,0.8492877688877868,-0.0022733502766522596,-0.5273340748935902,0.0013432725380050994,0.8496539301112717,-0.010542057555875199,0.27139444298116505,-0.5829738902917851,-0.026072702438437487,0.3955984506775307,-0.6519112591214196,-0.028584891995152253,0.7712291171303016,0.7409640179913817,-0.04070687976938518,0.6573194912080138,0.9023672108023457,0.0,0.0,0.0,0.0
0.04062571997832087,0.2840786158795133,0.8495158008325013,-0.0022960658551177317,-0.5272247496334765,0.0013837474556628706,0.8497216465987469,-0.006016399881680892,0.2714096906773086,-0.5821094443906775,-0.029938507241519436,0.3932256113861139,-0.64657454310094,-0.03775205353448375,0.7723151850354262,0.7429967810473036,-0.033080905796954684,0.6590940016750156,0.9035251162676051,0.0,0.0,0.0,0.0
0.04050503369088341,0.2856623261048311,0.8495227981025856,-0.002278755955848294,-0.5270888950442345,0.0013950004719232238,0.8498059531246088,-0.0012734762351698566,0.2723764090675657,-0.5783746672002364,-0.03325894498736033,0.3896061816214124,-0.6403985950116315,-0.04597580738031551,0.771531005017389,0.7467354011602526,-0.024003586264482478,0.6622117803517201,0.9006232084190303,0.0,0.0,0.0,0.0
0.04002677803565707,0.28702331387901375,0.849329013251805,-0.002216760446273566,-0.5269137965655595,0.00137389805644976,0.8499147306442703,0.003710116503059183,0.274077870056665,-0.572957885161566,-0.03608512265373248,0.38446050399372783,-0.6328996376921269,-0.053386684342126574,0.7688797809645339,0.7519996346410358,-0.013927576818861639,0.6657752364057664,0.8953776402551047,0.0,0.0,0.0,0.0
0.03915061022110449,0.28819568016613495,0.8489619050007909,-0.0021030337498768223,-0.5266859341157702,0.0013167684865718397,0.8500563335299597,0.009001430326938266,0.2760699510715495,-0.5667341818013184,-0.03848291648539018,0.3774381052321038,-0.623442610918914,-0.060163100363754225,0.7644017874687761,0.7585224532263264,-0.0032848028950094484,0.6692112416637517,0.8888010044320069,0.0,0.0,0.0,0.0
0.037840518345685,0.2892176850744476,0.8484448446013646,-0.0019272120900199253,-0.5263902470983689,0.001217894533077956,0.8502400310184086,0.014691265629475245,0.2779746914611709,-0.5603149310780708,-0.04052620817526081,0.36818640151269777,-0.6114028018807265,-0.06653209336222002,0.758133446299796,0.7660635014454422,0.00763293949222045,0.6721516150535666,0.881422986016467,0.0,0.0,0.0,0.0
0.03607725705930091,0.29012699521445406,0.8477960516552848,-0.0016772697908336539,-0.5260130708756582,0.001070345986966697,0.8504741562172696,0.020872604489871143,0.27960497360150266,-0.5541304420000038,-0.04228788368848913,0.35642707673354773,-0.5962774079474586,-0.07273376503014312,0.7501352239668162,0.7744133531659909,0.01869537588626783,0.674363735809053,0.8735193790713817,0.0,0.0,0.0,0.0
0.03387797942709235,0.2909532502472496,0.8470299511105777,-0.0013441801433407299,-0.5255493652453508,0.0008688050903329053,0.8507616017708287,0.027602141925186126,0.28100051565744444,-0.5484776369109886,-0.043826285420286513,0.3420764970614488,-0.5778378154164695,-0.07895061179022851,0.7405524132501861,0.783380312446809,0.02998525565974628,0.6757955313075438,0.865286324261249,0.0,0.0,0.0,0.0
0.03132731189805837,0.29170582987879584,0.846151953842628,-0.0009316895318646948,-0.525015082756097,0.0006155517790187967,0.8510921900295128,0.03483876168781552,0.28241684924079385,-0.5434938921013455,-0.04516401002829354,0.3254699303305016,-0.5564570558001484,-0.08518577594383236,0.7296675765987923,0.7928611207299191,0.041990031874724325,0.6767828558695363,0.8569896638370834,0.0,0.0,0.0,0.0
0.028624882918076036,0.2923526849175009,0.8451280997702931,-0.0004609693119503565,-0.524427238140977,0.0003174084932615143,0.8514550831693759,0.042432223806834105,0.28412614879519016,-0.5389637726747096,-0.04624140446339936,0.30792797101399433,-0.5343288156086727,-0.09118339022015556,0.7178031117350987,0.8030687262941111,0.05594133128008244,0.6783099482761308,0.849059080721254,0.0,0.0,0.0,0.0
0.026203882317961107,0.2927699776936042,0.843911701182764,-1.2693124030221025e-06,-0.5237778357940259,5.153171096191775e-06,0.8518549047242494,0.050332245900230395,0.2859307462913666,-0.5336713259828856,-0.04683367918393447,0.29300710363568894,-0.5176750926002073,-0.09597436576065932,0.7056089987010481,0.8140897715254306,0.07428234681412799,0.6822459873069645,0.8419406430188442,0.0,0.0,0.0,0.0
0.024257007258694757,0.29297774548988664,0.8427308179882819,0.0003600004254671183,-0.5231901437187991,-0.00024548916256502665,0.8522158668144281,0.05745653394511034,0.28751191483553457,-0.5280218985513425,-0.047046740553782676,0.28161076404133695,-0.5064091899742019,-0.09902226923512218,0.6947569252525598,0.8241289502077063,0.09683092742666666,0.6882889649643307,0.8362066313781286,0.0,0.0,0.0,0.0
0.02304138789729978,0.29298886358241943,0.841903108635314,0.0004854375880963161,-0.5227312667561073,-0.000326930406127377,0.8524973197743281,0.06226924328458446,0.28760238029252594,-0.5225188352341189,-0.04699111256355219,0.27499294630944704,-0.5008563245849368,-0.0993284091154897,0.6872335799726582,0.8304650117002422,0.11899050759892596,0.6943677833282084,0.8323553669362415,0.0,0.0,0.0,0.0
0.022997025051688352,0.2929125930906194,0.8418656110104007,0.0005701070996951643,-0.522724249980787,-0.00032640046877878523,0.8525015700411657,0.062315192281600894,0.28764086009899326,-0.5225167572296845,-0.04692464555455741,0.27483954736110067,-0.5008465916961521,-0.09933854357603636,0.6870908375540069,0.8304014016255082,0.11899468668021797,0.694414902006036,0.8323712830051782,0.0,0.0,0.0,0.0
0.022997025051688335,0.2929125930906193,0.8418656110104007,0.0005701070996949714,-0.5227242499807868,-0.0003264004687782557,0.8525015700411658,0.06231519228160022,0.2876408600989924,-0.5225167572296844,-0.046924645554558185,0.2748395473611014,-0.500846591696153,-0.0993385435760285,0.6870908375540056,0.8304014016255085,0.11899468668022088,0.6944149020060367,0.8323712830051763,0.0,0.0,0.0,0.0
0.022997025051688335,0.2929125930906193,0.8418656110104007,0.0005701070996949714,-0.5227242499807868,-0.0003264004687782557,0.8525015700411658,0.06231519228160022,0.2876408600989924,-0.5225167572296844,-0.046924645554558185,0.2748395473611014,-0.500846591696153,-0.0993385435760285,0.6870908375540056,0.8304014016255085,0.11899468668022088,0.6944149020060367,0.8323712830051763,0.0,0.0,0.0,0.0
0.024302374708971515,0.29309311626651047,0.842654542656649,0.0006422168977119894,-0.5234410143080064,-0.00037993460585795876,0.852061586827711,0.06201747726356367,0.29431099824087636,-0.5270307168314748,-0.04729245137812007,0.28075768065066997,-0.5041707970672483,-0.10181327003803804,0.6956053469526081,0.8254965719563022,0.11863771293233319,0.7027581375095259,0.826650307592206,0.0,0.0,0.0,0.0
0.02665380147823885,0.2935724679240433,0.8440732796233674,0.0006763666127352319,-0.5247411905057314,-0.00024368169905243913,0.851261514538313,0.06079072088071433,0.3067210421008249,-0.5363205234866566,-0.04864310480462479,0.2909480466552913,-0.5088037541327243,-0.10549544390877295,0.7106169664544406,0.8168396832699246,0.11893912319282145,0.7183230587759281,0.8159097598862076,0.0,0.0,0.0,0.0
0.028999195908223394,0.29404212018801884,0.8449731187357816,0.0010452485883357613,-0.5250673780074684,-0.0005978456759589067,0.8510598090547448,0.06033991333129689,0.3223048812319063,-0.5568983820616376,-0.04255543088466324,0.2917089936178229,-0.5157360672230938,-0.08189601721380199,0.7008183780130907,0.8280603930845486,0.11405749120053857,0.7282535863378349,0.8065023979096513,0.0,0.0,0.0,0.0
0.03162159712489846,0.2946844064690104,0.8457343091692496,0.0014536837358941697,-0.525335542438768,-0.000966357419415713,0.8508933662965644,0.05955489997200586,0.3401008107315292,-0.5818859714251208,-0.03408509057530133,0.2900777708774405,-0.5229329009444033,-0.05699522405763238,0.6916377373463618,0.837779517781856,0.1079524350625804,0.7379995545700708,0.7976474014554203,0.0,0.0,0.0,0.0
0.03422940088790693,0.2955225700830744,0.8463575315332141,0.0017625371383490703,-0.525547632781405,-0.0011701162064879436,0.8507615470675439,0.05813829164991895,0.35800462078624123,-0.608086419272707,-0.025277123564848347,0.287706148016411,-0.5299237973572171,-0.03650447813214956,0.685004550950671,0.8468271560664572,0.10206426218166359,0.7472893119072643,0.7893477175048222,0.0,0.0,0.0,0.0
0.036551811109771876,0.2964801511933213,0.8469521431230097,0.0020135596632174287,-0.5258419791509517,-0.001295912636954203,0.8505789082445733,0.056327884140329174,0.37347899074892876,-0.6299197286167902,-0.016974639949433414,0.2854013256886586,-0.5366469196487217,-0.020242752981454875,0.6802905777850592,0.8556719483513703,0.09610210249580839,0.7562031257273332,0.7811540369384066,0.0,0.0,0.0,0.0
0.03844015760886775,0.29752767857811374,0.8475248510563484,0.0022159613721280513,-0.5261769341887784,-0.00137493954620459,0.8503711148575893,0.05422743883183484,0.3859332517979195,-0.6466618672573166,-0.009563239526464117,0.28314054961441965,-0.5432233411244127,-0.006717230765697692,0.676300357950218,0.8642818841893468,0.0899149700088121,0.7642562672011161,0.773003126449751,0.0,0.0,0.0,0.0
0.03983831322466413,0.2986698607295457,0.8480562851261974,0.0023761951087613305,-0.5265120971711296,-0.0014244524874580068,0.8501631232677497,0.05185875768203665,0.3953945645986605,-0.6587223266234321,-0.003072214689922359,0.2807327792809512,-0.5497159869782352,0.005231406320249744,0.6722917355061834,0.8725791274750285,0.08333010481223097,0.7710658437823278,0.7650382064252345,0.0,0.0,0.0,0.0
0.04075018750436114,0.29993260035640273,0.8485249025362519,0.0024977881516230166,-0.5268228561150003,-0.001451380269901728,0.8499701952565721,0.0491872860485694,0.4021609905133509,-0.6668678104415162,0.0026249787542244685,0.2780081923969803,-0.5561278164010753,0.01628446502087855,0.6679176805170254,0.88052935165309,0.07618486017588898,0.776440002452028,0.7574075273037431,0.0,0.0,0.0,0.0
0.04121312993927383,0.30135188302695787,0.8489100740640247,0.00258201641585806,-0.5270965206869033,-0.0014565675135510033,0.8498002526959306,0.04614946769055275,0.40664644841973857,-0.6719696485950843,0.007686310402708485,0.27489159699448834,-0.5624017106182634,0.02676235449383959,0.663087594933453,0.8881050661395236,0.06833766247369752,0.7803219424435852,0.7502309279764083,0.0,0.0,0.0,0.0
0.04127909899165529,0.3029657056437158,0.8491894609454015,0.0026288605298856412,-0.5273274244528493,-0.0014383243077315823,0.84965687647157,0.042674102979732655,0.4092948918077633,-0.6749004113454146,0.012244645611473252,0.27144926923241425,-0.5684035978399062,0.03674812160297969,0.6578685623190406,0.8952184785924824,0.05967237054548381,0.7827133428017067,0.7436326816625539,0.0,0.0,0.0,0.0
0.041002423133305876,0.30480845474327495,0.8493359944531154,0.0026375357926608015,-0.5275134646809672,-0.0013944286573240264,0.849541431334543,0.038696649521181875,0.41052873957164643,-0.6764832467439396,0.016395474511947925,0.2679210779715685,-0.5738792757583642,0.046155469049530995,0.6524445299655695,0.9016298522966861,0.05010589331374646,0.7836134648804778,0.7377859222251241,0.0,0.0,0.0,0.0
0.040432117078610164,0.30690654802801554,0.8493166324650295,0.002606553639553651,-0.527654452456468,-0.0013227692060693427,0.8494540805497472,0.03416877524760423,0.41071226727766846,-0.6774493215402451,0.020207198898984872,0.2647135442097961,-0.5783841348093702,0.05474747147450655,0.6471359609859175,0.9068099668426474,0.039602219664101435,0.7829844126677736,0.7329424866047944,0.0,0.0,0.0,0.0
0.039606843204222836,0.3092744123202902,0.8490956789866891,0.00253396976124652,-0.527752476764476,-0.0012215015911785031,0.8493935543669219,0.029065901549908825,0.4101144308119975,-0.678363798799902,0.023735656406132462,0.26229397587879033,-0.5811916934196282,0.06215642655073281,0.6424852461545574,0.9097273003220459,0.028186848667041173,0.7807536813548847,0.729416252178269,0.0,0.0,0.0,0.0
0.03855121366291217,0.31191128856769923,0.8486483867068139,0.0024197203100678744,-0.5278151304491981,-0.001091279812739542,0.8493551331044554,0.02339484727210736,0.4088574064547844,-0.6794668350768962,0.02702795452202832,0.2609041829782675,-0.5812288180041358,0.0680127891417314,0.6393701735815027,0.9086371895575068,0.0159327342655668,0.77688015945839,0.7274541695878259,0.0,0.0,0.0,0.0
0.03727208015111572,0.3148038219112888,0.8479756326371771,0.002267635874773964,-0.527848249855095,-0.0009355899391907106,0.8493351562392306,0.017187531723091596,0.4068961405986133,-0.6806189455096985,0.030130995315630432,0.26058869867128437,-0.5785543417460206,0.07232349780296285,0.6378564207592993,0.9035504915232946,0.002928487836131482,0.7714120470955339,0.7270409695240447,0.0,0.0,0.0,0.0
0.03576180455258495,0.3179257849805574,0.8471039553673553,0.002085450054602015,-0.5278546519214071,-0.0007606116289871938,0.8493318190277283,0.010503387701216688,0.4040446404984334,-0.6813504855717116,0.03310525568880168,0.2612022260890434,-0.5743707260662843,0.07549639832158066,0.6371950513731803,0.896207688956328,-0.01071136188460402,0.7644973131669102,0.7278922356229318,0.0,0.0,0.0,0.0
0.034007322118836905,0.3212326525379479,0.8460725960007633,0.001883045200136304,-0.5278407484272725,-0.0005749064372240514,0.8493410786739917,0.003444424073677873,0.4000314643135897,-0.6809689027393128,0.036041000565806225,0.26240323145843675,-0.5695600048453386,0.07800581482459214,0.6369659129283726,0.887607677509032,-0.024800748369453802,0.7563463939566861,0.7296409705314398,0.0,0.0,0.0,0.0
0.0319984255350534,0.32466039085164894,0.8449227350840552,0.0016711025554152126,-0.5278151743237368,-0.0003878561404732978,0.849357521151998,-0.003842369843051354,0.39457020691452144,-0.6787253704269307,0.03907072502440954,0.26397233111103635,-0.5647689328547756,0.08032074751486087,0.6369705086932206,0.8782225016089985,-0.03906809673624769,0.7471844571311027,0.7319699956566387,0.0,0.0,0.0,0.0
0.0297370377677883,0.3281248836042518,0.8436959313393405,0.001462626332252466,-0.5277910635050249,-0.0002113795416636755,0.8493729506683952,-0.011162203828934143,0.3874131329691423,-0.6738922414794863,0.0423519532350568,0.26595829535422083,-0.5605408983041412,0.08298510148304472,0.6371435411014618,0.8682066837384045,-0.05318613148450068,0.7372548758869988,0.7346497456353525,0.0,0.0,0.0,0.0
0.027248185124212638,0.33152123248428,0.842431902190562,0.0012758973808693192,-0.5277894891278035,-6.380751089433113e-05,0.8493742538955882,-0.01826779975989835,0.3784101793041462,-0.6658427313233639,0.046020445513673444,0.2687227722457565,-0.5574599915821259,0.08676110025288428,0.6375085318314556,0.8575163534908276,-0.06682377890276193,0.7268178751704176,0.7375847808128178,0.0,0.0,0.0,0.0
0.024592009998170843,0.3347229717258355,0.8411524873107595,0.0011372591466065937,-0.527827276115344,7.1944924478632355e-06,0.8493509717299023,-0.024816760567757248,0.367627196376294,-0.6543438219086343,0.05015502068024001,0.2729000807583741,-0.5564200743664546,0.09266923513429716,0.638132597849555,0.84597263428436,-0.07977929292990821,0.7160144605210335,0.7409384828215246,0.0,0.0,0.0,0.0
0.02183982259020636,0.33758265248286384,0.8398895048325442,0.0010741701468225395,-0.5279840645554463,-2.6275112889674637e-05,0.8492535976041693,-0.03046856819186175,0.3550182811654059,-0.6386311644629833,0.05507299822463402,0.2794891656541756,-0.5589343486596217,0.10253471300498075,0.6390706784635914,0.8333710933322416,-0.0917429154096444,0.7051673592318084,0.7451102035765836,0.0,0.0,0.0,0.0
0.019577475250450428,0.34009816854835245,0.8385695153982708,0.001122854993999005,-0.5282597765062591,-0.0001912939742507485,0.8490820402816415,-0.03523259678283323,0.3444491919091527,-0.6253529473985638,0.06027898480335373,0.28945956528214123,-0.5661138441893041,0.11780190771791185,0.6417523751241215,0.8193794648886432,-0.10332007783470397,0.6949166961788793,0.7509364566455381,0.0,0.0,0.0,0.0
0.018007909111899385,0.34204879184062065,0.8372894929327658,0.0012756650817439695,-0.5288758683336854,-0.0005078801158900126,0.8486980797849594,-0.038625819307594456,0.3365292488117613,-0.6139872429016697,0.06568851512237331,0.3043125473351831,-0.5820209090166134,0.1393471270140589,0.6467192792404386,0.8033816189757181,-0.11395792131088658,0.6863446819775523,0.7590163260389566,0.0,0.0,0.0,0.0
0.01737365720572433,0.34319102084300274,0.8362426415908141,0.0013956865270504913,-0.5299525279355033,-0.0008716174082547029,0.8480257133347912,-0.04024730372775769,0.33227975851284663,-0.6050914764466293,0.07062564481565234,0.32501375208941863,-0.6116679695066218,0.1629903297425976,0.6552538030243703,0.7848334819687024,-0.12184277265158977,0.681249711809682,0.7688489897514873,0.0,0.0,0.0,0.0
0.017256709595616704,0.34358731595100156,0.8361224079392884,0.001077554030612239,-0.5300459152936798,-0.0008754309458116815,0.8479678060978821,-0.04069489322172315,0.3320975779115484,-0.6051526880763165,0.07067698039820398,0.32505902794738767,-0.6116705796451299,0.16301703496268388,0.6552839834043557,0.7848394712950276,-0.12197655943557444,0.6811179733600847,0.7687953518247371,0.0,0.0,0.0,0.0
0.017256709595616704,0.34358731595100156,0.8361224079392884,0.001077554030612239,-0.5300459152936798,-0.0008754309458116815,0.8479678060978821,-0.04069489322172315,0.3320975779115484,-0.6051526880763165,0.07067698039820398,0.32505902794738767,-0.6116705796451299,0.16301703496268388,0.6552839834043557,0.7848394712950276,-0.12197655943557444,0.6811179733600847,0.7687953518247371,0.0,0.0,0.0,0.0
0.018126044027939485,0.34542153147513777,0.8367774057603652,0.0008946934942904069,-0.5297691294074734,-0.0008047228491123933,0.8481410386672343,-0.04445449665698905,0.3408033267779215,-0.6197165661450675,0.06705231896306499,0.3284760743573459,-0.6155604935057598,0.15643017440198553,0.6586654453587008,0.7840847614030054,-0.128793755002563,0.6870321511061988,0.754922519134743,0.0,0.0,0.0,0.0
0.02040959521253033,0.3490310149008872,0.8397647063955621,0.0005398024141639845,-0.530356707519227,-2.6240514216259372e-05,0.847774422068839,-0.05316812306922438,0.356615572286991,-0.634126502786967,0.05840875205364451,0.33436141135967795,-0.6084541821276362,0.14709323402328622,0.6764701383221138,0.7683573710218502,-0.14042315512735648,0.7122714308128691,0.7139040565802497,0.0,0.0,0.0,0.0
0.0219799005537989,0.3526645903064128,0.8419738350294225,0.00026846750604273445,-0.5290106529039394,-0.0003663861912819038,0.8486150616153975,-0.05057538777861735,0.3320280016164734,-0.5941289777050858,0.05210861514372308,0.340155591659485,-0.6154863428938384,0.1299412228887789,0.6877276105656797,0.7544949345179365,-0.12313258864018077,0.6900164855014889,0.7578570387386125,0.0,0.0,0.0,0.0
0.024143831336877624,0.3566626717866263,0.8435855000546308,3.9362050447620053e-05,-0.5281752958816325,-0.0004749313435066661,0.8491352246322125,-0.04683826485966774,0.31357398739422954,-0.5717767993900732,0.04453412352741727,0.34882407375872015,-0.6265590948703208,0.11296754845853586,0.6973825006297547,0.7488255285589617,-0.10412398870904944,0.6769842212954166,0.7881792732292854,0.0,0.0,0.0,0.0
0.026765533677010327,0.36078082306091563,0.8447087168736835,-0.00025400340651080195,-0.5277329398699083,-0.0003641305523378109,0.8494102348497303,-0.04255673894225965,0.300998747671231,-0.5609699215278434,0.036294339889171925,0.3596419026632503,-0.6405646098146178,0.097090770345278,0.7056275623615367,0.7493119993720755,-0.08912878453125533,0.6701639481809537,0.8094739635115957,0.0,0.0,0.0,0.0
0.029391435482232064,0.3648841999571318,0.845800729336914,-0.0005750548645892131,-0.5275544586563823,-0.0001423141941369241,0.8495210075156142,-0.038452000046602534,0.2930019806490612,-0.55722984879468,0.027800354132948596,0.36940717536256623,-0.6511850303846588,0.08165000003708525,0.7142515863294495,0.7503646755040276,-0.07907024281812572,0.6661193503565677,0.8257617534918057,0.0,0.0,0.0,0.0
0.03188047534892136,0.36886064296959076,0.8469463491059951,-0.0009004633370896749,-0.5275117010044144,0.00011727254082074254,0.8495472798593137,-0.03472407310696291,0.28794632147368926,-0.5574718492388414,0.01943027633719515,0.37769821219803873,-0.6582666998767934,0.06653978146472012,0.7234169462744051,0.7503538061702596,-0.0727127029964547,0.663549640226628,0.8391594988174076,0.0,0.0,0.0,0.0
0.03414102672505703,0.3726479386816493,0.8481114042403594,-0.0012064158927048458,-0.5275205054044941,0.00037522192686417126,0.8495413587030278,-0.03134870158069039,0.2845468497053316,-0.5600318589197595,0.011391843869866377,0.384373010373498,-0.6622994089076243,0.051730626878582986,0.732659977045262,0.7492618306327372,-0.06855047613694439,0.6617931098153957,0.8508419189855565,0.0,0.0,0.0,0.0
0.0361235462992677,0.376202970264892,0.849244426838639,-0.0014784703636759567,-0.5275366494626749,0.0006106513827916254,0.8495307673674729,-0.028160927816821855,0.28192384023954364,-0.5639316602279425,0.003819808035235946,0.3894351767009998,-0.6638264181437268,0.037313273240986315,0.7415087675021976,0.7474668137772735,-0.06538788620666147,0.6605018565494953,0.8614680233097423,0.0,0.0,0.0,0.0
0.03780799104239378,0.3794936048486158,0.8503025523387686,-0.0017095373354316281,-0.5275399100127491,0.000814193380345975,0.8495281383891758,-0.024957978561486148,0.27956033406842096,-0.5685433151539244,-0.003194828910801829,0.3929791413017548,-0.663347537083542,0.023451268767112197,0.7496108901273011,0.7453718179773264,-0.06243302739083157,0.659477844190492,0.8713935972174277,0.0,0.0,0.0,0.0
0.03919181502750036,0.38249735131203644,0.8512527648731307,-0.0018972729190809257,-0.5275226760010849,0.0009829431782860758,0.8495382631069852,-0.021568418733097332,0.2772532449210887,-0.5733850912973993,-0.009593275551916997,0.39514412017188383,-0.6613067970243358,0.010327074270184321,0.7567154867190926,0.743341306686676,-0.059194662038576464,0.6586254377168493,0.8807386566663422,0.0,0.0,0.0,0.0
0.04028013616490469,0.38520151959645094,0.8520664454705038,-0.0020417976101104298,-0.5274829183713695,0.001117055998528907,0.8495624486021252,-0.017887567549054306,0.2750760731923668,-0.5779748669872313,-0.015343841763898927,0.39607555616855267,-0.658094066636996,-0.0019010998290653214,0.7626213279752291,0.7417325371506822,-0.055335769900952264,0.657954149345805,0.8893687032246828,0.0,0.0,0.0,0.0
0.04107816862277607,0.3876034419453164,0.8527140226417198,-0.002144105239328784,-0.5274204920001302,0.0012176955178696777,0.8496008148823123,-0.013885859943510898,0.2733251209533344,-0.5817037535377005,-0.020439204145496596,0.3958924898511386,-0.6540368036083811,-0.013127237528070806,0.7671303728809393,0.7409395187923142,-0.05054759271194591,0.657616758850775,0.8967970388745505,0.0,0.0,0.0,0.0
0.041585553281281405,0.3897104615030185,0.8531640433131874,-0.002205260947705861,-0.5273355730956103,0.0012861824283440157,0.8496532680492895,-0.009592952991746641,0.272382017724872,-0.5837167752480037,-0.024894703148937658,0.394656061048232,-0.649362954834267,-0.023309621009859546,0.7700299221957572,0.7413952125888171,-0.044486066598852646,0.6579937630327817,0.9019928240870139,0.0,0.0,0.0,0.0
0.041792252567009365,0.39153909289628697,0.8533930855434873,-0.0022269230733330996,-0.5272291293677359,0.00132537350780105,0.8497192061762694,-0.005055379476094367,0.2724075088951784,-0.5828444777432192,-0.02874750140226283,0.3923282638629539,-0.6440902509611298,-0.03245501112045952,0.7711374237222082,0.7434562499906395,-0.03684913291110728,0.6597996444640288,0.9031788036871775,0.0,0.0,0.0,0.0
0.04167448292039681,0.3931111187698379,0.8533995043418151,-0.0022074681159632843,-0.5270959151196108,0.0013346273915039657,0.8498018840403114,-0.00029316038298670636,0.27337596196587644,-0.5790937523413023,-0.032041149267546004,0.38874809312513237,-0.6379809066741609,-0.040640249330533784,0.770364956986254,0.7472162522653935,-0.02773793860285107,0.6629404998057757,0.900313819958679,0.0,0.0,0.0,0.0
0.041196778754723155,0.3944528990359025,0.8532032416677989,-0.002143192133826385,-0.5269232844942299,0.0013119921489170914,0.8499091349443725,0.0047184909036518405,0.27507275714751067,-0.5736575396606203,-0.03482671175139126,0.38364189200866733,-0.6305595822547321,-0.047981434793986644,0.7677133893519388,0.7524971347714465,-0.017600986889687312,0.666524700487129,0.895113593128868,0.0,0.0,0.0,0.0
0.040319728032291405,0.3955981432727346,0.8528314619554391,-0.0020270816329673873,-0.5266979654314972,0.0012537879666185147,0.8500491586761965,0.0100501929666235,0.2770581291142213,-0.5674156556734977,-0.03716942632723446,0.3766652966684789,-0.6212012624967619,-0.05465696767922785,0.7632243102550854,0.759036406149885,-0.0068767064726384,0.6699837761723361,0.8885894955100238,0.0,0.0,0.0,0.0
0.03900801536119936,0.39658504138007233,0.8523074075082298,-0.0018490847702863809,-0.5264045974574257,0.0011548350351402938,0.8502314079221253,0.015795299781837958,0.2789569764639352,-0.5609855158225173,-0.03914406133060229,0.36747098386793364,-0.6092909465397492,-0.06089138469457626,0.7569337103150804,0.7665952214449757,0.004142120275849722,0.67295377105204,0.8812688073383458,0.0,0.0,0.0,0.0
0.037242670633436226,0.3974518902708076,0.8516494649399394,-0.0015975006627663513,-0.5260290738522585,0.001008788674362404,0.850464487088778,0.022048076962269902,0.2805849513289426,-0.5548055588170492,-0.04082591317716087,0.35578249242355553,-0.5943292850679055,-0.06692552176749456,0.7489018862302513,0.77496385024689,0.01532365177910802,0.6752045206002268,0.873423230986293,0.0,0.0,0.0,0.0
0.035040438418892414,0.3982300379522049,0.8508728281069409,-0.0012633816474469871,-0.5255658246580616,0.0008106011807374668,0.8507516151874355,0.028864059379207344,0.28198504944960445,-0.5491842678534185,-0.04227747079846906,0.34151178286683165,-0.5760792294405214,-0.07295010680232804,0.7392758679620429,0.7839462978349209,0.02674232812745555,0.676680872402353,0.8652418563883324,0.0,0.0,0.0,0.0
0.03248462436562354,0.3989320447147491,0.8499848286781619,-0.0008500561848058433,-0.5250305124617053,0.0005621748800673256,0.8510827940618269,0.036196057234048784,0.28341917170287784,-0.5442762438841254,-0.043527395366515384,0.32497890304631816,-0.5548822968795807,-0.07898689239394091,0.7283450981343501,0.7934266641179587,0.03885904388612116,0.6777049082632477,0.8569803355459762,0.0,0.0,0.0,0.0
0.02977268316658714,0.39953096419820433,0.8489553482159679,-0.00037882705804488583,-0.5244438454845404,0.0002701254324373183,0.8514449109928948,0.04387544735253138,0.2851822188141583,-0.5398918418542411,-0.04452479777553421,0.30746289781534875,-0.5328255360734633,-0.08480124854414747,0.7164539721258819,0.8036007342376236,0.05285214717908183,0.679246888623746,0.8490615775625331,0.0,0.0,0.0,0.0
0.02734358717689935,0.3999054472869971,0.8477357714034877,8.051256124446994e-05,-0.5237987568265521,-3.640304189615784e-05,0.8518420361425613,0.051846709466069965,0.28708691645094436,-0.5347848888667078,-0.04504487488550559,0.292557938614674,-0.5161978250209533,-0.08943327187895875,0.704256861217622,0.814578566665547,0.07114115066477994,0.683213324974325,0.8419144816135639,0.0,0.0,0.0,0.0
0.025391804127522788,0.4000805997686536,0.8465553581188514,0.000443808550599961,-0.5232193039728379,-0.0002854506746376964,0.8521979121671572,0.05901787360981425,0.2888538450442039,-0.5294252473433135,-0.04519938739423539,0.2811650564483265,-0.5049058001762731,-0.0923991686709652,0.6934399279908832,0.8245696431410208,0.0935065490197031,0.6893072402787166,0.8360920378905151,0.0,0.0,0.0,0.0
0.024176844075308856,0.40007486362000644,0.8457305200544466,0.0005774583846982204,-0.5227731776299636,-0.0003740508692516794,0.8524715428554971,0.06384913952531267,0.2892501623639907,-0.5243978882695661,-0.04510438573247105,0.27454850199767844,-0.49930341523151905,-0.09276297160437945,0.6859937865370465,0.83088206935062,0.1153726224941647,0.6954837640553356,0.8320673556437796,0.0,0.0,0.0,0.0
0.02413149086267402,0.3999959244319769,0.8456925378121348,0.0006641086402976422,-0.5227666957712798,-0.0003733111710548583,0.8524754550078621,0.06389509852414982,0.28928896857047137,-0.5243960516053757,-0.04503523626576841,0.27439416845557196,-0.4992939474276598,-0.09277238104589847,0.6858503050869318,0.8308181690817985,0.11537639644702617,0.6955310218240085,0.832083220820154,0.0,0.0,0.0,0.0
0.024131490862671905,0.3999959244319779,0.8456925378121366,0.0006641086402906554,-0.5227666957712832,-0.0003733111710561061,0.85247545500786,0.06389509852415164,0.2892889685704712,-0.5243960516053823,-0.04503523626576991,0.2743941684556519,-0.49929394742779326,-0.09277238104588231,0.6858503050869619,0.830818169081842,0.1153763964470193,0.6955310218240176,0.8320832208201581,0.0,0.0,0.0,0.0
0.024131490862671905,0.3999959244319779,0.8456925378121366,0.0006641086402906554,-0.5227666957712832,-0.0003733111710561061,0.85247545500786,0.06389509852415164,0.2892889685704712,-0.5243960516053823,-0.04503523626576991,0.2743941684556519,-0.49929394742779326,-0.09277238104588231,0.6858503050869619,0.830818169081842,0.1153763964470193,0.6955310218240176,0.8320832208201581,0.0,0.0,0.0,0.0
0.02542976483031867,0.4001863083776016,0.8464787226865661,0.00073605431186729,-0.5234819615747668,-0.00042796757168618176,0.8520363319563562,0.0635798307903598,0.2959270282776595,-0.5288743807754532,-0.0454196934984802,0.28024665488333883,-0.5025193031447027,-0.09522902902583052,0.6943174600616951,0.8259683063978563,0.11492461734169969,0.703845585158355,0.8263302494467978,0.0,0.0,0.0,0.0
0.027766604539733022,0.4006815254712502,0.8478849219311023,0.0007632185141938559,-0.5247738005680266,-0.00028521270287856044,0.851241325587875,0.06231593259317891,0.3083025611383395,-0.5382210058727729,-0.04680675109858215,0.29033936301209173,-0.5070541206320937,-0.09878628805575863,0.709167940074898,0.8174596468031325,0.1151378189839092,0.7193224666758564,0.8155957650814315,0.0,0.0,0.0,0.0
0.03010601499777213,0.40117048062832295,0.8487821921813156,0.001116660164206896,-0.5251030746688115,-0.0006277869825857664,0.8510376724487246,0.061821897086234937,0.32386024543741543,-0.5587773634043348,-0.04075355538854213,0.29134068133555635,-0.5144508364662018,-0.07596137847227079,0.6996341030005686,0.8285149299677773,0.11024797802797437,0.7292676887725338,0.8061331025272638,0.0,0.0,0.0,0.0
0.032717359429397797,0.4018314883945057,0.8495350480315308,0.0015088777334287282,-0.5253648765506324,-0.0009833225740557786,0.8508751394015691,0.06099443944555194,0.34162496825065625,-0.5838069485510815,-0.03233193546281614,0.2898411453242881,-0.5219379448312103,-0.05172489045219406,0.6906032602184091,0.8381332702056343,0.10413431485551769,0.738969975741971,0.7972437734796252,0.0,0.0,0.0,0.0
0.035305607727167516,0.40268348646157853,0.850151694579711,0.0018072417451801908,-0.5255745848367898,-0.0011783224274542195,0.8507447920540963,0.05954654104942043,0.35940771381430336,-0.6098562945184874,-0.023553666930102933,0.2875374208188834,-0.5290940887859334,-0.031628018617801554,0.6840145666750053,0.8471101026787426,0.09821177225657192,0.7482044174885655,0.7889175815419158,0.0,0.0,0.0,0.0
0.03760504379391781,0.40365148087905944,0.8507400325240808,0.0020512432867721498,-0.5258661015576086,-0.0012984418620365086,0.8505639009988093,0.0577130644058034,0.37474707215265873,-0.6315137282902404,-0.015270421781437133,0.2852566543249326,-0.5359103556039482,-0.015563079479591319,0.6792745204709659,0.85589472416758,0.0921979240731189,0.7570459819900881,0.7807054853963263,0.0,0.0,0.0,0.0
0.039470035963120174,0.40470690416987687,0.8513067751698767,0.002248958864065259,-0.526197816287921,-0.0013738103395979952,0.8503581086595234,0.05559513315236632,0.3870734492054788,-0.6480926634825919,-0.007871055245345163,0.2829941339757916,-0.5425342496962697,-0.0021223797913394755,0.6752256076373024,0.8644499691261851,0.0859542204399492,0.765018969240752,0.772544790348609,0.0,0.0,0.0,0.0
0.04084608644576659,0.40585500577131256,0.8518328280390453,0.0024060553299480782,-0.5265296089965159,-0.00142091312458007,0.8501521997581478,0.0532128718055106,0.3964206381276523,-0.660011424554797,-0.001386501723467032,0.28057078724652973,-0.5490454627779516,0.009797813452994214,0.671147380488057,0.8726961289735714,0.0793170654341395,0.7717486308917707,0.7645753814298267,0.0,0.0,0.0,0.0
0.04173787512173594,0.4071220280294992,0.852296800501659,0.0025255522431742883,-0.52683704056676,-0.0014461981000678118,0.8499613301696616,0.050530755628245834,0.4030884750000436,-0.6680379751351188,0.0043086012562777555,0.2778239188089075,-0.5554579131190235,0.02084830964265441,0.6667029160620419,0.8805975286070474,0.07212912777405796,0.7770481768657677,0.7569420177399047,0.0,0.0,0.0,0.0
0.04218305501094563,0.40854420585521967,0.852678055802868,0.0026084111418532324,-0.52710749868226,-0.0014502395581846173,0.8497933736088262,0.047484671855164445,0.40749101014348893,-0.6730432260362896,0.009371079627265376,0.27468240974723324,-0.5617218496382361,0.03133474129487401,0.6618054742370861,0.8881257155050089,0.06425104330848161,0.780863264573003,0.7497620901229013,0.0,0.0,0.0,0.0
0.04223366510167778,0.4101597465747435,0.8529541467003339,0.0026544154458324042,-0.5273353389838643,-0.001431204004172623,0.8496518969510468,0.044003075133332056,0.4100719330976312,-0.6758994388322734,0.01393257791312717,0.2712148006385848,-0.567708294759804,0.04133354635937632,0.6565234298574302,0.895192490871943,0.0555668370903835,0.7831963682039379,0.7431584577465908,0.0,0.0,0.0,0.0
0.041944025908017914,0.41200321616505775,0.8530978594602387,0.0026626455363860583,-0.5275184560355034,-0.001386790081817045,0.8495382661622343,0.04002119213607822,0.41125343502039136,-0.6774299021594504,0.018087316648893972,0.26766217784001384,-0.573166687141904,0.05075509900121196,0.6510415829744041,0.90155838718989,0.045992554253113584,0.7840466939426666,0.737303573394514,0.0,0.0,0.0,0.0
0.04136311502713642,0.4141011637336967,0.8530760235185955,0.002631507659974283,-0.5276566562315291,-0.0013148315690494083,0.8494526470145011,0.03549055068944436,0.4113996083882052,-0.6783660541145026,0.02190249459207125,0.26443170438807323,-0.5776550836183125,0.0593595668014422,0.6456818726593908,0.9066952277509095,0.0354910776644364,0.7833760128626395,0.7324490290213215,0.0,0.0,0.0,0.0
0.040529536334923885,0.4164680734022904,0.8528528711638048,0.0025589710792554717,-0.5277520336198114,-0.0012134336005690655,0.8493937663157566,0.030386528713861945,0.4107790497472294,-0.6792728470237773,0.025433023726054313,0.2619910594256176,-0.5804488521534805,0.06677542210152272,0.6409890092376633,0.9095733960220638,0.024087033484894247,0.7811115277961824,0.7289086621211872,0.0,0.0,0.0,0.0
0.0394678044840442,0.41910315969179956,0.8524036489489083,0.002444924851021734,-0.5278121771766296,-0.0010832061948104208,0.8493569065068456,0.024715968729816167,0.40951324059182936,-0.6803894787730423,0.02872562341789419,0.2605822111413444,-0.5804756237150068,0.07262896710908356,0.6378430621328881,0.9084507836333403,0.01185272144386498,0.7772118190054506,0.7269294607249656,0.0,0.0,0.0,0.0
0.03818467655947079,0.4219930520836537,0.8517292193780343,0.0022932226330586603,-0.5278429284953452,-0.0009276250120110764,0.8493384033936356,0.018510699042840306,0.40755657507921383,-0.68157568175219,0.03182730382961841,0.26024958399638,-0.5777936134521656,0.07692702554037487,0.6363101162930358,0.9033386785624962,-0.0011240009014695466,0.7717245448934912,0.7264968059070402,0.0,0.0,0.0,0.0
0.03667242577877945,0.4251115317069971,0.8508560704788807,0.0021116772000209392,-0.5278471031091719,-0.0007528665109968622,0.8493364526209121,0.01182989805943209,0.4047227562701958,-0.6823616086284334,0.03479912152985333,0.260847411891667,-0.5736031003926683,0.08008124269954416,0.6356398356095068,0.8959754050335575,-0.014729326321416726,0.764796834323039,0.7273276659400963,0.0,0.0,0.0,0.0
0.03491785712895932,0.4284140384976791,0.8498233864148711,0.001910273532275314,-0.5278310480010663,-0.0005674529539060649,0.8493470513390112,0.004775278244115724,0.4007399313837141,-0.6820547352997859,0.037732424292547424,0.26203314100270614,-0.5687823665658236,0.08256963218227623,0.6354105148657043,0.8873577181028318,-0.028777666440160332,0.7566379595038979,0.7290568191790365,0.0,0.0,0.0,0.0
0.032910587740173566,0.43183649066574964,0.8486722579498422,0.0016998166658080832,-0.5278032497778067,-0.0003806889939326829,0.8493648775545046,-0.002506528252769408,0.3953212634041567,-0.6799068508358287,0.04076103047577783,0.26358529902485184,-0.5639727349031604,0.08486491731585623,0.6354224108621179,0.8779556514253454,-0.042997993167847255,0.7474714186689848,0.7313693497190519,0.0,0.0,0.0,0.0
0.030652271090535064,0.4352947518945034,0.8474440963035086,0.0014934974816374813,-0.5277765608075539,-0.00020440096748986538,0.8493819103016423,-0.00982120638121944,0.38821844941038985,-0.6751916080940797,0.04404377404628399,0.2655483433863382,-0.5597097718813361,0.08751689528081501,0.6356082286589123,0.867921381761867,-0.057064345570536426,0.7375379957098611,0.7340382404890006,0.0,0.0,0.0,0.0
0.028167442155328896,0.43868396501622753,0.8461784397916505,0.0013099233961082531,-0.5277715847798508,-5.684819929092042e-05,0.8493853278506425,-0.016922111224126013,0.37927998393416623,-0.6672830214574987,0.04771744657209579,0.2682756178419203,-0.5565661272697646,0.09129933525586939,0.635986221004177,0.8572076483718267,-0.070648498385168,0.7270940777813807,0.7369700129807755,0.0,0.0,0.0,0.0
0.025515286133533818,0.44187775977002597,0.8448970955060163,0.001176028817901557,-0.5278046495683106,1.4404185808438647e-05,0.8493649796423276,-0.02346773961767264,0.3685668084094156,-0.6559422035601866,0.05186125836993855,0.27238738906763016,-0.555418373613208,0.097254469021826,0.6366118084664136,0.8456305730636754,-0.08355293237850216,0.7162763922464481,0.7403277099371495,0.0,0.0,0.0,0.0
0.022765805949311026,0.4447288192603938,0.8436319311153863,0.0011203110881872651,-0.5279554999531184,-1.868568070932787e-05,0.8492712962435288,-0.029118488074494735,0.356024763964698,-0.6403895005790882,0.05678921379051827,0.2788620713754516,-0.5577517944992161,0.10723746610087162,0.6375231742815098,0.8329784680743544,-0.09547727229685418,0.7054034106346504,0.7445106702031644,0.0,0.0,0.0,0.0
