zhuoxili-jackie/tripod-support-walk/examples/pcbA样数据/trajectory_trotting_acc_f03.csv
root_pos_x,root_pos_y,root_pos_z,root_rot_x,root_rot_y,root_rot_z,root_rot_w,FL_hip_joint,FL_thigh_joint,FL_calf_joint,FR_hip_joint,FR_thigh_joint,FR_calf_joint,RL_hip_joint,RL_thigh_joint,RL_calf_joint,RR_hip_joint,RR_thigh_joint,RR_calf_joint,FL_foot_joint,FR_foot_joint,RL_foot_joint,RR_foot_joint
0.01,0.0,0.8259446621,0.0,-0.523845373591082,0.0,0.8518133742594206,0.0,0.27,-0.52,0.0,0.27,-0.52,0.0,0.6572093368,0.8119390607,0.0,0.6572093368,0.8119390607,0.0,0.0,0.0,0.0
0.011628924772549003,-0.0009480196451768383,0.8269063752380904,8.50715586595352e-05,-0.5246497054115403,2.702612513818965e-05,0.8513182005830736,0.0017769425143824976,0.27646436534424895,-0.5225981772530498,0.001776942514382499,0.28056097875626457,-0.5306780690016949,0.003915557999841293,0.6672845262139029,0.8030030688042645,0.003915557999841297,0.6665864288697976,0.808316403826481,0.0,0.0,0.0,0.0
0.01478648199183761,-0.0029767420448570297,0.8296021492934423,0.0003625581414111348,-0.5262827185848938,-0.0005478275105108645,0.8503093957822095,0.0068000350840095826,0.28669513090496634,-0.5189530361493953,0.006806533615540003,0.29949956672631367,-0.5459282006227703,0.009162656345428401,0.6924690909544545,0.7770803546743067,0.00919776050700254,0.6884010934988175,0.7929062625513098,0.0,0.0,0.0,0.0
0.01778694224907787,-0.005165515200300489,0.8311849330743919,0.0006271447105140123,-0.5262540982361127,-0.00042140628164897203,0.8503270272053887,0.010713047186622627,0.30219711619492545,-0.5383347987258443,0.004782824059800882,0.2946323756558949,-0.539431615750814,0.0055138550947573094,0.6834492919815308,0.8016112250328653,0.018720096222238823,0.7022833810495341,0.7829338266829593,0.0,0.0,0.0,0.0
0.021214694145985126,-0.007553911565979129,0.832273890050788,0.0008551308352554413,-0.5262110296886818,-0.00043931223736914514,0.8503534723807447,0.015430027010211287,0.3207946222435391,-0.5645266985163072,0.0012705791747225728,0.2890992779465033,-0.5380125966333982,-0.0008257506969623317,0.6778148438662834,0.8206199959005458,0.029037201581322357,0.7143997171387491,0.7780456375811775,0.0,0.0,0.0,0.0
0.02497609035819301,-0.00996276594861522,0.8330851758313889,0.001060179378963091,-0.5261016521139589,-0.0005491520692256331,0.8504208523399766,0.020478513312554382,0.34144077352504876,-0.5951517558230142,-0.0031751215155300648,0.2847408872281853,-0.5395255410141211,-0.007492663216155431,0.675520572524054,0.8360962476108009,0.03954942007497028,0.7257362372973596,0.7754207156544598,0.0,0.0,0.0,0.0
0.028544201724206932,-0.012462444451052676,0.8339231648385848,0.001303884129318335,-0.5261406684648268,-0.0007313162715592995,0.8503962382619489,0.025875160244112037,0.3589452677730566,-0.6189840103914485,-0.0072653346537905564,0.28189240154429396,-0.542802621813107,-0.012958517944392234,0.6748078450730014,0.8496251662901027,0.05034216070818709,0.737206943264042,0.7727975914051973,0.0,0.0,0.0,0.0
0.0317353283047284,-0.015022472715905974,0.8348445045289049,0.0015685876586820167,-0.5262688607375436,-0.0009467005729608044,0.850316252642974,0.03146868986946598,0.37285946355828686,-0.6356811487126627,-0.010770357662716416,0.2799790117664867,-0.5471439209527401,-0.017077265621976777,0.6745384980762655,0.8618417792432116,0.061493653086580724,0.7486496531771619,0.7693640884709059,0.0,0.0,0.0,0.0
0.034473417397995344,-0.017597170303135005,0.8358081601826557,0.0018284183764467074,-0.5264154720871346,-0.0011654019980764723,0.8502247052819053,0.037110323825766046,0.3834116014907661,-0.6464075415156284,-0.013790117396009948,0.27840132462651457,-0.5521668389471702,-0.020177434338797345,0.6741783420102087,0.8730841543986598,0.07298059350786038,0.7595458894121362,0.7652960681988359,0.0,0.0,0.0,0.0
0.036750028089486714,-0.02013332119469446,0.836761712319948,0.00206723064424629,-0.5265409208540104,-0.0013702421941805525,0.8501461684087057,0.04265800912147594,0.3910076187649601,-0.652407248588337,-0.01652577039524957,0.2767629887620008,-0.5575956343877652,-0.022692317255299407,0.6735802270428103,0.8835714512303731,0.08461869357039808,0.7694909317664923,0.7609847083863425,0.0,0.0,0.0,0.0
0.038594402201393534,-0.02257924778651917,0.8376626664943226,0.0022765458834727095,-0.5266279652099174,-0.0015526042182993328,0.850091402743166,0.04798768807983103,0.3961158593389093,-0.6548056169996239,-0.019173198997830793,0.27488525708638056,-0.5631971873233071,-0.024988688992116495,0.6727588439293061,0.8934342509851321,0.09614653637203377,0.7782491653081575,0.7567840381889491,0.0,0.0,0.0,0.0
0.04005270205216889,-0.024891261466418527,0.8384781099637256,0.002452499765932825,-0.5266714431969337,-0.0017086380894431876,0.850063678039261,0.05300126034532823,0.3992075641569282,-0.6545904950580118,-0.021875303125195013,0.2727940821756194,-0.5687231196863526,-0.0273508495815848,0.6717977211735208,0.9026773974769615,0.10730233974999873,0.7856995872186423,0.7529905830540701,0.0,0.0,0.0,0.0
0.0411743822711611,-0.02703687980267869,0.8391790380802593,0.0025935501161785494,-0.5266714529105988,-0.001836785287353281,0.8500629861408164,0.05762986172489922,0.40071813437521414,-0.6526227978638378,-0.02470578068629693,0.27071339978115944,-0.5738403888094264,-0.03002804241678363,0.6708358496378394,0.9111038068632124,0.11787304378788405,0.7917668997102496,0.7498913435483261,0.0,0.0,0.0,0.0
0.042003483570633285,-0.02899581784527208,0.8397354093650294,0.0026989962988723704,-0.5266296884300502,-0.001936299384813479,0.8500883115463588,0.06183353195660534,0.40101933626747555,-0.6496398875220396,-0.027671726883834572,0.2690371745402622,-0.5780442624200953,-0.033289443623271596,0.6701072636241169,0.9181840243071993,0.12771878574965156,0.7963690498130226,0.747811496624065,0.0,0.0,0.0,0.0
0.04257315509959,-0.030759987449954326,0.8401159559426151,0.002768390365841387,-0.5265484734646813,-0.002006667569843662,0.8501382325199005,0.06559922082317506,0.40039201068624153,-0.6462221360285373,-0.030732984447294224,0.26821315126546535,-0.5805567434588053,-0.037442922501768436,0.6700382966957965,0.9228453745099153,0.13677799990671796,0.7994008400156805,0.7471153115211076,0.0,0.0,0.0,0.0
0.04290238177879481,-0.032333096258630754,0.8402993240201406,0.0028027649996257347,-0.526433524059756,-0.0020493358687165434,0.8502092033593146,0.06893944384292905,0.398982377797972,-0.6426614658245273,-0.03384192626492036,0.26845420368620365,-0.5802586224418287,-0.042751073453638384,0.6713813478533545,0.9232697816247388,0.14504303897750948,0.8007882230355846,0.7480896176175298,0.0,0.0,0.0,0.0
0.04299241056950309,-0.03372875079433879,0.8402892940393275,0.0028034415007251313,-0.5262876397509475,-0.0020653738496796067,0.850299473827892,0.07188262041299437,0.3967714941770527,-0.6388887822492304,-0.03697794902891781,0.26977811782127553,-0.5771692467630986,-0.04917048324628904,0.6741027849845991,0.9194533525450072,0.15254844517703472,0.8005508136448221,0.7507489121132624,0.0,0.0,0.0,0.0
0.04282931903046968,-0.034969008709209146,0.8401145300310349,0.0027712293334587112,-0.5261097389496473,-0.0020550517803200516,0.8504096892865788,0.07446950483922841,0.3935915386358491,-0.6345072441418073,-0.040165551689998476,0.2720179253339571,-0.572459566199528,-0.05638105309497487,0.6773944500597662,0.9132153617688461,0.15936095260570812,0.7988033055842043,0.7548290290841873,0.0,0.0,0.0,0.0
0.0423918199347141,-0.03608213360304737,0.8398123852918531,0.002706175692458634,-0.5259000471659204,-0.002019392631760802,0.8505396751812363,0.07675328641654135,0.3891867733041738,-0.6289267021042585,-0.04347562299307436,0.27479693330811744,-0.5669788002345977,-0.06408270114932617,0.6807920936234608,0.9056585116550736,0.1655732896045604,0.7956945208343644,0.7599775983810179,0.0,0.0,0.0,0.0
0.04165806099472774,-0.037098352748122544,0.839416305286416,0.002605524613895507,-0.525657700464926,-0.001957764632826052,0.8506899319617313,0.07879057468604926,0.3832874173535807,-0.6215526029478443,-0.04701269730547338,0.2778306442678926,-0.5613230974612285,-0.07212945920877398,0.6840541080698003,0.8973883957883384,0.17131383074108664,0.7913543024310581,0.7658779208431528,0.0,0.0,0.0,0.0
0.040615051359615184,-0.038045260614885855,0.8389541834415352,0.0024630462899894543,-0.5253820096510662,-0.0018668538098825709,0.8508608536034743,0.08063224373563115,0.3756764619130269,-0.6118988796325336,-0.05090810581639085,0.28105433150293097,-0.5559454018043162,-0.08061656054011622,0.6870984972733221,0.8887510069099782,0.17674157449654088,0.7859132883365897,0.7722591158349453,0.0,0.0,0.0,0.0
0.039272893126997215,-0.03894186188968316,0.8384509550087409,0.002267988550552962,-0.5250755644299397,-0.001738707516671232,0.8510508120921372,0.08231019094933192,0.36628361737533477,-0.599724269831117,-0.0553062825275024,0.28465388567958455,-0.551258448549687,-0.09002741575269206,0.6900343988739527,0.8800105037924064,0.18204721313361458,0.7795636858227094,0.7788619047477747,0.0,0.0,0.0,0.0
0.03768667837135605,-0.0397892971833307,0.8379307818629718,0.0020032371018445898,-0.5247490912647518,-0.0015572826171619074,0.8512531662958919,0.08381629508233905,0.3553472292390568,-0.585284841079362,-0.06033070509103171,0.2890571510067182,-0.5477319471508463,-0.10150826673447608,0.693293305880814,0.871503039489576,0.18746082444487633,0.7726420450153187,0.785410889558815,0.0,0.0,0.0,0.0
0.0359888589363386,-0.040556028628585226,0.8374114053965083,0.001643484584988486,-0.5244237972617017,-0.0012933093350775552,0.851454818046736,0.08506966502637393,0.34371172464359173,-0.5698744568413703,-0.06602863803750456,0.29487817514199766,-0.5459776952134595,-0.11725972481056696,0.6978531285015958,0.8637638304004521,0.19325173984220417,0.765689549765549,0.7916582519918733,0.0,0.0,0.0,0.0
0.03443143360548834,-0.04115100445613295,0.8368701326861159,0.0011362341577438038,-0.5240439950625073,-0.0008821746628264992,0.8516899799684917,0.08585953420202438,0.3336062289156166,-0.5578212234823365,-0.07241059573191219,0.3025484134864743,-0.5468366139892956,-0.1405811769913541,0.7050780157072412,0.8574932325684432,0.1997290803234281,0.7591977029286568,0.797421240589114,0.0,0.0,0.0,0.0
0.03334061586122011,-0.04148826296515198,0.8364475816509463,0.00050509250366067,-0.5237215696285965,-0.0003301201844630398,0.8518892847125064,0.08602436202045861,0.32716653543408275,-0.5516693168736952,-0.07887266716359287,0.31271961090036576,-0.5521577069253065,-0.17311885698047527,0.7157594173777703,0.8536649404104045,0.20670106586670425,0.7549079095081825,0.80141164527782,0.0,0.0,0.0,0.0
0.03288663694819043,-0.041601951103679244,0.8363233043136711,-0.00010865380452496174,-0.5236194426465242,0.0002470394263158844,0.8519522324921838,0.08570816661783087,0.3247452402379399,-0.5501535502855799,-0.08347378098741598,0.3255183336581388,-0.5657044338874335,-0.2071435721189774,0.7273027263046828,0.8527657603092207,0.2133447065400186,0.7542364273678959,0.8024739435301368,0.0,0.0,0.0,0.0
0.03286854683259117,-0.04158869900678679,0.8363129398535819,-0.00014144507357306515,-0.5236089722337626,0.00024989582726815814,0.8519586619911024,0.08570718697189632,0.3246729918345303,-0.5501536046927304,-0.0835094079269731,0.3255577468643624,-0.5657003026851564,-0.2071571898042034,0.7273359119717385,0.8527774544085899,0.21337581714378037,0.7541464912201163,0.8024387439276987,0.0,0.0,0.0,0.0
0.03286854683259117,-0.04158869900678679,0.8363129398535819,-0.00014144507357306515,-0.5236089722337626,0.00024989582726815814,0.8519586619911024,0.08570718697189632,0.3246729918345303,-0.5501536046927304,-0.0835094079269731,0.3255577468643624,-0.5657003026851564,-0.2071571898042034,0.7273359119717385,0.8527774544085899,0.21337581714378037,0.7541464912201163,0.8024387439276987,0.0,0.0,0.0,0.0
0.0336242147988972,-0.04200309573831709,0.8365409903238304,-4.163641599916839e-05,-0.5240973839673736,6.800266288381796e-05,0.8516583386315207,0.0868519576049936,0.3270689852348726,-0.5500974939845402,-0.08244214748991163,0.3303686893060547,-0.5710819329327655,-0.20812348198676278,0.7318940187211679,0.8512056734768549,0.21555776084859704,0.7580379439948783,0.8022857926898764,0.0,0.0,0.0,0.0
0.035148637552932446,-0.04281840545149304,0.8371395280465261,0.00028568518978248393,-0.52541969156766,-0.0008942927715086379,0.8508426801338519,0.09014084854433815,0.33052700968175447,-0.5443048009249419,-0.07920043377966017,0.3389905507744068,-0.5788848520453103,-0.2149476388175414,0.7436456784183145,0.847828872832077,0.21647287572031437,0.7665991022672886,0.8014413514200779,0.0,0.0,0.0,0.0
0.0362974155015109,-0.04397051558064226,0.8381026728295347,-0.0005936625470932342,-0.524906284763807,0.00025147041107230787,0.8511597832034064,0.08073226464071354,0.32012733321566567,-0.5367226439006948,-0.07837991799693486,0.3486692352157562,-0.5918030054524435,-0.1966359400580648,0.7472695590543139,0.8344001209999886,0.17743303028077995,0.7437283867133974,0.8186465784298814,0.0,0.0,0.0,0.0
0.03750124193502798,-0.04521826219856254,0.8388983013391282,-0.001414520013783341,-0.5248580589269279,0.0011517965452496571,0.8511878115182961,0.06703031401103365,0.31130174170709995,-0.535265743213096,-0.07687100136175748,0.3578573471873457,-0.6026179213795204,-0.1806914465493734,0.7519591649407981,0.8234999910566319,0.1335701549121512,0.7244639237087833,0.8311161818879316,0.0,0.0,0.0,0.0
0.038820285422390306,-0.04671695605995457,0.839551662648916,-0.0018777778447157147,-0.5251627988476173,0.0014904863866530736,0.8509984060544615,0.05332556143589777,0.3049968630098882,-0.5371684629520583,-0.07406645807524223,0.3679821196817653,-0.6151723323575938,-0.169344158166091,0.7582993065302337,0.8143934017960147,0.09806501906196466,0.711795805217961,0.841361930631492,0.0,0.0,0.0,0.0
0.040045522085522284,-0.04847676631085488,0.8400865007071482,-0.0021035934706221645,-0.5256060944846369,0.001520654311384257,0.850724100954935,0.04106040415822643,0.3003374942182109,-0.5409611627741615,-0.07032666692595842,0.3779753071474672,-0.628126674251307,-0.15972414125322118,0.7648557219451332,0.8062511960101613,0.07121976405069727,0.7035349751796391,0.8506653223630178,0.0,0.0,0.0,0.0
0.040995646333265974,-0.05048005877971973,0.8405264836650367,-0.0022135073081053563,-0.5260563306964721,0.001444211309054462,0.8504456194097632,0.03053934557245747,0.2964729753571979,-0.5458447529884818,-0.06595393687864973,0.3867547297823513,-0.639789052302531,-0.14972588135532536,0.7705579057572427,0.7985100957377192,0.050434485146210156,0.6973624953940022,0.8593918950454669,0.0,0.0,0.0,0.0
0.041574467450406855,-0.05272294381522374,0.8408813520677578,-0.002270912495955761,-0.5264527875661953,0.001353408519931747,0.8502002550608864,0.021598117916157934,0.2928075864783273,-0.5513360578230175,-0.06106950619355289,0.39379670116104126,-0.6493665632298933,-0.1383535701701659,0.774862336596678,0.7909225133878282,0.033351195724012406,0.6917788527447568,0.8676498233822172,0.0,0.0,0.0,0.0
0.041749168124112265,-0.055212343581162705,0.8411503710187541,-0.0022951904757323185,-0.5267857029807896,0.001268010395070077,0.8499940866766975,0.01392391208423082,0.2890004521722846,-0.5571257882002316,-0.055679809513515297,0.3989502946513466,-0.6566382511567538,-0.12539384227547035,0.7776187821839633,0.7834572560920311,0.018389118945163437,0.6860288447416589,0.8754974920959624,0.0,0.0,0.0,0.0
0.0415222401564978,-0.05796502160812117,0.8413224664801077,-0.002290323142590775,-0.5270562522716392,0.0011859122147168622,0.8498264852153619,0.007202211308805967,0.2848649509142687,-0.5629784158699904,-0.049749369796536436,0.4022879033099513,-0.6617817042807029,-0.11087459330224711,0.7788044634991207,0.7761707763281832,0.004730413980617951,0.6798104175147701,0.8829485541348874,0.0,0.0,0.0,0.0
0.04091287359231209,-0.06100123173409612,0.8413767328648576,-0.002253099900379131,-0.52726996077024,0.0010962939400087105,0.8496941274069073,0.001184661340875767,0.28039311655847643,-0.5686502662562417,-0.043228579267228916,0.40397267883883525,-0.6651488829828442,-0.09493783408345219,0.7784331757281859,0.7692013116774591,-0.00798565221771464,0.6730927101020499,0.8899283783503934,0.0,0.0,0.0,0.0
0.039944395146654724,-0.06434062669001638,0.8412830979742629,-0.0021800469304647362,-0.5274296263759651,0.0009907627829969237,0.8495953478011744,-0.004307615080943045,0.27576359387522736,-0.5738154855225033,-0.03607531695075006,0.4041843979094276,-0.6671527854251924,-0.07772334485694024,0.7764793960013324,0.7627570320491741,-0.01981554908620465,0.6660083881187177,0.8961930704698307,0.0,0.0,0.0,0.0
0.03863733534826137,-0.06799729177979388,0.8410037287900595,-0.0020683148750873046,-0.5275360876051045,0.0008643012074848668,0.8495296647741618,-0.009401992163999572,0.27133493525568775,-0.5779801215237417,-0.02826468587949615,0.4030685933726481,-0.6681733284398019,-0.05937466384319083,0.772863069280613,0.7571219823154232,-0.030605240296054596,0.6588470107919258,0.9011992733954084,0.0,0.0,0.0,0.0
0.03700560986511728,-0.07197430531594574,0.8404978651166961,-0.0019145637479224729,-0.5275920006214787,0.0007126397551260669,0.8494954428779827,-0.014192584330556385,0.2675460336023359,-0.5803857648115622,-0.01979516672270356,0.40069436295457406,-0.6684551480438132,-0.040084796618942,0.7674764872326972,0.7526356829843828,-0.04006437428970705,0.6521341680184359,0.9038974541967476,0.0,0.0,0.0,0.0
0.035053497773994996,-0.07625975093364772,0.8397364651361231,-0.0017171838799540744,-0.527603725013463,0.0005347001567151849,0.8494887137138333,-0.018746768741083872,0.26462181546021285,-0.5799480672141166,-0.010699087265189084,0.39700871248439557,-0.6679594599792099,-0.020080056562439653,0.7602514515573403,0.7495544351217701,-0.047905703529768105,0.6467355670046844,0.902525526705894,0.0,0.0,0.0,0.0
0.032771154860197424,-0.08082928840825458,0.838717955519218,-0.0014835573901802966,-0.5275686768436204,0.00034061138334093007,0.8495110206788533,-0.023125947150244026,0.26257214790542194,-0.5767342780800062,-0.0010472720808363915,0.3918204649324501,-0.6663243862031858,0.0004847987724650171,0.7511899810328808,0.747828774653631,-0.05414938708091256,0.6427122211239864,0.897074439649155,0.0,0.0,0.0,0.0
0.03013801526363417,-0.08564335548178124,0.8374678872108897,-0.0012290942975084964,-0.5274770291916027,0.00014877273046056324,0.8495683909309971,-0.027404428500520966,0.26119534849378695,-0.5719633548077151,0.009047348299442046,0.38481864982200337,-0.6628931960351233,0.021462438955982377,0.7403909289328585,0.747113087111852,-0.05917573906677667,0.6393148123247882,0.8892610353456738,0.0,0.0,0.0,0.0
0.027132854931818332,-0.09063728196420837,0.8360254349367858,-0.0009704426964477213,-0.5273245738737284,-2.307823550373996e-05,0.8496633754006693,-0.031688567191177415,0.26008284207172716,-0.5665306580498732,0.0194177712166577,0.3756151915271211,-0.6567845430818782,0.04256838083813637,0.7280469573872406,0.7469920480323197,-0.063479536005997,0.6361076895377483,0.8800662362765739,0.0,0.0,0.0,0.0
0.023742747561424915,-0.09571716776034199,0.8344330784669531,-0.0007240551948741963,-0.5271115380474227,-0.00016048998827606614,0.8497957851415355,-0.036139766932660945,0.25892891435512233,-0.5610735602364179,0.029838067634464054,0.3638099094355472,-0.6470450205508068,0.06337110863969315,0.7143962233797971,0.7471271840873178,-0.06759500701080948,0.6328501130747676,0.8699531324754929,0.0,0.0,0.0,0.0
0.019974529910343066,-0.10075789461123917,0.8327337773569116,-0.0005072172561654382,-0.5268420825588416,-0.00025135604246539405,0.8499629989569297,-0.04096110309428497,0.25766592714625935,-0.5560677097525542,0.04002148699343294,0.34905859502975994,-0.6327686058552683,0.08333649704986854,0.6997079502756006,0.7473205675431964,-0.07215070480756672,0.6293970946025594,0.8590811590094497,0.0,0.0,0.0,0.0
0.015871008669643243,-0.10560220316794668,0.8309604085642718,-0.00033969226050831647,-0.5265215653430194,-0.00028046950892101426,0.8501616594358741,-0.046350667512958264,0.2564928753511387,-0.55191653319309,0.04961565948902179,0.3311886193864482,-0.6133360318829456,0.10190321947945495,0.6842180606945814,0.7476492460913945,-0.07794965848247505,0.6256607078503276,0.8474354717854002,0.0,0.0,0.0,0.0
0.011528548125906805,-0.11006047240216806,0.8291005137789657,-0.0002402419441578589,-0.5261428372261969,-0.0001916001100754841,0.8503961549823551,-0.05256731355976249,0.2558680514607845,-0.549294275343364,0.05813119323596545,0.3104141451531448,-0.588959800007824,0.11865858378489783,0.66786539573501,0.7487865490553001,-0.08590584444844554,0.6215835807315762,0.8350315256501893,0.0,0.0,0.0,0.0
0.007521308704468229,-0.11409408571652482,0.8270821416857876,-0.00019923463483388455,-0.5256440843789538,-8.99185266707132e-05,0.850704560219134,-0.05956301894370441,0.25590179324663165,-0.5468032605896883,0.0657730406569917,0.2908326635080544,-0.5672588548969629,0.13329545288010267,0.6513263765029995,0.7517132957227264,-0.09773366406148679,0.6183198642852485,0.8216961634392063,0.0,0.0,0.0,0.0
0.004030131173005825,-0.11745495946105822,0.8250211315491107,-0.00019977221643583448,-0.5251426657457277,1.7701384160832894e-05,0.8510141834253959,-0.0673537049047223,0.25695124146804793,-0.5452627362391029,0.07207844650552757,0.27333159660289014,-0.5487534228804453,0.14512051361251527,0.6354512168509889,0.7568508252035759,-0.11503625965752101,0.6154351219337032,0.8071933079694456,0.0,0.0,0.0,0.0
0.0012949996462584311,-0.11989118059827236,0.823061768006896,-0.0001933592637722957,-0.5247237762384562,7.657422133963942e-05,0.8512725271020075,-0.07504085948016773,0.25869855174794354,-0.5453423952606825,0.07665354884660398,0.2593548060552997,-0.5350612138303803,0.15318927746410926,0.6213046261452739,0.7644671666473986,-0.13775368376360278,0.6127792223752951,0.7910677131246836,0.0,0.0,0.0,0.0
-0.0003358488400994948,-0.1212113510521625,0.8215420212496539,-0.00012140184190168442,-0.5245175291360935,2.480248950367413e-05,0.8513996395790855,-0.08056117061433445,0.26055550182032755,-0.5473408142063747,0.07922843787383772,0.2509142569219148,-0.5278330745868608,0.15680864104659353,0.6112958047960037,0.7729332150852316,-0.16000035554351827,0.6118345752448553,0.7740317070676758,0.0,0.0,0.0,0.0
-0.00041252141454959555,-0.12150978672534553,0.8214076330525542,8.60888687535996e-05,-0.5245503854545572,4.429356323478987e-05,0.8513794005883994,-0.08061465250826316,0.26059999799627803,-0.5473461096539843,0.07955225941560579,0.2506482161140196,-0.5278449682422188,0.15690060700192207,0.6110824855390032,0.7728188109721377,-0.16003273578281088,0.6118877162169061,0.7740421043476706,0.0,0.0,0.0,0.0
-0.00041252141454948036,-0.12150978672534568,0.821407633052554,8.608886875195264e-05,-0.5245503854545582,4.429356323486537e-05,0.8513794005883988,-0.08061465250826097,0.2605999979962799,-0.5473461096539823,0.07955225941560744,0.2506482161140253,-0.527844968242223,0.1569006070019377,0.6110824855389981,0.7728188109721418,-0.1600327357828117,0.6118877162169092,0.7740421043476721,0.0,0.0,0.0,0.0
-0.00041252141454948036,-0.12150978672534568,0.821407633052554,8.608886875195264e-05,-0.5245503854545582,4.429356323486537e-05,0.8513794005883988,-0.08061465250826097,0.2605999979962799,-0.5473461096539823,0.07955225941560744,0.2506482161140253,-0.527844968242223,0.1569006070019377,0.6110824855389981,0.7728188109721418,-0.1600327357828117,0.6118877162169092,0.7740421043476721,0.0,0.0,0.0,0.0
0.0012639689761467312,-0.12338907778235353,0.8222778613717291,0.000247852712199156,-0.5254061208403658,5.178645714111399e-05,0.8508515405584425,-0.0770563265842385,0.26696126159754346,-0.5496074282025087,0.08323229998949319,0.2623560452484077,-0.5408256874574138,0.1649627743648855,0.6214171117013856,0.760936492505383,-0.15500298571477844,0.6192140575145082,0.7762330979566476,0.0,0.0,0.0,0.0
0.004678409867127158,-0.1271561978130989,0.825447029465576,0.00043043638955787817,-0.5272349008838012,-0.0006938387798242008,0.8497191845558805,-0.06805994882334415,0.2778762460479453,-0.5440940501389263,0.09230193892203108,0.28329832267607435,-0.5567762762566003,0.1791997209712176,0.6512459151060062,0.7234104744703329,-0.14651542273077878,0.6413769637295201,0.765175312571919,0.0,0.0,0.0,0.0
0.008015884247545098,-0.1307875274290848,0.8282697526243872,0.0005987263268965528,-0.5270357174775903,-0.00021847559415688568,0.8498428950683073,-0.06213292590449262,0.29376807925523163,-0.56054483039557,0.08674248758802593,0.2794869480347402,-0.5466475947236162,0.15763867647805954,0.6424822230119329,0.761988339870284,-0.13136111630119202,0.6609378549386938,0.7500016070309887,0.0,0.0,0.0,0.0
0.011903410139066008,-0.13475029865746008,0.8305448463391921,0.0006603953197995929,-0.5269623093116971,4.153731473297028e-05,0.8498883966248488,-0.05497108666530969,0.31315018682665774,-0.5839438070877372,0.07784355208028124,0.27555069219866374,-0.5427183794204309,0.1321716762592332,0.6396564774503053,0.7910822094970145,-0.11514688769361567,0.6787247031611688,0.7409390628907958,0.0,0.0,0.0,0.0
0.01608588667213251,-0.13906962724529146,0.8319589239744086,0.000736773698262193,-0.5269581389371405,9.883550836030781e-05,0.8498909148849428,-0.04663950313618473,0.3341354033451864,-0.6123225495353535,0.06847101259539459,0.27227060151117016,-0.5434040877245775,0.10998659134098411,0.6401976169610261,0.8123839561062892,-0.09800733898435851,0.6923087279169435,0.7414031777603542,0.0,0.0,0.0,0.0
0.02021527983580699,-0.1435728709945566,0.8330470187297991,0.0008721468650004641,-0.5269365439612369,-1.962832394245243e-05,0.8499041814303318,-0.037514338072337325,0.35368916704224146,-0.638858471185065,0.05953309431994116,0.27023568738966075,-0.546653576231393,0.09305971351967297,0.6416921659226879,0.8294321245034646,-0.08031467668374612,0.704063585810021,0.7448473821884906,0.0,0.0,0.0,0.0
0.024064636588077032,-0.14814437483683124,0.8341986253444066,0.001094740776960956,-0.5270357016219177,-0.0002249027354774189,0.8498424090249226,-0.028015185309279537,0.3698545458453177,-0.6582268469587902,0.051755389198330004,0.26942484925667626,-0.5509636527016729,0.08083340244605741,0.6434945893980262,0.8440828344068118,-0.06231703384207344,0.7161121070067394,0.7473033774702061,0.0,0.0,0.0,0.0
0.027507941976696537,-0.15271621128185878,0.8354465085625151,0.0013636732731751105,-0.5271839952528503,-0.00046865050575956637,0.8497499372822278,-0.018374659744612474,0.38252817076320306,-0.6708093258563206,0.045167176375423536,0.2691293431078888,-0.5559287501115542,0.07178802524033945,0.645108983406068,0.8571803609592044,-0.04386906806531173,0.7283287612725762,0.7480812233006475,0.0,0.0,0.0,0.0
0.030499777244711087,-0.15722811606070047,0.836731216974617,0.0016450570425766689,-0.5273236884202085,-0.0007207152150809693,0.8496625812567082,-0.008783200667545834,0.39198461957928776,-0.6778127381128899,0.039448313311746384,0.26879007008941036,-0.5612929278667695,0.06449066009145472,0.6464488618664644,0.8691553796069045,-0.025006161852535624,0.740177926101946,0.7475878676070196,0.0,0.0,0.0,0.0
0.03304682775316052,-0.16162312049830277,0.8379859416903156,0.0019165497925846707,-0.5274239658169143,-0.0009641359232489751,0.8495995277545606,0.0005983930238235239,0.3986348487225927,-0.6804782774704621,0.03419653640494028,0.2681378737550751,-0.5668394135951914,0.05790631459289448,0.6475799628457642,0.8802599583498683,-0.0059288561585930065,0.7512036628614642,0.7464083962826376,0.0,0.0,0.0,0.0
0.03518365977482339,-0.16585237062678726,0.8391561785929835,0.0021649704998421213,-0.5274718908545305,-0.001190174985248833,0.8495688911115952,0.009642602905697972,0.40293681366415496,-0.679928608688462,0.029068924648968056,0.2671695573464062,-0.5723259020468098,0.05137174263475395,0.64861046072157,0.8905866586687068,0.013087268601296349,0.7610969895976138,0.7450691429481846,0.0,0.0,0.0,0.0
0.03695515388124838,-0.16987939977572647,0.8401986521595454,0.0023828681081326485,-0.5274638147699581,-0.0013944326006090995,0.8495730113448902,0.018258800239800508,0.40533829832780016,-0.6771424189488269,0.023836751200820787,0.26611124794773616,-0.5774165935296006,0.0444474711655986,0.6496843153053764,0.9000074787940815,0.0317736967941273,0.7696505918020751,0.7440314676645445,0.0,0.0,0.0,0.0
0.038404529766977835,-0.17368197890567152,0.8410759162105945,0.002565731997910033,-0.5274000787410784,-0.0015742673698203528,0.8496117322903842,0.026393224200774723,0.4062344523509386,-0.6729473190766753,0.018387819034645474,0.265368212654165,-0.5815973436751659,0.03676928742160358,0.6510312415979524,0.9080498340512375,0.049923061424432966,0.7767009029799203,0.7437373894378411,0.0,0.0,0.0,0.0
0.03956534298802268,-0.17725198336630826,0.841754470104379,0.002710481557444647,-0.5272829971290789,-0.0017275817464882334,0.8496836527141214,0.034025820726654214,0.4059299699795828,-0.6679841039823092,0.012696568472281733,0.2653967450700632,-0.5840753001211537,0.027967584710442018,0.6530668637244261,0.9136900672702674,0.0674115943114043,0.7820993437965499,0.744621013307054,0.0,0.0,0.0,0.0
0.0404562847407364,-0.18059359060393937,0.842214045103252,0.0028163064741023084,-0.5271189373544934,-0.001854300488898692,0.8497848291595999,0.04116558694237324,0.4045907171474217,-0.6625810488316177,0.006769756417802182,0.26641012772432654,-0.5837112052641875,0.017730756014313936,0.6565172548767839,0.9151488780713529,0.08417687018229472,0.7857524734146181,0.747003542294112,0.0,0.0,0.0,0.0
0.04107674731497397,-0.18371793614711543,0.8424603961932212,0.002883108339847694,-0.5269114843729353,-0.001954174178153524,0.8499130288008838,0.04783342650133541,0.4022168933455589,-0.6567018377430578,0.0005989743132539813,0.2684160779200603,-0.5805069738241154,0.0061064970301472,0.6612898383896337,0.9124091023798773,0.10019598365488937,0.7876694320292047,0.7509146604735001,0.0,0.0,0.0,0.0
0.04140922036312064,-0.1866408281871515,0.842524643757087,0.00291028808208945,-0.5266606828041351,-0.0020262574255257744,0.8500682029651543,0.05405557221569369,0.3986570184573387,-0.6499764734351938,-0.00587096267818948,0.2712307950028788,-0.5756228095142715,-0.006545062170468857,0.6664924237765294,0.907242588820945,0.11546645882924261,0.7879570666901327,0.7560918947218175,0.0,0.0,0.0,0.0
0.04142778868531508,-0.18938086298512896,0.8424476976299085,0.0028960514017825336,-0.5263685663831534,-0.002070005819263328,0.8502490577977315,0.0598625550170434,0.39366642209018093,-0.6418276439400938,-0.012754819890824614,0.2744577907550821,-0.5698989898954612,-0.019914447790647605,0.671578692032417,0.9007220026311196,0.12999464413525313,0.7867607379462389,0.7621668679601767,0.0,0.0,0.0,0.0
0.04110661809848728,-0.19195286188028257,0.8422668124780059,0.002835041374975422,-0.5260367493381956,-0.0020825734615344707,0.8504545630272577,0.06527458798841511,0.38699333350370996,-0.6316840351288192,-0.020211066877979637,0.2777916520066161,-0.5639205166096679,-0.033889849018493415,0.6762468553054153,0.8934465542800529,0.14379588398753482,0.7842115041142819,0.768791695590572,0.0,0.0,0.0,0.0
0.04043169806980197,-0.1943600779868843,0.8420125406205115,0.0027177638927163438,-0.525667594846624,-0.0020574206513899753,0.8506832315896747,0.07028571721490416,0.3784696595395001,-0.6191409984267586,-0.028410208281590868,0.28114881358067945,-0.5581164070626294,-0.048649588026089124,0.6804032042888523,0.8857855063532727,0.15687757389076923,0.7804453073296169,0.7756562592480134,0.0,0.0,0.0,0.0
0.039418685702995414,-0.1965844022020892,0.8417086862402818,0.0025296985890433028,-0.5252670208150573,-0.001981628034016217,0.8509313900776359,0.07484273816503026,0.36814670890075263,-0.6041827202713042,-0.03747108672714614,0.284702221358896,-0.552841343209477,-0.06483984708394178,0.6842436661585546,0.8780717835473101,0.16923255182027827,0.7756609005424641,0.7824736668076655,0.0,0.0,0.0,0.0
0.038140530453355005,-0.19857208121859105,0.8413682227747489,0.0022487065310704568,-0.5248454606000388,-0.0018293370668530618,0.8511925982598568,0.0788117459770476,0.3565426865715101,-0.5876353247406858,-0.047361466507076934,0.28885511706429834,-0.54841422807378,-0.08393111933557151,0.6884659848171065,0.8707628312065763,0.1808559419881694,0.7701827931103943,0.7889977341481508,0.0,0.0,0.0,0.0
0.0367678295595839,-0.20020959022828053,0.8409722853445111,0.0018293281263001627,-0.5243613472208972,-0.001515837546791938,0.8514925327540012,0.08187029650114011,0.34525309187741987,-0.572689312118951,-0.05790954898665672,0.2939484420706659,-0.5449395639771838,-0.10852910564609403,0.6943567089604848,0.8644112884955104,0.19194157821978602,0.7643866645441292,0.7950332622982147,0.0,0.0,0.0,0.0
0.03546525306035763,-0.20143487607288726,0.8405618446060615,0.0012331189015917547,-0.5238186448249793,-0.0009637487390081268,0.8518283735236017,0.08380417478992194,0.3356776988604435,-0.5617586569415628,-0.06873769603943089,0.30040206406785563,-0.5431869079384718,-0.14131840912998325,0.7027860105200452,0.8598833377282318,0.20294373813733965,0.7590231625684091,0.8000433801732286,0.0,0.0,0.0,0.0
0.03454736250546664,-0.20220876650628375,0.8402168746575713,0.0005024761575025249,-0.523300585420961,-0.00027032117488950394,0.8521479752614877,0.08472087461741466,0.3299066166776952,-0.557497127786042,-0.07947057436070952,0.3087222920035364,-0.5450695614676276,-0.18345194972544804,0.7138980068320872,0.8583567834197549,0.21327936363430278,0.7552836620356866,0.8033576526001073,0.0,0.0,0.0,0.0
0.03412271279629393,-0.20259464756531584,0.83990931799985,-0.00012029291910955509,-0.5230094203424429,0.0003830130709023066,0.852326806491303,0.08484986771488891,0.32787876668432553,-0.5583023310228301,-0.08723681515354897,0.31858429368797003,-0.5540529884669246,-0.22333294352206512,0.7241024396086143,0.8605504765605277,0.22151536582510942,0.7533499401509339,0.8061610112558638,0.0,0.0,0.0,0.0
0.03414580634939378,-0.20267621550232592,0.8399076575830338,-8.290760652742527e-05,-0.5229752049596189,0.00038397178709258744,0.8523478050006582,0.08497258873982604,0.3278322994130266,-0.5582872711909616,-0.08730218552403197,0.3186228895548259,-0.5540479562742261,-0.2233545195692485,0.7241272673618426,0.8605607691766036,0.2215783699239191,0.7532658257921673,0.8061230637310439,0.0,0.0,0.0,0.0
0.03414580634939378,-0.20267621550232592,0.8399076575830338,-8.290760652742533e-05,-0.5229752049596192,0.00038397178709258776,0.8523478050006581,0.08497258873982604,0.3278322994130266,-0.5582872711909616,-0.08730218552403197,0.3186228895548259,-0.5540479562742261,-0.2233545195692485,0.7241272673618426,0.8605607691766036,0.2215783699239191,0.7532658257921673,0.8061230637310439,0.0,0.0,0.0,0.0
0.034952695715564246,-0.203265330019552,0.840167834569524,1.4221981256928566e-05,-0.5235617002696449,0.00014152143963998758,0.8519877497829272,0.08658775985665075,0.3298449739281921,-0.5567536575689348,-0.08574921782478108,0.3239869827364665,-0.559965516330462,-0.22408321243200036,0.7293097637483632,0.858723787564666,0.22461797825915394,0.7576305930041947,0.806201719636036,0.0,0.0,0.0,0.0
0.0364958049810729,-0.20430406896826572,0.8407104204472737,0.00029621202948741155,-0.5249100061563277,-0.0007834885162027071,0.8511573202652625,0.0903090111535194,0.33298080929101864,-0.5504805779963204,-0.08208872905632594,0.3333669976622958,-0.5692085755294883,-0.22964656635383696,0.7408360787909023,0.855620561274814,0.22745576467076653,0.7661755566847399,0.8063636073387409,0.0,0.0,0.0,0.0
0.03768470434009895,-0.205665441403107,0.8416650828331353,-0.000559459301652439,-0.5245034275655793,0.00028980989499710695,0.8514081027847185,0.08154535719303953,0.3220733393719454,-0.5408964769415239,-0.08071889011283827,0.3436947583671504,-0.5829964170677044,-0.21097505422882434,0.7449004329973307,0.8424316620567793,0.18722815117574776,0.7442665333683843,0.8225538717343226,0.0,0.0,0.0,0.0
0.03891679032420812,-0.20712639521675866,0.8424093564417469,-0.0013817090174999959,-0.524526265211615,0.0011699953661725112,0.851392341458501,0.0683947781377547,0.31289436302474566,-0.5382601369246075,-0.07873474060752547,0.3535536367264879,-0.5949551773201783,-0.1941520021665706,0.7496021106800417,0.8320415514217788,0.14202708517757098,0.725586701928921,0.8345150286199771,0.0,0.0,0.0,0.0
0.04025942054788087,-0.20884276673932475,0.8430138501804675,-0.001858936115685825,-0.5248697436194236,0.00151888969343304,0.8511791759456392,0.05512173044795185,0.30630290219670103,-0.539397013089099,-0.07549632656509954,0.36438313715873694,-0.6088080754694045,-0.18162475578169604,0.7558046519354742,0.8232739327644064,0.10587768037934439,0.7133330920297775,0.8445611841868963,0.0,0.0,0.0,0.0
0.04150148785423801,-0.2108090572957069,0.8435137261558571,-0.002097370492651804,-0.5253400533132188,0.0015632034617023736,0.8508883509702189,0.043186845474762994,0.30143778458937615,-0.5426685800285471,-0.07135259479552068,0.3749877891535883,-0.6228901469274893,-0.17083421177930846,0.7622321868069489,0.8152920317085081,0.07890270367447427,0.7053968209577856,0.8538505575816974,0.0,0.0,0.0,0.0
0.042460988073872184,-0.21299635226266883,0.8439322402289078,-0.0022131644968813014,-0.5258143439806507,0.001494945776953629,0.850595169692511,0.03293120629020181,0.29744543349119645,-0.5472079060109004,-0.06661362185784273,0.3842376624260199,-0.6353998628582874,-0.15981115730413914,0.7678522742589403,0.8075984223789414,0.05825376856978044,0.6994779409997234,0.8626679831766947,0.0,0.0,0.0,0.0
0.04304446670624897,-0.21539711614789678,0.8442749133939903,-0.002271069401940551,-0.5262307248363868,0.0014073317302433117,0.8503376305323337,0.024216249449692993,0.29370164418490313,-0.5524793052956849,-0.06141038935822634,0.3916368722915027,-0.6456106962956973,-0.14756400389132976,0.7721017288503021,0.7999983799447652,0.04143557649654763,0.6940921969379222,0.8710695053759786,0.0,0.0,0.0,0.0
0.04322342540055464,-0.2180161250063256,0.844537631894739,-0.0022893992681973447,-0.5265844309220585,0.0013167466117627194,0.8501187340247496,0.01674570176192237,0.28986997281799687,-0.5581337165844782,-0.055749421072619446,0.39706086651716527,-0.6533412964016365,-0.13393821727245975,0.774845216260297,0.7925183633564667,0.026735466647615395,0.6885191155480118,0.8790878546866517,0.0,0.0,0.0,0.0
0.04300251487485641,-0.22087130135826136,0.8447077076695081,-0.002276471156674403,-0.5268733439123278,0.0012271446782324944,0.8499398750909698,0.010202296160326014,0.28574013772210755,-0.5639080057024525,-0.049601790453336556,0.4006108646403927,-0.6588282492840876,-0.11889634421671365,0.7760361862107122,0.7852214389556714,0.013313758784882135,0.6824612941861837,0.8867192944559766,0.0,0.0,0.0,0.0
0.042402161197581965,-0.22398400765799112,0.8447638988138789,-0.0022316506477758655,-0.527102191336481,0.0011309354402232025,0.8497982234676041,0.004331280578897303,0.2812926318076875,-0.5695381907770202,-0.04291988377949118,0.40246508949566634,-0.6624481660446949,-0.10254412655481746,0.7756810722729084,0.7782463216199134,0.000793591310079467,0.675891060598871,0.8938774098532037,0.0,0.0,0.0,0.0
0.0414462716095266,-0.22737474544816036,0.8446763579599146,-0.002152305663884238,-0.527275173444754,0.0010201743712335187,0.8496912488035792,-0.0010522735987737357,0.2767044563271166,-0.5746844393937804,-0.035659860377655735,0.4028090128197204,-0.6646158113990855,-0.08501328083511593,0.7737596298671008,0.771803323019084,-0.010898374540996854,0.6689439384393056,0.9003090123236304,0.0,0.0,0.0,0.0
0.040155429870089986,-0.2310587029420694,0.8444077649427759,-0.0020359189661941163,-0.5273946294351786,0.0008896798862711923,0.8496175423957497,-0.006080821007724218,0.27233390632719195,-0.5788426536572451,-0.02779373758315994,0.40179079671637247,-0.6657076630657276,-0.06644118593381992,0.770198556743111,0.7661754851813307,-0.021618453317911825,0.6619086553004783,0.9054607103230364,0.0,0.0,0.0,0.0
0.03854346672197296,-0.23504063225819083,0.8439180485261434,-0.0018793508018544666,-0.5274641255718572,0.0007350942990097736,0.849574907769557,-0.010851402135023946,0.26861890214890716,-0.5812462900991909,-0.019316036975196793,0.3994835546170598,-0.6659696625122474,-0.04700934686096376,0.7648957380705282,0.7616960475116653,-0.03108191393824682,0.6553074534983019,0.9082702093600201,0.0,0.0,0.0,0.0
0.036614886054502624,-0.2393110889678159,0.8431788761781498,-0.0016811409410159182,-0.5274899031456055,0.0005555918751715911,0.8495594547541946,-0.015430999953180544,0.2657820446632211,-0.5808052222228963,-0.010254303461993103,0.39584377644507546,-0.6653783003730428,-0.02692548582628959,0.7577857992323791,0.7586101276684288,-0.039000652554082346,0.6500034889934647,0.9069602065650502,0.0,0.0,0.0,0.0
0.034360625018711864,-0.24384879882625282,0.8421889866803175,-0.001448376957210874,-0.5274687078336989,0.0003614114474231887,0.8495731480232902,-0.019876591370750755,0.2638316930464422,-0.5775853071134872,-0.0006735353383901348,0.39069581702918194,-0.6636022257881559,-0.006325319660453788,0.7488701690656644,0.756860983526257,-0.04538337048732767,0.6460586708620633,0.9015197744278155,0.0,0.0,0.0,0.0
0.03176155232898936,-0.2486176286044664,0.8409738264430492,-0.0011951745349729939,-0.5273902897298373,0.0001700282685696678,0.8496222836925225,-0.02425339773324428,0.26256868261399524,-0.572809255565506,0.00932113617407841,0.3837486693748287,-0.6600254104515129,0.014653115932187669,0.7382476852945805,0.7561033747962996,-0.05059796737997569,0.6427294517044165,0.893678501853671,0.0,0.0,0.0,0.0
0.028798288373256237,-0.2535568555076859,0.8395725576388174,-0.0009364401795907725,-0.5272502170056885,-2.2619450540813707e-06,0.8497095572853868,-0.0286554795477967,0.2615893846874095,-0.5673796160029444,0.019572531928539964,0.37463619422624483,-0.6538102620625214,0.03573088033934207,0.7261140047269247,0.7559211283987662,-0.055132150933321245,0.6395906376841305,0.8844293461582181,0.0,0.0,0.0,0.0
0.025459389710918216,-0.2585772403862878,0.8380284252067223,-0.0006874172538508923,-0.5270472339810255,-0.0001414446655411013,0.8498357021235786,-0.033232046770547564,0.2605885597555124,-0.5619439611567157,0.029864950531536025,0.362979718558887,-0.6440485679615143,0.05649125847967454,0.7127104702401291,0.755957769390936,-0.05950674042079187,0.6364090200718482,0.8742451303430938,0.0,0.0,0.0,0.0
0.021752293594196715,-0.26355871673308856,0.8363866239890692,-0.00046441935501898766,-0.5267835897737552,-0.00023557755902313998,0.8499992813896682,-0.038174865763764214,0.25949744440644223,-0.5569930003413592,0.03992260579065379,0.34845083322044024,-0.6298669879565544,0.07641380961427416,0.6983173749986322,0.755974579431973,-0.0643345151558944,0.6330415651642689,0.8632959940013336,0.0,0.0,0.0,0.0
0.017719062088124862,-0.2683492673653812,0.8346854350548114,-0.0002862468728067693,-0.5264640791351829,-0.00027094604586918415,0.8501972818301126,-0.043670662328765035,0.25851909676683354,-0.5529460574258775,0.049406967615057515,0.3308787723117055,-0.6106389695247125,0.09493975528716438,0.6832058601449554,0.7559727220526906,-0.07040424693334423,0.6293963080630345,0.8515843582862354,0.0,0.0,0.0,0.0
0.013455130759078282,-0.2727653715643779,0.8329213562540038,-0.00017272123076152128,-0.5260784851766234,-0.00019026586052162806,0.8504359831289761,-0.049952546899153245,0.2581117866874118,-0.550478546204014,0.05784057373288373,0.31048289371587356,-0.5865709810294031,0.11167912909839241,0.6673662969298109,0.7564894604777902,-0.07856199505006027,0.6254085518509758,0.8391495614221433,0.0,0.0,0.0,0.0
0.009485328643620207,-0.2767600898855139,0.8310480095492401,-0.00011870149698444776,-0.5255871937373726,-9.607698530716468e-05,0.8507397242743758,-0.057035986581049705,0.258449267287777,-0.5482940902504053,0.06540137042533925,0.2909191099698674,-0.564307286269495,0.126287937957965,0.6515668425484394,0.7583100008127124,-0.09045385748025406,0.6221431293981273,0.8258780848245333,0.0,0.0,0.0,0.0
0.006038321477328823,-0.28010859510606584,0.8291760799627742,-0.00011021287970964299,-0.5250931784531642,4.150338357993861e-06,0.8510447354739052,-0.0648478279905375,0.25992426736480617,-0.5470728345030262,0.07168112287753613,0.2734439949524582,-0.5450811512881768,0.13816844921846863,0.6367218683607828,0.7617758624922378,-0.10754975115529603,0.6192970382287784,0.8116493443657148,0.0,0.0,0.0,0.0
0.003353338537884714,-0.2825637535179234,0.8274460499436682,-0.00010059405552569933,-0.5246814482309665,5.7465677527507906e-05,0.8512986341236473,-0.07248434990522573,0.2623190629407621,-0.5475976972433142,0.07629309128210131,0.2595121846716571,-0.5305450830705518,0.146385533505216,0.623878038499225,0.7671711789884208,-0.12975592750805998,0.6166875464012689,0.796166235708918,0.0,0.0,0.0,0.0
0.0017692388026956567,-0.2839238691180209,0.8261423320095944,-3.182277023490325e-05,-0.5244757657871175,3.159693595418962e-06,0.8514253755199831,-0.07791193855493121,0.26503738967573987,-0.5503741282403734,0.07894702609690771,0.25115929306900436,-0.5226326925670521,0.15019499555232502,0.6151123408438407,0.773429639882633,-0.1513437946378022,0.6156765950414672,0.7802029958556826,0.0,0.0,0.0,0.0
0.0016931279457102792,-0.28422151967756737,0.826013182234553,0.0001743469157256913,-0.5245067469996547,2.2337895695772383e-05,0.8514062728545119,-0.07796449121490687,0.2650809523465328,-0.5503802456355514,0.07926942196926286,0.2508980202245293,-0.5226423820053618,0.15028482860843737,0.6149030446657493,0.7733173494611304,-0.15137527296456593,0.6157292727129485,0.7802136560848978,0.0,0.0,0.0,0.0
0.0016931279457115655,-0.2842215196775681,0.8260131822345521,0.00017434691571738316,-0.5245067469996619,2.233789569414945e-05,0.8514062728545074,-0.07796449121489332,0.26508095234654433,-0.5503802456355382,0.07926942196927476,0.2508980202245568,-0.5226423820053737,0.15028482860848405,0.6149030446657457,0.7733173494611595,-0.15137527296456785,0.6157292727129681,0.7802136560849179,0.0,0.0,0.0,0.0
0.0016931279457115655,-0.2842215196775681,0.8260131822345521,0.0001743469157173831,-0.5245067469996617,2.233789569414942e-05,0.8514062728545075,-0.07796449121489332,0.26508095234654433,-0.5503802456355382,0.07926942196927476,0.2508980202245568,-0.5226423820053737,0.15028482860848405,0.6149030446657457,0.7733173494611595,-0.15137527296456785,0.6157292727129681,0.7802136560849179,0.0,0.0,0.0,0.0
0.0033516431304679204,-0.28606772830933636,0.826882878718151,0.00032850010219222405,-0.525358630190172,3.197851816331465e-05,0.850880838161116,-0.0744646272010435,0.2712876641600326,-0.5523927464680961,0.08287977134102288,0.2624548228530901,-0.5353646249008819,0.15824232474854694,0.6251669172559614,0.7615759887252121,-0.14625847233713102,0.623191795906518,0.7820502868105101,0.0,0.0,0.0,0.0
0.006731253805930242,-0.28976162235122327,0.8300330222588246,0.0005278624526417799,-0.5271819694344348,-0.000730424982941386,0.8497519396528648,-0.06559577308050824,0.28190605836042265,-0.546416387865313,0.09180459473221143,0.28307008238086845,-0.5508557403002793,0.17200245034529463,0.6548149115038204,0.7245402183932184,-0.13792143292610226,0.6454035267411058,0.7705237906626791,0.0,0.0,0.0,0.0
0.010045317932193097,-0.29332634812981234,0.8328325153659945,0.0006772412073697019,-0.5269906584105528,-0.0002555995034556211,0.8498707678001713,-0.05976817366397361,0.2975637579903905,-0.5624914510135172,0.08621821891553526,0.2799464778175275,-0.5422617360713876,0.15064953844668016,0.6459111264880707,0.7631100352833032,-0.12268462879212302,0.6650015184528814,0.7550910440952178,0.0,0.0,0.0,0.0
0.013894475222030536,-0.2972150588250334,0.8350805421801912,0.0007283798899381307,-0.5269168847656968,1.6452422678942737e-06,0.8499165053161649,-0.052722741251453833,0.3166482731292664,-0.5854562298017084,0.07724488619953118,0.2763994971030851,-0.5392700831773293,0.12530847230110395,0.6429118999878961,0.7921675035034059,-0.10641719460077864,0.6828079681858372,0.7456859410657692,0.0,0.0,0.0,0.0
0.01802916445594927,-0.3014537952632448,0.8364625357940212,0.0008009541695608131,-0.5269068153584674,5.3249577933980286e-05,0.8499226809338004,-0.044521729642904136,0.3373306443182182,-0.6134395896957625,0.0677684242356913,0.27329813651163465,-0.5405046431772211,0.10320710300696426,0.6432611951199122,0.8134514357328535,-0.08926472995199845,0.6963955750975311,0.7457635122103863,0.0,0.0,0.0,0.0
0.022102082026448144,-0.3058733369809228,0.8375444532163322,0.000936104748516637,-0.5268867029549221,-6.993443475596425e-05,0.8499350099074436,-0.0355405014417211,0.3565102533502298,-0.6393307394778589,0.0587192844140644,0.27135396269116835,-0.5440273095694917,0.08627222852081175,0.6445928595345511,0.8305110304773432,-0.07159397640035946,0.7082845122284747,0.7485849761717853,0.0,0.0,0.0,0.0
0.025892067267053304,-0.3103667740867806,0.8386880971626473,0.0011582426035974312,-0.5269834011241696,-0.0002799065547061023,0.849874740809488,-0.0261801375647778,0.3723308084470447,-0.6581497170071201,0.05083599647987716,0.2705465937170026,-0.5484820776618291,0.07394757785079434,0.6462512223845318,0.8451667121235273,-0.0536070005356383,0.720412594424675,0.7504918990887398,0.0,0.0,0.0,0.0
0.029277494549291464,-0.31486788953639155,0.8399221776960808,0.001425874764176279,-0.5271252324336144,-0.0005279041028230642,0.8497862540252243,-0.01666896132421994,0.3846995364266241,-0.6703063047347184,0.04414794022653411,0.27020134514122857,-0.5535167865893478,0.06473943518263932,0.6477460544728194,0.8582598136781092,-0.035154189182551185,0.732636437550193,0.7508460495135404,0.0,0.0,0.0,0.0
0.03221569204609891,-0.31931685340899946,0.8411890667221161,0.0017053089649048518,-0.527255976716641,-0.0007835700268650846,0.8497044268190722,-0.0071953667822584905,0.39389045798115857,-0.6769859802670599,0.03833612144758036,0.26978779745061254,-0.5589053204846487,0.05724779338183508,0.6489871923188844,0.8702253353146097,-0.016273257412342833,0.7444416150938173,0.7500358755992145,0.0,0.0,0.0,0.0
0.03471482677657723,-0.3236572052419825,0.8424244792050957,0.001974619423277546,-0.5273460503584979,-0.0010300250162862859,0.849647681746906,0.0020821021379821784,0.4003120877187131,-0.679405274031517,0.03300116275162542,0.26905393710227177,-0.564450043129397,0.05046566968432653,0.6500328303718742,0.8813167413795436,0.0028335684232120885,0.7553951923957447,0.7486180697743349,0.0,0.0,0.0,0.0
0.03681011187755266,-0.32784080811874056,0.8435758635519203,0.0022210444547663645,-0.5273832946656756,-0.0012587474612732225,0.8496236478723599,0.011038486741416026,0.40441866158657924,-0.6786655099447452,0.027803722844011444,0.26800524739633214,-0.5699214810394885,0.043748469686581144,0.6509842300237337,0.8916251700435852,0.021891337574771363,0.765205476461684,0.7470955032999218,0.0,0.0,0.0,0.0
0.03854655984758301,-0.3318319882808773,0.8446011494515863,0.0024374857855505015,-0.5273644551174556,-0.0014655917793133064,0.8496344167831543,0.01958569041490453,0.40665342635414337,-0.6757282814174067,0.02251850427256195,0.26687148697508234,-0.574992766102347,0.03666762160758003,0.6519800630547927,0.9010197926300144,0.040634305050041286,0.7736764184096161,0.7459131097882485,0.0,0.0,0.0,0.0
0.03996721782096824,-0.33560923714798024,0.8454634592429539,0.0026197214947799785,-0.5272899670196772,-0.0016481728657893587,0.8496797698344253,0.027672160140388202,0.4074067977132828,-0.6714083753598596,0.017036070441511265,0.2660587198527013,-0.5791562250556428,0.028866004094148405,0.6532457699787819,0.9090245072399459,0.05885899818509026,0.7806507691212606,0.7455024862963386,0.0,0.0,0.0,0.0
0.04110530785257381,-0.33916497484097174,0.8461293965438038,0.0027649130698343986,-0.5271620083249576,-0.0018046421751047087,0.8497583865435712,0.035279544167653686,0.40697907966015673,-0.6663377813862339,0.011332559215023841,0.26602244430787314,-0.5816237634289892,0.019980626088212286,0.6551931188382075,0.9146115929789228,0.07644545083988304,0.785982487198489,0.7462917196848512,0.0,0.0,0.0,0.0
0.041979142781843476,-0.34250372144981456,0.8465785387003069,0.0028724313727532683,-0.5269866673682221,-0.001935146299467363,0.8498664934935035,0.04241798368384108,0.40553219800418094,-0.6608388589422292,0.005415011463674023,0.26697444715667595,-0.5812592912206704,0.009706172671327704,0.6585453291299014,0.915997695749556,0.09333410729596182,0.7895781701774987,0.7485987644455417,0.0,0.0,0.0,0.0
0.04258772251335797,-0.34563690560088556,0.8468165677567235,0.0029421849672580584,-0.5267673103885361,-0.0020395167411705944,0.8500019909536146,0.04910919984184366,0.4030618291416149,-0.6548683450837207,-0.000726220466985554,0.2689220360550035,-0.578066046921278,-0.0019102945012794866,0.6632098793787335,0.9131672557782163,0.10950469025999006,0.7914464292797325,0.7524507323269882,0.0,0.0,0.0,0.0
0.04291312207779419,-0.34858053805721656,0.8468746169904852,0.0029733881108698324,-0.52650381187127,-0.002116702887726405,0.8501649337728824,0.05537977639379801,0.3994113840805103,-0.6480483614223421,-0.007148945265323149,0.2716817826101081,-0.5732034225935198,-0.01451671513185217,0.6682973137757046,0.9078984609255348,0.12495694858537917,0.7916931988279617,0.7575827613684963,0.0,0.0,0.0,0.0
0.04292895045839824,-0.35135305178953696,0.846793415427234,0.0029639880592634274,-0.5261978898562656,-0.0021659555018004716,0.8503542227344802,0.06125963897760791,0.3943317482553931,-0.6397967843933271,-0.013971458979914319,0.2748563841000401,-0.5675086997312196,-0.027812252513144564,0.6732640440235057,0.9012691769607184,0.13969705317756587,0.7904610099766755,0.7636253423144723,0.0,0.0,0.0,0.0
0.04260877766247848,-0.3539685617029827,0.8466097485891407,0.0029083554971219092,-0.5258506378106511,-0.0021841507550229827,0.8505691492570802,0.06676712082165591,0.38756812884713226,-0.6295425042931585,-0.02135572973258737,0.27813772897649663,-0.5615611735825687,-0.04169431282505698,0.6778102558214779,0.8938825568769991,0.15373646938859786,0.7878755717158857,0.7702310207812917,0.0,0.0,0.0,0.0
0.04193793610713573,-0.35642883538278464,0.8463533019073519,0.002796735890396484,-0.5254636154663808,-0.0021644061447812306,0.8508087225901009,0.07189268727153912,0.37895255252546894,-0.6168899321637296,-0.02947449541702367,0.28143677932740757,-0.5557797809265316,-0.05635675615161681,0.6818450611527954,0.8861113934793072,0.16707398006903873,0.7840645938413844,0.7770919964892284,0.0,0.0,0.0,0.0
0.040931639511502485,-0.3587130838012292,0.8460463523212142,0.0026143527569976936,-0.5250414831400397,-0.0020933574606292987,0.8510700464687447,0.07657711595939158,0.36854422034090806,-0.6018513080559036,-0.03844645069192329,0.28491630870683693,-0.5505012452416401,-0.07248102431484689,0.6855725809393625,0.8782929478236863,0.17968853245061128,0.7792152052688192,0.7839267051736798,0.0,0.0,0.0,0.0
0.03966327417201691,-0.3607628859678173,0.845699128662268,0.002338678885537241,-0.524592341586961,-0.0019442913341835974,0.8513481223686274,0.0806764044606056,0.3568887474921078,-0.5853265352006755,-0.048237715418976576,0.288959094097431,-0.5460100577814793,-0.09161889392250583,0.6897128290727423,0.8708893178757349,0.1915567845472234,0.7736355407781976,0.7904991804644833,0.0,0.0,0.0,0.0
0.03830612735919289,-0.36245633919705816,0.8452875914400341,0.0019221650496423373,-0.5240650452898411,-0.0016271478587929567,0.8516745188020622,0.08384564209083865,0.34567055641281735,-0.5707433301295148,-0.05869177082608708,0.2938475867608971,-0.5423302793788252,-0.11651897195445138,0.6955781305027727,0.864441525509735,0.20286388557382568,0.7676677819924512,0.7966195049008321,0.0,0.0,0.0,0.0
0.03701490544869702,-0.36373253503389674,0.8448585351500189,0.0013290822203896179,-0.5234665471349792,-0.0010712708049348443,0.8520445175869019,0.08588235348559166,0.3362152361262493,-0.5603451717132156,-0.06944349764886289,0.29995990156937413,-0.5402052736301141,-0.14996869479147568,0.7039894572513542,0.8598199684908219,0.21401679193814788,0.7620648746915392,0.8016996381134289,0.0,0.0,0.0,0.0
0.03608546708212967,-0.3645500090007894,0.8444893499148863,0.0006026436850171238,-0.5228723011401996,-0.00036611702992314985,0.8524107340239573,0.08687088454032452,0.3305108293677196,-0.5566759891023437,-0.08010594446043265,0.30769067761808017,-0.5414432479887098,-0.1930202112516571,0.7149779891773698,0.8581682837326449,0.22444175505209468,0.7579579595462705,0.8050702391422979,0.0,0.0,0.0,0.0
0.0356372791864202,-0.3649634744208036,0.8441367125113449,1.1747951458524174e-06,-0.5224943102874149,0.0002844069855468139,0.8526427240225328,0.08705099557793197,0.3285573488059208,-0.5581905462901964,-0.08790699214399245,0.3166708634228975,-0.5493919307538435,-0.2337925023509699,0.7249056928031254,0.8602513423584256,0.23249466747447378,0.7554753872084917,0.8080821277901291,0.0,0.0,0.0,0.0
0.035664860703834074,-0.36505663670748784,0.8441353568228802,4.658469300201034e-05,-0.5224567216772885,0.0002864541991108601,0.8526657549990374,0.08718692115537933,0.3285109735352608,-0.5581757313754879,-0.0879735947086617,0.3167095516621791,-0.5493863836174115,-0.23381543139680738,0.724930145964591,0.8602615524848579,0.2325606292915729,0.7553898521478627,0.8080429667734017,0.0,0.0,0.0,0.0
0.035664860703834074,-0.36505663670748784,0.8441353568228802,4.658469300201034e-05,-0.5224567216772885,0.0002864541991108601,0.8526657549990374,0.08718692115537933,0.3285109735352608,-0.5581757313754879,-0.0879735947086617,0.3167095516621791,-0.5493863836174115,-0.23381543139680738,0.724930145964591,0.8602615524848579,0.2325606292915729,0.7553898521478627,0.8080429667734017,0.0,0.0,0.0,0.0
0.036481366801748995,-0.36567929247514963,0.8444004803842843,0.00012715554885179187,-0.5230898778712513,5.423930824067293e-05,0.8522775138170684,0.08886211788635402,0.3303676044629041,-0.5561290208694166,-0.08635283908168823,0.3220874236958367,-0.5550572649740062,-0.23441799019062018,0.7302679759570145,0.8584826699864595,0.23614004668600921,0.7599940106098859,0.8082234324548369,0.0,0.0,0.0,0.0
0.03802479110424643,-0.3667727099880836,0.8449286756476393,0.0003595120511644882,-0.5244537533995609,-0.0007935109928078151,0.8514384896376848,0.09258868838599237,0.3333636477599164,-0.5497309267964127,-0.08268925445358045,0.33155983245376247,-0.5642931907919598,-0.2392086118845127,0.7416378026016142,0.8554866643300988,0.24027384698354068,0.7687509316606184,0.8085986156403768,0.0,0.0,0.0,0.0
0.03922585502963376,-0.36815909835392513,0.845901394375758,-0.00048710525249033413,-0.5241454654764186,0.000243740800753,0.8516285776906524,0.08386036018181282,0.32276771958179384,-0.5401026325393239,-0.08119215850426288,0.3417864767219925,-0.5774277663979049,-0.2208814456130564,0.7461749824082892,0.8424442699496162,0.19818440805743442,0.7470898897555427,0.8243906670018633,0.0,0.0,0.0,0.0
0.04046248071657359,-0.3696537787129589,0.8466437423801542,-0.001321262392512522,-0.5242389354081138,0.0011280017811193513,0.851569445482774,0.07075380889704755,0.3137603280883655,-0.5375215001708846,-0.07912538439050319,0.35160679759598257,-0.5889812224623228,-0.20393423070678254,0.7510758346607217,0.8323021119947063,0.15133660498027027,0.7284580168926759,0.8361626221167651,0.0,0.0,0.0,0.0
0.041807787728257294,-0.3714138707420376,0.8472488479492237,-0.0018203037345477639,-0.5246245750613446,0.0015038256098967957,0.8513304177841601,0.057538330262716264,0.30721828993980316,-0.5386825317580689,-0.0758247557981116,0.36248659463726113,-0.602676780799328,-0.1909982749675507,0.7573549505348203,0.8236404466570564,0.11428120533155786,0.7162095712170627,0.8461508206426358,0.0,0.0,0.0,0.0
0.04305614139633823,-0.37342941348015735,0.847750729946882,-0.0020787467656679082,-0.5251185424364461,0.0015752320107205355,0.851025095896366,0.04566575610576455,0.3023506527106521,-0.5419300302269356,-0.07161388787498903,0.3732285191976965,-0.6168411044578138,-0.17974929250684876,0.7638192065744238,0.8156728862667036,0.086935660131281,0.708321707618439,0.8554610446017815,0.0,0.0,0.0,0.0
0.04402436754929475,-0.37566259965980026,0.8481724971168012,-0.0022076128460879175,-0.5256119812560037,0.0015254393305811512,0.8507201917437418,0.03547184888917736,0.2983682042120515,-0.5464398606711591,-0.06680615089440825,0.3826275347483204,-0.6294864115305528,-0.1683524791230596,0.7694883702112849,0.8079704209686482,0.06617640681032765,0.7024995071897249,0.8643543747358946,0.0,0.0,0.0,0.0
0.044619219891065987,-0.3781016002392383,0.848518527933143,-0.0022708265902350875,-0.5260478639955994,0.0014452790634870705,0.8504507036276077,0.026819362000360204,0.2946645788749578,-0.551691264831074,-0.06153677224487541,0.3901673619280712,-0.6398332604343793,-0.15585861529796152,0.7738114455620723,0.8003793839102041,0.049340854250759854,0.6972470130866921,0.8728633473561723,0.0,0.0,0.0,0.0
0.0448117720375237,-0.38075089151950725,0.8487844123417704,-0.0022918034796748778,-0.526416610270372,0.001359220519153106,0.8502225900244254,0.019404430382964622,0.29087949156558424,-0.5573404634501185,-0.055824150581666926,0.3957284719316603,-0.6477159696170403,-0.1420271381867778,0.7766202968128265,0.7929185440404032,0.03468435226613414,0.6918155267277494,0.8810039700465077,0.0,0.0,0.0,0.0
0.04460736891232225,-0.3836270175007401,0.8489578766496113,-0.0022787267399501316,-0.5267195152194682,0.0012701967483088252,0.8500351441508954,0.012909306993609645,0.2868105697294178,-0.5631225280860109,-0.04964003868122892,0.3994085739444602,-0.653348244492679,-0.12684154958907218,0.7778821358916608,0.7856635744082583,0.02130341315722374,0.6859063692613581,0.8887652754454812,0.0,0.0,0.0,0.0
0.04402649928349033,-0.3867510567689504,0.8490184609173284,-0.002232012383291496,-0.5269621305369807,0.0011718113132262007,0.849885026317615,0.007075777813087089,0.28243660344552135,-0.5687714074738859,-0.042938614744236915,0.4013859856968691,-0.6570974129206844,-0.11039662220083107,0.7776057012086861,0.7787518847986218,0.008801961961583985,0.6794864931476811,0.8960554604817208,0.0,0.0,0.0,0.0
0.04309267653331717,-0.3901438004865637,0.8489373160974153,-0.0021502307821573714,-0.5271485568881756,0.0010577303209083635,0.8497697668691594,0.0017147530440648892,0.27792985362015254,-0.5739439439953667,-0.03567729746370362,0.401846373264951,-0.659372546559016,-0.09280447089279065,0.7757696816220955,0.7723859645555367,-0.0028967913879765616,0.6726838679251546,0.9026157995911935,0.0,0.0,0.0,0.0
0.04182595287452779,-0.3938210345594898,0.8486780653816012,-0.0020316555341640856,-0.5272811726773828,0.0009237643189330164,0.8496879332880027,-0.003309584730799095,0.2736452269390673,-0.5781321840673407,-0.02782788573563949,0.40093781212520657,-0.6605450696501911,-0.07418795793712754,0.7723010236178601,0.7668409399766867,-0.013651846319451133,0.6657797683172187,0.907886518289163,0.0,0.0,0.0,0.0
0.04023970085891813,-0.39778852191862746,0.8482012679327505,-0.0018737743375562344,-0.5273633359865371,0.0007663727127078271,0.8496374600379553,-0.008096734836709633,0.2700170561857195,-0.5805657373416307,-0.019383703091112155,0.3987351837728553,-0.6608620240877234,-0.054714905420346335,0.7670966409332864,0.7624429125114701,-0.02317943053076591,0.6592894087265568,0.9107969412878247,0.0,0.0,0.0,0.0
0.03833835478991677,-0.40203816788733276,0.8474786049703661,-0.0016753141364287572,-0.5274010391438284,0.0005850144643681812,0.8496146155702776,-0.012713921143236983,0.26726533987058937,-0.5801518649111109,-0.010369828332221252,0.3951998423592682,-0.6603099898462845,-0.0345846567106036,0.7600894597648488,0.759434639947786,-0.03119288576519707,0.6540722465564807,0.9095598803479906,0.0,0.0,0.0,0.0
0.03611331447310976,-0.4065500637609733,0.8465081659574417,-0.0014424959690471717,-0.5273915742504522,0.0003888564027191827,0.8496210304634102,-0.017214573245561773,0.26540148205186326,-0.5769573407867029,-0.0008470397921891831,0.39016260555817445,-0.6585715944752677,-0.0139373611704822,0.751281536355847,0.757766980874654,-0.03770486647296782,0.6501925767719043,0.9041649938730143,0.0,0.0,0.0,0.0
0.033546202900944774,-0.4112897509931223,0.8453143542038283,-0.0011884985376999768,-0.5273248161507349,0.00019455771362678802,0.849662926041919,-0.02165838360668047,0.2642302341745294,-0.5722092416523615,0.0090839805904775,0.3833410848316249,-0.6550515443703595,0.007089507959495863,0.7407687987157271,0.7571045831001232,-0.04307874633092409,0.6469126809754958,0.896353198665512,0.0,0.0,0.0,0.0
0.03061844254151403,-0.41619869692794276,0.8439351380907053,-0.0009276805135128143,-0.5271949736008239,1.8573005663746744e-05,0.8497438430926904,-0.02613305591670046,0.26334806055496124,-0.566815923778963,0.019270249605336014,0.37438087372443746,-0.6489448630184728,0.028226414968246523,0.7287384813321421,0.7570350464515605,-0.04779017588288905,0.6438120954313663,0.8871270400909274,0.0,0.0,0.0,0.0
0.027319338584146775,-0.42118990597260914,0.8424124278056424,-0.0006745863418256174,-0.5269995880786177,-0.00012516556522001323,0.8498652619279222,-0.03078003836904072,0.26245156120663865,-0.5614320459221389,0.029501000703915356,0.36291450677149345,-0.6393757930057203,0.04906047987680559,0.7154247679003514,0.7572053980168291,-0.0523518714604084,0.6406629929592168,0.8769678699129659,0.0,0.0,0.0,0.0
0.023656684743366647,-0.42614541589977084,0.8407902839797005,-0.0004447874223328529,-0.5267398239741672,-0.00022495562993247222,0.8500264168828972,-0.03578254443183683,0.261475265059137,-0.5565573374932538,0.03950555774943867,0.3486226128743472,-0.6254993612133177,0.06906992511733084,0.7011031783880194,0.7573765699594482,-0.0573673898675721,0.6373268129761188,0.8660549093197726,0.0,0.0,0.0,0.0
0.019672170321131756,-0.43091501124654674,0.8391069212505003,-0.00025642083449008856,-0.5264200736260852,-0.00026798312807086805,0.85022454005804,-0.04131718280681302,0.2606277146614761,-0.5526182325110846,0.048951244705347084,0.3313382709463727,-0.6067024630950321,0.08768772299763568,0.6860487157561181,0.7575387745167803,-0.06361146352343924,0.6337149772483188,0.8544024567543601,0.0,0.0,0.0,0.0
0.015460741998372263,-0.4353170532758514,0.8373595201723075,-0.00013029990378210304,-0.5260267638888216,-0.0001951528430045639,0.8504679821192311,-0.04759660728668161,0.26036010261580367,-0.5502840326459961,0.05736275534824644,0.3112963108472099,-0.5832338150332542,0.10453472556061988,0.6702513569792229,0.7581945785103642,-0.07186704412499141,0.6297656508830519,0.8420605055231768,0.0,0.0,0.0,0.0
0.011505232777044037,-0.43929368971044236,0.835515289808757,-6.414587975594053e-05,-0.5255357739278044,-0.00010714105073519641,0.8507714938385071,-0.054702753088332744,0.2608859913267893,-0.548373871489472,0.06488752677791537,0.2918030677115521,-0.5610032063239309,0.11921071125922654,0.6545032142014238,0.7600487054657268,-0.08373691150446023,0.6264613420583702,0.8289434846590287,0.0,0.0,0.0,0.0
0.008070440638873506,-0.4426333602360928,0.8336765250937423,-4.7707745466224885e-05,-0.5250421972654471,-1.1141631949496575e-05,0.8510761944094702,-0.06251233026133118,0.2625972701766614,-0.5474348586286678,0.07115013937082972,0.27438695658597184,-0.5417683427155711,0.13118585412646128,0.6397475963133081,0.763439970737984,-0.10058948460645882,0.6236126328205328,0.8149972516414329,0.0,0.0,0.0,0.0
0.005395760905932731,-0.4450888495566057,0.8319839645664171,-3.7524957516918905e-05,-0.5246343877486386,4.1929134246663175e-05,0.8513276431700291,-0.07013875390212182,0.26532147279674145,-0.5483167489922491,0.075761598509865,0.260490072406619,-0.5271363613676053,0.13953181130326364,0.6270441575516076,0.7686381504445239,-0.12233715316011406,0.6210084134802961,0.8000286064403753,0.0,0.0,0.0,0.0
0.0038197952440760037,-0.44645563331462296,0.8307131855921611,2.1968687923587768e-05,-0.5244350900595698,-8.591706888956095e-06,0.8514504305934493,-0.07556336248441935,0.26846069260637667,-0.5516272128163316,0.07842813826152932,0.25215242639018803,-0.5190845046980377,0.14348853580653767,0.6184253444669155,0.7746543671222375,-0.14340979073257545,0.6199099755295228,0.7848881678378336,0.0,0.0,0.0,0.0
0.003743268124740276,-0.4467537884920251,0.8305856095618103,0.00022851080541071828,-0.524466053871494,1.0207226425821563e-05,0.851431327832778,-0.07561552618793985,0.2685045111591009,-0.5516334864848463,0.07875098969305175,0.2518933278107302,-0.5190942388497464,0.14357739604204972,0.618217132992613,0.7745434105787435,-0.1434402331481458,0.6199626949978665,0.7848989921121666,0.0,0.0,0.0,0.0
0.0037432681247402885,-0.446753788492025,0.8305856095618103,0.0002285108054106522,-0.5244660538714944,1.0207226425804549e-05,0.8514313278327778,-0.07561552618793982,0.26850451115910096,-0.5516334864848464,0.07875098969305176,0.2518933278107312,-0.519094238849748,0.1435773960420493,0.6182171329926133,0.774543410578744,-0.1434402331481457,0.6199626949978664,0.7848989921121668,0.0,0.0,0.0,0.0
0.0037432681247402885,-0.446753788492025,0.8305856095618103,0.0002285108054106522,-0.5244660538714944,1.0207226425804549e-05,0.8514313278327778,-0.07561552618793982,0.26850451115910096,-0.5516334864848464,0.07875098969305176,0.2518933278107312,-0.519094238849748,0.1435773960420493,0.6182171329926133,0.774543410578744,-0.1434402331481457,0.6199626949978664,0.7848989921121668,0.0,0.0,0.0,0.0
0.0053857355282902405,-0.44857258206707523,0.8314499970860181,0.000376787626065107,-0.5253134664755261,2.166788646408553e-05,0.8509087022125544,-0.07216555296545533,0.27458322724237394,-0.5534668174182887,0.0823040626157333,0.2633180268514925,-0.5316132585683278,0.15144360140387836,0.628393481449531,0.7629635475843068,-0.13823757382699706,0.6275159655844332,0.7864718596117037,0.0,0.0,0.0,0.0
0.008734014881645935,-0.45220184508572414,0.8345721726524317,0.000591486772640681,-0.5271287451015679,-0.0007545022221276596,0.8497848945218083,-0.06341501158294972,0.2849508764543521,-0.5471653193803904,0.09110103578542895,0.28365446020520013,-0.5467726336140585,0.16477339205798505,0.6578008499709019,0.7264926814683066,-0.13002753671046038,0.6497124230899334,0.7746167184150671,0.0,0.0,0.0,0.0
0.012025056131610458,-0.4557081392238997,0.8373371877775316,0.0007283254794876981,-0.5269430743692911,-0.0002824271570404897,0.84990022129138,-0.057675419390254355,0.3004258556122558,-0.5630133005669162,0.08547299188517604,0.2809112062745335,-0.5391633142261112,0.1436924769385478,0.6488571937705833,0.7647894804048028,-0.11473308298990988,0.669262491680999,0.759071947689148,0.0,0.0,0.0,0.0
0.015839286566506423,-0.45953221848539727,0.8395476218021901,0.0007735700294654827,-0.5268673329491268,-2.9597352860981057e-05,0.8499471831734489,-0.05073254337985392,0.31928668150848877,-0.5857273200832273,0.07642505805067631,0.277549393518809,-0.5367706684122043,0.11854650278243274,0.6457523452834034,0.7936518265624438,-0.09842940836736407,0.6870045589355579,0.7494925998175137,0.0,0.0,0.0,0.0
0.019931426316204155,-0.46370050658683676,0.8408898210785537,0.0008451073805266342,-0.5268501495625217,1.5597607910446394e-05,0.8499577668662005,-0.04264691387103124,0.33974322638368026,-0.6134916154495175,0.06685188302587719,0.2745031964223376,-0.5383485756959933,0.096555805879416,0.6459690387535867,0.8148248614747553,-0.08126932529361244,0.700525552794788,0.74934344887135,0.0,0.0,0.0,0.0
0.023953683685211686,-0.4680467218828717,0.8419596893022286,0.0009821143031781866,-0.5268313658517101,-0.00011290747769273144,0.8499692551252772,-0.03379311090295192,0.3586111490832951,-0.6388740259945054,0.05770403622698114,0.2725795212796243,-0.5420245089656194,0.07962638929465193,0.6471821385319914,0.831844306937019,-0.06362088015992118,0.712492511422584,0.751686587016873,0.0,0.0,0.0,0.0
0.027689871810539488,-0.47247160671087873,0.8430924019306516,0.0012052274637910794,-0.5269260492778954,-0.0003277917049828796,0.8499102179476062,-0.024556001113082218,0.37413204617266843,-0.65723324361244,0.04972776022233426,0.2717388862487459,-0.5465541103142554,0.06721526764322848,0.6487249514314701,0.8464783008454069,-0.04564110449025959,0.7246672803864375,0.7531494273905588,0.0,0.0,0.0,0.0
0.031022465833546422,-0.4769103863201364,0.8443116681150431,0.0014725414766908525,-0.5270620498618472,-0.0005800154459213875,0.8498253295819733,-0.015160276887068771,0.38622996225844325,-0.6690247036900504,0.042950827627941855,0.27132608204485265,-0.5516194822233751,0.057858514446869055,0.6501163555178491,0.8595536518400944,-0.02717791813558787,0.7368814933329226,0.7531538765574162,0.0,0.0,0.0,0.0
0.0339114736125196,-0.48130352090001166,0.8455607843600814,0.001750681038341959,-0.5271844357059196,-0.0008391318812931703,0.8497486697388934,-0.005792704610517126,0.39518240725305337,-0.6754246846398647,0.03705465007847629,0.270830576412523,-0.5570123983535941,0.05018853912540781,0.651266911823459,0.8715031711374982,-0.008273028756919626,0.7486350850091352,0.7520799801622462,0.0,0.0,0.0,0.0
0.03636655099378833,-0.48559493816009575,0.8467774202056844,0.0020182307819062643,-0.5272648110080487,-0.0010884110871160577,0.8496979234872021,0.0033900684913111944,0.4013977094354489,-0.6776316878667163,0.03164247159333647,0.27001265418109865,-0.5625464693909782,0.043224306709145344,0.6522310936169528,0.8825785834779533,0.01086796333398811,0.7595138644719658,0.7504629241315273,0.0,0.0,0.0,0.0
0.03842357261176999,-0.4897371275358546,0.8479106575619337,0.0022629019263738937,-0.5272918051212898,-0.0013195760308744378,0.8496802282305398,0.012265356439240592,0.4053277704380813,-0.6767295576932171,0.026378488332243936,0.2688838484306605,-0.5679999327653479,0.03633800259507086,0.6531057133364525,0.8928681829467736,0.02996940026959447,0.7692409691685895,0.7487862773104609,0.0,0.0,0.0,0.0
0.04012768457482075,-0.49369515388527624,0.8489194771781577,0.0024779750551375277,-0.5272625820600124,-0.0015287390310442014,0.8496974121156364,0.020747391230741832,0.407412179673086,-0.6736650704455321,0.021040891947290835,0.2676761281751962,-0.5730514959847096,0.029110730676537945,0.6540254836408467,0.9022376215413174,0.048767348035273425,0.7776302533167849,0.74748093846123,0.0,0.0,0.0,0.0
0.041521751050240925,-0.4974482096387304,0.8497675246295435,0.0026595291714906553,-0.5271777024769859,-0.0017137644014720511,0.8497491747140734,0.028786705831181147,0.4080371488557414,-0.6692413825408481,0.015523125748149633,0.2667956367729428,-0.5771976860792938,0.02119175652135818,0.6552122404138291,0.9102068378095373,0.06706154687418045,0.7845301123100729,0.7469693473174913,0.0,0.0,0.0,0.0
0.04263864589232204,-0.500989270319028,0.8504215256188031,0.002804972105986539,-0.5270392420400444,-0.001873040798565201,0.8498342551342037,0.0363665986051268,0.4074988683643766,-0.6640821312859669,0.009803184356971995,0.26669679213045006,-0.5796536098196597,0.012224342014142102,0.6570742899051678,0.9157436347400775,0.08473537968328668,0.7897967837010845,0.7476741916535716,0.0,0.0,0.0,0.0
0.04349629275249787,-0.5043232321861318,0.8508609363885163,0.0029138503168187457,-0.5268530316064471,-0.0020069214726189943,0.8499490366072721,0.043498365226647684,0.40595543936903455,-0.6585038745968111,0.0038885654474215886,0.26758981758177613,-0.5792854221656782,0.0019094164614786874,0.6603322498132103,0.9170601664785794,0.10173194932584533,0.7933367869171372,0.7499105715770916,0.0,0.0,0.0,0.0
0.04409331080894325,-0.5074618563328229,0.8510913656697138,0.0029860693946283374,-0.5266222111647828,-0.0021153031746222934,0.8500915571807338,0.050204589653893544,0.4033981774881403,-0.6524567863602071,-0.0022314741369367577,0.26948152639604656,-0.576097515170964,-0.009706332526680753,0.6648936006380326,0.914142298224379,0.11803364117724703,0.7951580144049912,0.7537035578713772,0.0,0.0,0.0,0.0
0.044411390951681846,-0.5104214077396113,0.8511439327549079,0.0030206439471455707,-0.52634644984793,-0.002197015888861638,0.8502619970125733,0.05651230758306599,0.39966557872157055,-0.6455557056014565,-0.008617249173564056,0.2721887433281948,-0.5712490036100379,-0.02227838766995844,0.669871264299376,0.9087746837892798,0.13364273548968855,0.7953652374426932,0.7587865352145142,0.0,0.0,0.0,0.0
0.04442368934266729,-0.5132202539575605,0.8510591890471929,0.0030152412242455315,-0.5260271067514862,-0.0022510912276488965,0.8504594780889356,0.06245106299127847,0.39450403311586996,-0.6372137496268347,-0.015390422316310567,0.27531336817137353,-0.5655751706937248,-0.03551391896772327,0.6747239167672653,0.9020405584408361,0.14856587691877465,0.7940980745683688,0.7647892012780715,0.0,0.0,0.0,0.0
0.04410318094734843,-0.5158719767161816,0.8508735347657956,0.0029639257163583056,-0.5256647192773756,-0.0022741100653499795,0.8506836347754648,0.06803770046344845,0.38765522959273385,-0.6268589346566625,-0.02271617865964713,0.2785448658074027,-0.5596510195343262,-0.04931897770853824,0.6791530081464283,0.8945472816688415,0.16281175399858347,0.7914772210796172,0.77136416090989,0.0,0.0,0.0,0.0
0.04343450733527495,-0.5183771366953327,0.8506160046832706,0.002856629453931672,-0.5252600281195194,-0.0022588212733714915,0.8509339811374907,0.07325970657545099,0.37895014833809576,-0.6141018996712015,-0.03076904091010499,0.28178942982208305,-0.5538874189118306,-0.06390236492805079,0.683069119036889,0.8866717429535458,0.17637220652401436,0.7876231661358843,0.7782043930588093,0.0,0.0,0.0,0.0
0.042432366816657914,-0.520712676427972,0.8503077640619434,0.0026782443746177407,-0.5248164589619704,-0.002191382760870027,0.8512083818027661,0.0780526948051648,0.36845382577237157,-0.5989776193524092,-0.03966689963090177,0.2852011587340079,-0.5486061231890237,-0.07997979784562446,0.686681988910894,0.878756828008175,0.18921451702916067,0.782713448692723,0.7850303541776757,0.0,0.0,0.0,0.0
0.04117049703654559,-0.5228160739224068,0.849956981286369,0.0024057661459080466,-0.5243399233547564,-0.002044208497649209,0.8515031874733044,0.08226372128487097,0.35673623289998996,-0.5824510681307498,-0.049373292281527655,0.28914560175193926,-0.5440620281751382,-0.09918208075229583,0.6907295594550782,0.8712723486135379,0.20129946980999477,0.7770434050827607,0.7916107984483328,0.0,0.0,0.0,0.0
0.03982488259486054,-0.5245578084615383,0.8495353743627356,0.0019895889300730408,-0.5237706200565001,-0.0017222508901952494,0.8518552770003776,0.0855274643657773,0.3455664377630661,-0.5681709299048905,-0.059744559816026555,0.29385511637256384,-0.5402082069452208,-0.12439695354382553,0.6965461288401894,0.8647558995626653,0.21280454676448335,0.7709278247516913,0.7977557651474169,0.0,0.0,0.0,0.0
0.038541930512354286,-0.5258776959235268,0.849094724646293,0.0013962016177653917,-0.5231177692344094,-0.001160496891430618,0.8522584721662921,0.08765085234104883,0.3362112146363166,-0.5582452060532788,-0.0704275313270553,0.29967283130412586,-0.5377664144401071,-0.15850646278965702,0.7049041634251794,0.8600936047550806,0.22409449268147336,0.7651215349218462,0.8028318698708846,0.0,0.0,0.0,0.0
0.0376017520333911,-0.526732177034875,0.8487086013859073,0.0006697657297047377,-0.5224500663552188,-0.0004422394108290191,0.8526695045582422,0.08869902983617822,0.3305786131210919,-0.5551429956391736,-0.08103005102863882,0.3068977472740613,-0.538459526697251,-0.20246175590698565,0.7157257717669897,0.858417519200659,0.2345973253821835,0.7606952356456573,0.806186080863376,0.0,0.0,0.0,0.0
0.037131242228385264,-0.5271694445908519,0.848314271449698,8.418907166692568e-05,-0.5219894098510902,0.0002073535273530764,0.8529519364653705,0.088924246868604,0.32870777311943283,-0.557356132363313,-0.08886312137611342,0.3151169908716569,-0.5455487669185901,-0.24405429757962543,0.7253065428778791,0.8605532207730177,0.24247828862936124,0.7576980186701435,0.8093837038279816,0.0,0.0,0.0,0.0
0.037162994754556304,-0.527273308897988,0.8483130684783176,0.00013690379789179524,-0.5219486235030641,0.00021042688858264162,0.8529768879642233,0.0890724379306751,0.3286610415156306,-0.5573416190929368,-0.08893088288392259,0.31515575777015553,-0.5455427935092501,-0.24407856962065688,0.7253306214857608,0.8605633720222121,0.24254709441546485,0.757610836348645,0.8093431257926222,0.0,0.0,0.0,0.0
0.037162994754556304,-0.527273308897988,0.8483130684783176,0.00013690379789179524,-0.5219486235030641,0.00021042688858264162,0.8529768879642233,0.0890724379306751,0.3286610415156306,-0.5573416190929368,-0.08893088288392259,0.31515575777015553,-0.5455427935092501,-0.24407856962065688,0.7253306214857608,0.8605633720222121,0.24254709441546485,0.757610836348645,0.8093431257926222,0.0,0.0,0.0,0.0
0.0379882411206413,-0.5279300690665537,0.8485845932499141,0.00020542973773155442,-0.5226265572441483,-1.2556664749070503e-05,0.8525616923742715,0.0908055975007911,0.3303513242196898,-0.554761901117354,-0.0872438834783175,0.3205466887215957,-0.5509770320039357,-0.24458525361718836,0.7308290847843809,0.8588262805594752,0.24663680718110453,0.7624489350930315,0.8096055725794626,0.0,0.0,0.0,0.0
0.0395326501550816,-0.529081041755238,0.8491061376846551,0.00039384818478297687,-0.5240079910886533,-0.0007901605838834244,0.8517128893031342,0.09455111780236813,0.33317879478814694,-0.5481317985818787,-0.0835614226037728,0.33010920306731,-0.5601819911288244,-0.2486616306326337,0.7421017876924366,0.8558760703962848,0.2520078050171134,0.7714420734973625,0.8101212380307976,0.0,0.0,0.0,0.0
0.04074686999949622,-0.5304988403392439,0.8501038240179379,-0.00044105891770306825,-0.5237904765795601,0.00021555198502068944,0.8518469907494715,0.08584703626499968,0.3230316104338583,-0.5387464039419685,-0.0819373466206867,0.3402583845472439,-0.5727100496863698,-0.23063446422258543,0.7471187892380211,0.8428855652027838,0.20823075134013072,0.7499475016572377,0.8257034075642138,0.0,0.0,0.0,0.0
0.04198996856028235,-0.5320333986170267,0.8508536992502729,-0.0012815601612944567,-0.5239564241384997,0.0011000276954414093,0.8517433963034986,0.07278945334880135,0.31431577691542284,-0.5363810480707625,-0.07977333934246884,0.3500447611707528,-0.5838317188480096,-0.21360642391868706,0.7522851944354683,0.8328979636353359,0.15986872112263936,0.7313453424914789,0.8373987817583092,0.0,0.0,0.0,0.0
0.04333891937342902,-0.533843418847292,0.8514666696079897,-0.0017981208564915906,-0.524384789187513,0.0014995600775031335,0.8514781917052996,0.05964546015453573,0.30790126585592165,-0.5376672303693878,-0.0763954089576944,0.36098010851886414,-0.5973584278190867,-0.20028015107881447,0.7586897112353844,0.8242661983544765,0.1219853738042478,0.7190811433273863,0.8473878277835618,0.0,0.0,0.0,0.0
0.044594344784872175,-0.5359148305863036,0.8519749005882048,-0.002073460752350021,-0.5249012614131883,0.001595613458641777,0.8511591041309743,0.04785235315370115,0.30307533413862753,-0.5409492342596027,-0.07210190225508925,0.3718745035806969,-0.6116288542608345,-0.18856982072298678,0.7652177853609141,0.8162586940204906,0.0943165347839903,0.7112239319217949,0.8567429686260749,0.0,0.0,0.0,0.0
0.04557155508592756,-0.5382004087826106,0.8524026010095358,-0.0022135076468309854,-0.5254121811081618,0.001563090074722692,0.8508435209111485,0.03773518727748369,0.29912528767584023,-0.5454610395060673,-0.06721119737953873,0.38143737396068106,-0.6244387768920066,-0.17678100279156927,0.7709492021863391,0.808506573560006,0.07347733056625808,0.7054836756840206,0.8657180411505511,0.0,0.0,0.0,0.0
0.046177214121956675,-0.5406839864632091,0.8527538702467944,-0.002281860538254525,-0.5258646426614083,0.0014915405439347648,0.8505638988446894,0.02915515885832996,0.2954658732035006,-0.55070716842004,-0.061864513049917795,0.38913008699547724,-0.6349507433162342,-0.16399749839534455,0.7753447794232488,0.8008860443099479,0.05665899395341928,0.7003486666556694,0.8743305895419801,0.0,0.0,0.0,0.0
0.04638267876621439,-0.5433684816746055,0.8530243963904841,-0.0023038794129933353,-0.5262491898612898,0.0014081307523911605,0.850326113604522,0.02180560449800044,0.2917368729871172,-0.5563544466570268,-0.05608688199123627,0.3948314325657455,-0.6429884862893233,-0.14995927398957343,0.7782318541937869,0.7934226430638113,0.042051272292656615,0.6950540645047155,0.8825864934556577,0.0,0.0,0.0,0.0
0.04619362997811934,-0.5462699654428184,0.853202498212892,-0.002289500846121897,-0.5265670161367263,0.0013182295031705727,0.8501295183521844,0.015366052196595089,0.2877334824731832,-0.5621413398050527,-0.04985414907905477,0.3986416514678858,-0.6487629814138156,-0.13462737551610185,0.779575066126888,0.7861903176421895,0.02871768845890764,0.6892899290846262,0.890468715682024,0.0,0.0,0.0,0.0
0.045630694709619,-0.5494095938858259,0.8532685298741773,-0.0022404456911126543,-0.5268236562803194,0.0012172202095978946,0.8499707841811402,0.009575538564413196,0.28343203977937614,-0.567802269380959,-0.04312252541314655,0.40074171788023727,-0.6526396669171535,-0.11807778963255683,0.7793825957981214,0.7793211714682322,0.016247462671751242,0.6830153949476806,0.8978811402525687,0.0,0.0,0.0,0.0
0.04471728605600253,-0.5528085378014679,0.853194444208505,-0.0021561130407438595,-0.5270233818041639,0.0010998258167419779,0.8498473372267698,0.004242476258696995,0.27900302171162955,-0.5729931503745744,-0.03584980507334751,0.4013190828519556,-0.6550252059780117,-0.10040932298327747,0.777633935305762,0.7730122613488555,0.0045569069135331115,0.6763523003992146,0.904560982430162,0.0,0.0,0.0,0.0
0.04347318096643684,-0.5564832091561813,0.8529444976538962,-0.0020352631281805697,-0.5271688166818396,0.0009623962094206402,0.8497575949738868,-0.0007710414824236463,0.2747998833291168,-0.5772042934734466,-0.02800693979547858,0.4005231884431851,-0.6562894681730786,-0.08173531814527861,0.7742569315847221,0.7675345662900301,-0.006217789023137368,0.6695760106167546,0.9099434985928573,0.0,0.0,0.0,0.0
0.04191142563871751,-0.5604402988740806,0.8524795932971576,-0.0018757445705419162,-0.5272633492122267,0.0008017818361416256,0.8496994758770294,-0.005566056724130285,0.2712547661423275,-0.579663022029258,-0.01958563578795681,0.39843110054981506,-0.6566819692307716,-0.0622143522960864,0.7691477689234039,0.7632112920796205,-0.015796618804277317,0.6631956473811309,0.9129510257004609,0.0,0.0,0.0,0.0
0.04003628784938087,-0.5646729337014962,0.8517713605506793,-0.0016764673711419397,-0.527312761491228,0.0006176745260379184,0.8496693824681626,-0.010209974547105823,0.2685850250046301,-0.579274440256523,-0.01060862691582973,0.39500811505087235,-0.6561978950165593,-0.042037533191536774,0.7622370169943732,0.7602843962072189,-0.023895397903695288,0.6580664019769784,0.9117875739651712,0.0,0.0,0.0,0.0
0.0378392600234097,-0.569162494951471,0.850817535860861,-0.0014432771689791935,-0.5273143601947897,0.00041887902710650463,0.849668939660462,-0.014754023448995152,0.2668022576049316,-0.5761051610145718,-0.0011335108571835489,0.39008970863902576,-0.6545310003731558,-0.021342283115417273,0.7535251118244212,0.758707630028311,-0.030525741124045914,0.6542527639977338,0.9064425461661709,0.0,0.0,0.0,0.0
0.03530227620139561,-0.5738759282814051,0.8496419679535002,-0.001188622541321026,-0.5272580031223236,0.00022145865942371068,0.8497043816975267,-0.019253626773434514,0.26571356639219057,-0.5713844238620855,0.008742685857039478,0.38339897218742414,-0.6510999734997135,-0.0002649847238451186,0.7431059813632492,0.7581503241667139,-0.03604520572008903,0.6510208832251428,0.8986659325755807,0.0,0.0,0.0,0.0
0.032407200026447494,-0.5787563715425091,0.8482818580336342,-0.0009262002129584175,-0.5271374855785896,4.151504900131963e-05,0.8497795077121761,-0.023791064210376765,0.2649172650535312,-0.566023427259154,0.01887093929299781,0.374588376864035,-0.6451186595054853,0.020927901296355016,0.7311629513061996,0.7582040806132625,-0.04092205758628319,0.6479556937357588,0.8894684443594894,0.0,0.0,0.0,0.0
0.029143700654305903,-0.5837186615263544,0.8467782393362439,-0.0006700073277082139,-0.5269496005089467,-0.00010713807824244825,0.8498962631610252,-0.028501756833725418,0.26411120917958536,-0.5606799591274528,0.029044605333527138,0.36329769365120473,-0.6357327393581256,0.041826771420109585,0.7179252356519198,0.7585177464729802,-0.045660590034248646,0.6448343176318009,0.87933837233257,0.0,0.0,0.0,0.0
0.025519695097941306,-0.5886466558023742,0.8451743460301762,-0.0004350966585794731,-0.5266947069951902,-0.0002128941327886344,0.8500543811958367,-0.03356223554953916,0.26323144145829624,-0.5558573954285486,0.038997204611641106,0.3492138751911737,-0.6221176449397614,0.06191008432056741,0.7036644521393495,0.758850929066634,-0.05085342420792061,0.641522665409188,0.868462234103374,0.0,0.0,0.0,0.0
0.021576632916904284,-0.5933918092654616,0.8435080806002452,-0.0002390648267592697,-0.5263770200187028,-0.0002636244487397839,0.8502512017906172,-0.039140430898026976,0.2624895157799535,-0.5519832998099933,0.048401077587275146,0.3321735402209831,-0.6036719317992316,0.08060459302902943,0.688657927045055,0.7591870493401036,-0.057260523094483304,0.6379378031525041,0.8568640385088682,0.0,0.0,0.0,0.0
0.017409469314990468,-0.5977743992162786,0.8417763103686731,-0.00010333302495219039,-0.5259803222968455,-0.00019880322293789384,0.8504967080218894,-0.0454301447383814,0.26232802272696487,-0.5497159870264995,0.05678338134921326,0.31242780262270775,-0.5806877109919772,0.09754055826852534,0.6728922680917877,0.7600079709561833,-0.06561031041293429,0.6340257434787006,0.8446026072123441,0.0,0.0,0.0,0.0
0.013468418959058322,-0.6017287619810144,0.8399557029324108,-2.7491261548641765e-05,-0.52549056308092,-0.00011720264141541885,0.8507994203222455,-0.052562883808855314,0.26298840883970037,-0.5479772017187712,0.06426799307568393,0.29301604298320766,-0.5585259654281459,0.11227248133248253,0.6571701873780578,0.7619557119710092,-0.07746460403352914,0.630703997328912,0.8316136818317282,0.0,0.0,0.0,0.0
0.010045787764152783,-0.6050542880218637,0.8381420349891465,-4.819162887073448e-06,-0.5249974837166047,-2.513251194792438e-05,0.8511037782999004,-0.06037569941794253,0.2648557821612153,-0.547195770914918,0.07050535027678165,0.27567468047926313,-0.5393412857518696,0.12432786281919497,0.6424598702242683,0.7653619656279675,-0.09409923043689311,0.6278805079194265,0.8178931019944913,0.0,0.0,0.0,0.0
0.007380640998322346,-0.6075044825321564,0.8364768501464935,5.184139395592197e-06,-0.5245916112426525,2.8953553777077348e-05,0.8513540042477361,-0.06799576463614315,0.26778457449800835,-0.548259026158487,0.07510470645059122,0.2618315714439886,-0.52469624086045,0.13278743029638182,0.62983499077288,0.7704680020978869,-0.11542693382302724,0.6253217424461619,0.8033246942752881,0.0,0.0,0.0,0.0
0.00581086618923614,-0.6088735597202485,0.8352304885691538,5.602675304969232e-05,-0.5243946928133864,-1.5391826736552826e-05,0.8514753095499885,-0.07341683959380908,0.27116779833302856,-0.5518333816679756,0.07777081694698812,0.25352197960426465,-0.5165816627535892,0.13687830790626815,0.6213044919204388,0.7763187931342259,-0.1360169861064914,0.6242003597152317,0.7888085017160774,0.0,0.0,0.0,0.0
0.00573400068338142,-0.6091716068705747,0.8351045280069572,0.00026256150684131243,-0.5244257013518957,3.052097901683262e-06,0.8514561731608458,-0.07346860281084097,0.2712117649529571,-0.5518396803270026,0.07809343933651179,0.2532653596074824,-0.5165914320747089,0.13696606985200402,0.6210976017142315,0.7762092571224862,-0.13604643301307057,0.6242531002007375,0.7888194655502364,0.0,0.0,0.0,0.0
0.005734000683381432,-0.6091716068705746,0.8351045280069571,0.00026256150684119843,-0.5244257013518957,3.052097901756989e-06,0.8514561731608457,-0.07346860281084092,0.2712117649529571,-0.5518396803270023,0.07809343933651185,0.2532653596074824,-0.5165914320747084,0.13696606985200518,0.6210976017142313,0.7762092571224863,-0.13604643301307,0.6242531002007381,0.7888194655502366,0.0,0.0,0.0,0.0
0.005734000683381432,-0.6091716068705746,0.8351045280069571,0.00026256150684119843,-0.5244257013518957,3.052097901756989e-06,0.8514561731608457,-0.07346860281084092,0.2712117649529571,-0.5518396803270023,0.07809343933651185,0.2532653596074824,-0.5165914320747084,0.13696606985200518,0.6210976017142313,0.7762092571224863,-0.13604643301307,0.6242531002007381,0.7888194655502366,0.0,0.0,0.0,0.0
0.007362745781322705,-0.6109661394914616,0.835964255573936,0.000406227818442651,-0.5252686649257859,1.6010661830552806e-05,0.8509363456626473,-0.07006366594336329,0.27718234458458735,-0.5535265174513504,0.08159599434578568,0.2645729256851893,-0.5289315644037769,0.1447456816659509,0.6311946917276318,0.7647808604379395,-0.13076285291943904,0.6318892563766284,0.7901522057103132,0.0,0.0,0.0,0.0
0.010682227182604195,-0.6145356669223622,0.8390534034157582,0.0006344429014720928,-0.5270743608619246,-0.0007716235931229442,0.8498185807578162,-0.06142635879790163,0.2873340820142894,-0.5469956543297374,0.09027473742435853,0.2846649656917369,-0.5438436808075716,0.15767696803562506,0.6603257678212373,0.7289196816623237,-0.12266464947726595,0.6540313213174438,0.7780593998227116,0.0,0.0,0.0,0.0
0.013950849976052792,-0.6179881548792593,0.8417779537101012,0.0007623056480543386,-0.5268925033306817,-0.0003034025953156877,0.8499315365197904,-0.055768817213781664,0.30266384486744213,-0.5627181441442737,0.08459658111981314,0.2821168282315552,-0.5368839551164007,0.13689451322785195,0.6514110122971138,0.7667659721188764,-0.1073298546927591,0.6734834262251718,0.762490443092981,0.0,0.0,0.0,0.0
0.017732835214574805,-0.6217533760996364,0.8439440456872769,0.000805427213723178,-0.5268160975034656,-5.650358437060957e-05,0.8499789100357533,-0.04891987887999772,0.32134524529796693,-0.5852801690593441,0.07547985451769287,0.27881905246897554,-0.5348860421804117,0.11199149655225762,0.6482491002467274,0.7953269489672073,-0.09101361429466484,0.6911076083177153,0.7528594733210224,0.0,0.0,0.0,0.0
0.021788637650248573,-0.62585338481668,0.8452543626130624,0.0008772918948202822,-0.5267905199122028,-1.744108278881274e-05,0.8499946930336512,-0.040949583358267774,0.34163568263126226,-0.6129112452322456,0.06580307442115904,0.275771338576414,-0.5366584127498036,0.09011798015160069,0.6483834275211678,0.8163411782731386,-0.07386555029877206,0.7045935444666999,0.7524420201593202,0.0,0.0,0.0,0.0
0.025765468069798816,-0.6301318328050635,0.8463117089253208,0.001017187031480436,-0.5267730814042305,-0.00015139110275426865,0.8500053312298511,-0.032215256757317914,0.36024015895089045,-0.6378736534550231,0.056561628336342776,0.2738311202079474,-0.540411782570937,0.07320024297224717,0.6495134382378918,0.8332876058195026,-0.056247343526662594,0.7166215818056382,0.7543678382931517,0.0,0.0,0.0,0.0
0.02945238864684714,-0.634494162486453,0.8474321221673281,0.001241923406146177,-0.5268658603591012,-0.00037119700790152853,0.8499474601568608,-0.023091796576464832,0.37549739251524955,-0.6558417497759699,0.048499602803078204,0.2729359850280838,-0.5449748370323609,0.06070727910132682,0.6509626644067187,0.8478785611931081,-0.03827656966482458,0.7288233296797034,0.755453812802934,0.0,0.0,0.0,0.0
0.03273609577426109,-0.6388762069871202,0.8486358554124641,0.0015093374242634617,-0.5269962732974012,-0.0006275271114790866,0.8498660224064231,-0.013802181417240132,0.3873517275569027,-0.6673173691420898,0.0416406433460669,0.27244545181436886,-0.5500486350020478,0.05120873342732783,0.6522626846283963,0.8609237891432799,-0.019802085145322203,0.7410147564090768,0.7551631749086073,0.0,0.0,0.0,0.0
0.03557933310391597,-0.6432184171132901,0.8498671917802612,0.0017864810470086606,-0.5271106332074389,-0.0008899269141263058,0.8497943262197089,-0.004532277056486201,0.3960869885660134,-0.6734728868858043,0.035665835533868824,0.2718643574995216,-0.5554347601623448,0.043369808635460826,0.653328605867132,0.8728505396024557,-0.0008717348173922675,0.7527098110122005,0.753866759668171,0.0,0.0,0.0,0.0
0.037993284243693054,-0.6474649624173362,0.8510655108920154,0.0020524893926179297,-0.5271816709278975,-0.001141856370711523,0.8497493567452651,0.004562760172681242,0.40211313557297423,-0.6754934601674691,0.030180771489502597,0.2709621928442099,-0.5609533125392098,0.036234068106099644,0.654214102633995,0.8839065002325928,0.018304247695862915,0.763511038464408,0.7520809657060209,0.0,0.0,0.0,0.0
0.040014514800300174,-0.6515688674556269,0.8521812906891734,0.002295554045629755,-0.5271987675151961,-0.0013752913616049823,0.8497377822221114,0.013362236214266526,0.4058809159913569,-0.674448834234821,0.024853058228486196,0.2697547058802696,-0.5663872771431839,0.02918884981308851,0.6550134319656007,0.8941758535004972,0.03744867801362228,0.7731546427927911,0.7502727956359914,0.0,0.0,0.0,0.0
0.04168832523584259,-0.655495874528775,0.8531744039085778,0.0025093319211364653,-0.5271594950672224,-0.0015865981298882608,0.8497611739307432,0.021782512320533066,0.4078270593121748,-0.6712732209610789,0.019464314716566018,0.26847508710935347,-0.5714190128750236,0.02182364315010945,0.6558584280337161,0.9035200976319995,0.056298817623026326,0.7814631782850797,0.7488611183322423,0.0,0.0,0.0,0.0
0.04305741108811081,-0.659225840282212,0.8540089389447696,0.0026901987297066545,-0.5270645495316152,-0.001773881831682048,0.8498191435835494,0.02977607209246295,0.4083341127314202,-0.6667595150510993,0.013910844826835033,0.2675291035385203,-0.5755479465235098,0.013793233416704609,0.6569679143069276,0.9114549112943702,0.07465713416037081,0.7882899927433122,0.7482604903887671,0.0,0.0,0.0,0.0
0.04415430890390216,-0.6627522813301197,0.8546517205321774,0.002835803457041234,-0.5269159252832326,-0.0019357590934986327,0.8499104768964786,0.03732778751062578,0.40769450401877405,-0.6615237312024383,0.00817252665299746,0.26736995756936627,-0.5779914967169991,0.004746577357345039,0.6587471013450008,0.9169434752411845,0.09240999450996973,0.7934932775490644,0.7488889352312971,0.0,0.0,0.0,0.0
0.044996563238790074,-0.6660804753156178,0.8550820861081292,0.0029458607940006072,-0.5267192153858757,-0.0020727798384786176,0.8500317015448371,0.04445008536042062,0.4060627266606958,-0.6558769878035277,0.0022573821071349915,0.26820632981671017,-0.577617535660603,-0.005609433024494454,0.6619142343198117,0.9181933652713681,0.10950294559373769,0.7969793295576881,0.7510591644620294,0.0,0.0,0.0,0.0
0.04558243319150912,-0.6692225286959126,0.855305560730084,0.003020266452737145,-0.5264773330305544,-0.0021848960750148524,0.8501809936858918,0.05116641956247789,0.40342597144730424,-0.6497633850809503,-0.003846351753991396,0.27004451157066905,-0.5744314952919657,-0.017228396238837457,0.6663767745753442,0.9151917331258033,0.12592100464265713,0.7987551727003515,0.754794677441448,0.0,0.0,0.0,0.0
0.04589325464719735,-0.6721949856112147,0.8553532275711546,0.0030578298764534838,-0.5261897219687904,-0.0022708101569131806,0.8503586711453497,0.05750432904928623,0.3996180657576365,-0.6427910765636965,-0.010201414597686184,0.27270149296431906,-0.5695924893129347,-0.02977290362933821,0.6712497564293287,0.9097295351902825,0.14166914957375334,0.7989242456353075,0.7598275943029693,0.0,0.0,0.0,0.0
0.04590175257639793,-0.6750162089094269,0.8552654633100994,0.003055929312178599,-0.5258573611236494,-0.0023293278828970553,0.8505640900483189,0.06349312007115565,0.39438096611796003,-0.634368577116514,-0.01693270885110733,0.2757783768005221,-0.5639343525657536,-0.04295758330270618,0.6759937743556652,0.9028952694054235,0.15675489368964182,0.7976232172510246,0.765787089665198,0.0,0.0,0.0,0.0
0.045580313134623816,-0.6776993619736019,0.8550783402182409,0.0030083093782273898,-0.5254802183667838,-0.0023567306111642507,0.8507972355389435,0.06914841629654074,0.3874525931535612,-0.6239223826141045,-0.024208442825543613,0.27896235702457123,-0.5580286019001248,-0.056696593727492015,0.6803110701696358,0.8953004735332143,0.171184800787892,0.7949680016813887,0.7723256368739834,0.0,0.0,0.0,0.0
0.044912869554302536,-0.6802439873415235,0.8548203843273682,0.0029045674450948636,-0.5250582187553915,-0.002345395680325984,0.8510581234701159,0.0744551479866889,0.3786621614213327,-0.611067487458555,-0.032204659481748256,0.2821552557263847,-0.5522792180910076,-0.07121297969591055,0.6841128391536704,0.88732625575227,0.18494471948025268,0.7910725118382368,0.7791360877350729,0.0,0.0,0.0,0.0
0.0439135568473881,-0.6826250424182607,0.8545119176868344,0.002729236471939014,-0.5245935882762011,-0.0022810064140925627,0.8513453561378712,0.07934437659462343,0.36807916554692793,-0.5958579296013574,-0.04103810519340302,0.28550334661622223,-0.5469947894813002,-0.08725538874876883,0.6876127836320544,0.8793215760925068,0.19799146892101055,0.7861059546164221,0.7859389382814821,0.0,0.0,0.0,0.0
0.042656391933769244,-0.6847763032387844,0.8541594926551095,0.0024588155030339513,-0.5240901766611903,-0.002135138786360934,0.851656551748372,0.0836550737841022,0.35629570942661415,-0.5793174125745907,-0.05066925581918201,0.28935685456768495,-0.5424036228349931,-0.1065306943768574,0.6915638713475104,0.8717653063849314,0.2102712086578877,0.7803530781655097,0.7925043226050444,0.0,0.0,0.0,0.0
0.04132001510362647,-0.6865611857319501,0.8537312108856838,0.0020417398106887773,-0.5234802472427376,-0.001808105971830921,0.8520334458212437,0.08700308459773955,0.3451619635721151,-0.565302790360482,-0.06096570502644241,0.29390346859789057,-0.5383940460553888,-0.13206075806882736,0.6973198847251559,0.8651960893381326,0.22195360004129608,0.7741052618926849,0.7986391277567327,0.0,0.0,0.0,0.0
