zhuoxili-jackie/tripod-support-walk/examples/pcbA样数据/trajectory_trotting_acc_f005.csv
root_pos_x,root_pos_y,root_pos_z,root_rot_x,root_rot_y,root_rot_z,root_rot_w,FL_hip_joint,FL_thigh_joint,FL_calf_joint,FR_hip_joint,FR_thigh_joint,FR_calf_joint,RL_hip_joint,RL_thigh_joint,RL_calf_joint,RR_hip_joint,RR_thigh_joint,RR_calf_joint,FL_foot_joint,FR_foot_joint,RL_foot_joint,RR_foot_joint
0.01,0.0,0.8259446621,0.0,-0.523845373591082,0.0,0.8518133742594206,0.0,0.27,-0.52,0.0,0.27,-0.52,0.0,0.6572093368,0.8119390607,0.0,0.6572093368,0.8119390607,0.0,0.0,0.0,0.0
0.01158822885460555,-0.0006915226626694363,0.8269142651749726,0.00010284617615416536,-0.5246381156174789,-5.049489828511372e-06,0.8513253414755769,0.0013048966528829524,0.2766815099266305,-0.5230655499612303,0.001304896652882954,0.27975243192501675,-0.5292494932748456,0.002540676430357113,0.6671984501328941,0.8036057991399637,0.0025406764303571154,0.6665486279269659,0.8074511932958747,0.0,0.0,0.0,0.0
0.014588543504532371,-0.0021681803369009147,0.8292544653697342,0.0003108899095391926,-0.5262493278906879,-0.0003562322059436251,0.8503301837172892,0.004814413912751393,0.28757851765471987,-0.5227069416303696,0.004818081117982779,0.29701388685905633,-0.5425328805338884,0.006622945176723428,0.6896248465637024,0.7825339952187639,0.006640964307487722,0.6866946121002077,0.7941379068451944,0.0,0.0,0.0,0.0
0.01742644360360192,-0.0037674625481301906,0.8305505973201414,0.0006053945506850055,-0.5262923283554437,-0.00035694385591506487,0.850303411261373,0.007761246505285447,0.3033646772363231,-0.5434237535198414,0.005785124291472807,0.2928703332153007,-0.5385522992582477,0.008481678024463622,0.6804451821150921,0.803854085638562,0.012634234077097403,0.6987956265464446,0.7856908971279428,0.0,0.0,0.0,0.0
0.020682144432013362,-0.005409008794343926,0.8315526023639064,0.0008792184029509832,-0.5263074392277756,-0.00045440379596813757,0.8502937727078163,0.01105701385145519,0.3221366928136823,-0.5701650957818302,0.0065970129250593566,0.2880860662031661,-0.5387655615464435,0.010065449326440653,0.6738364210454195,0.8205545758893784,0.018668816817426805,0.7101738494926192,0.7799647476976067,0.0,0.0,0.0,0.0
0.02424110605633825,-0.006942979408192013,0.8323205094561836,0.0011012688683389696,-0.5262402962157249,-0.0005678254851795341,0.8503350018786032,0.014270943632417484,0.3430162934416862,-0.6015580380295008,0.00691895156310374,0.2842017711381856,-0.5414499999337358,0.011494750408074435,0.6703281611256245,0.834315445661979,0.02460293915015625,0.721018193991427,0.7757700508925218,0.0,0.0,0.0,0.0
0.027579952950565825,-0.0084598739910355,0.8331133679045566,0.0013436601164204945,-0.5263429747565276,-0.000708416611305165,0.8502709954172527,0.017514577010703147,0.360816664635297,-0.6263178094536102,0.007476218797686153,0.281576006127048,-0.5454936034356852,0.013377847628787975,0.6685038556678413,0.8464794047337931,0.030411979321960034,0.7320084978250102,0.7714954789600307,0.0,0.0,0.0,0.0
0.03050906309821577,-0.009952408126878165,0.8339632993527709,0.0015929999415207154,-0.5265453637186152,-0.0008634536790710752,0.8501451033472825,0.020741302136272302,0.37508582287932407,-0.6442041538395349,0.008213093489914964,0.2796935668090496,-0.550389454058743,0.015741767877615012,0.6671654630296676,0.8575503077855723,0.03614281874737691,0.7427719915715115,0.7666014583678582,0.0,0.0,0.0,0.0
0.03295093247334754,-0.01139138866519354,0.8348297224181352,0.0018302815242510616,-0.5267759439272679,-0.0010168540152467865,0.8500016005731927,0.023864427174690665,0.38601215243325737,-0.6562838758151985,0.008981907515782752,0.2780256330097094,-0.55583760644838,0.018435892930421336,0.6657167604143801,0.867791678956394,0.041771181567842645,0.7527667290655766,0.761300603521506,0.0,0.0,0.0,0.0
0.03489789207663859,-0.012734869377205128,0.8356667542790167,0.002042986226354307,-0.5269931933812775,-0.0011577607459990267,0.8498662600239743,0.026779582130063262,0.39398041891011215,-0.6637317339001466,0.009646203287985638,0.2762211184802022,-0.5616085147037749,0.021244059736027332,0.6639623858708505,0.8773824259547457,0.047150340505190104,0.7616170927467886,0.7559381875304957,0.0,0.0,0.0,0.0
0.03638102996198381,-0.013937996172145879,0.8364379078500128,0.002223856908439979,-0.5271773862370985,-0.0012791903340248544,0.8497513880969898,0.02938248398855391,0.3994493680799375,-0.6676367754940807,0.010105323355175454,0.2741237399056167,-0.5674937411734933,0.02396573719494212,0.6618985489842629,0.8864302660572125,0.05207591097960036,0.7691260960306764,0.75080862121624,0.0,0.0,0.0,0.0
0.037449032359161215,-0.014960026838905063,0.8371139073996045,0.002368842563557631,-0.5273210364685665,-0.001376613820715595,0.8496617079856044,0.031582168302190294,0.4028887448459541,-0.6689771183499182,0.01029842246805301,0.27176929532796096,-0.5732589055994123,0.026418893347674666,0.6596160290215946,0.8949296287913213,0.05634381425750551,0.7752060580603191,0.7461573977458932,0.0,0.0,0.0,0.0
0.03815449738764857,-0.015768376190844324,0.8376670748191086,0.0024754306364178067,-0.5274224112123426,-0.0014469192138152145,0.8495983632393083,0.033308531114454885,0.4047392975785205,-0.6686241028464198,0.010202862165547397,0.26938725958338033,-0.5785809010529636,0.02840262007712999,0.6572794430922392,0.9026850084628648,0.05978935686815141,0.7798065866568477,0.7422335803138761,0.0,0.0,0.0,0.0
0.03854517803447503,-0.016340826046749565,0.8380672776270061,0.0025416006318048864,-0.5274823008225419,-0.0014876951994501103,0.8495609156194625,0.03451582903555218,0.40538200163252,-0.6673335288656816,0.00983080463128704,0.26737799809636226,-0.5829631754300768,0.02964985565284846,0.6551632679653325,0.9091822007321428,0.062309815911573946,0.7828651597651669,0.7393353433484773,0.0,0.0,0.0,0.0
0.03865826367967417,-0.016666959528887606,0.838282812428532,0.0025654933350915746,-0.5275033642941517,-0.0014969410199865776,0.8495477491406129,0.03518426909574983,0.4051062261055608,-0.6656980555470863,0.009219483337592016,0.26619918571738327,-0.585635326681754,0.02981247084637,0.6537457260899515,0.9133797275030279,0.06387385112772449,0.784295532074379,0.737806624782342,0.0,0.0,0.0,0.0
0.038516544366638907,-0.016748799520580133,0.8382922219966197,0.002547055359871851,-0.5274927824887514,-0.0014749942841648309,0.8495544133974764,0.03532163782848117,0.40406291649489323,-0.6640079930335157,0.008407273720786892,0.26607693754810907,-0.5854859615762167,0.02856334562360651,0.6538310203803007,0.9135025454848387,0.06450044661188604,0.7840439453927096,0.737916806268774,0.0,0.0,0.0,0.0
0.03812463517746492,-0.016597431499600968,0.8380987488834096,0.002488479812059478,-0.5274554461231713,-0.001423744031516828,0.849577855629585,0.034953010894016465,0.4022398453466626,-0.6621910850246321,0.007417791405867575,0.2670399963217049,-0.5825464029867296,0.025927308673210112,0.6554175158188135,0.9095473343943197,0.06423135432805549,0.7821466008265169,0.7396678193582212,0.0,0.0,0.0,0.0
0.03747191058948512,-0.016232193258478515,0.8377303569104391,0.0023938145265175563,-0.5273929359926269,-0.0013465519838419997,0.8496170593360542,0.03411952277035426,0.39948116101995146,-0.6598494414954397,0.006254798300992429,0.26892963245444423,-0.5780052165270697,0.022274555143227435,0.6577043839268064,0.9032823557046257,0.0631270010054945,0.778735077817971,0.7427863880891832,0.0,0.0,0.0,0.0
0.036541203141879,-0.015682577847342477,0.8372254100387443,0.0022678177903970444,-0.5273095449078248,-0.001248790668952538,0.8496693129526554,0.03288598984858681,0.3955431822432352,-0.6563742580695604,0.004907245656770808,0.2713832838599068,-0.5727367150790985,0.017985910867852777,0.6602288280446177,0.895755024404797,0.061288706062577504,0.7739891555999496,0.7469091621878696,0.0,0.0,0.0,0.0
0.03531674072606969,-0.01498658536099494,0.83662086641324,0.002114135832525406,-0.5272105842219728,-0.0011357954293446323,0.8497312753351794,0.0313369545931073,0.39016557295460336,-0.6511208266530281,0.003366128782414755,0.2741443678297023,-0.5673799160363129,0.013346382876490419,0.6627558435243357,0.8875107416042325,0.05887484584507229,0.7680891550702814,0.7517084926979601,0.0,0.0,0.0,0.0
0.03379372847577234,-0.014188771109903403,0.8359510601892728,0.0019355904655240469,-0.5271046031728797,-0.0010130045881885836,0.8497976021531334,0.029573251276434197,0.38312808146007654,-0.643493339608703,0.0016329438245112119,0.27720143099345884,-0.562464209667425,0.008545642793184306,0.6652065091673588,0.8788182620358832,0.056089362020993155,0.7612342470331657,0.7569095369526554,0.0,0.0,0.0,0.0
0.03199099617728863,-0.013338084643978594,0.8352501078346777,0.0017347609032099017,-0.5270080392762767,-0.0008861793744080888,0.8498580656962076,0.0277074051768601,0.3743163261266735,-0.6330184834664319,-0.00027116071220956205,0.2808385719174299,-0.5585417242542479,0.0036927918987710888,0.6676574823030456,0.8698248154863352,0.05316585398637791,0.7536917688460106,0.7622746918719028,0.0,0.0,0.0,0.0
0.029968451021941452,-0.012485194755955692,0.8345520545057064,0.0015142104945550076,-0.5269530556795238,-0.0007611870220559252,0.8498927019753189,0.025857208190830858,0.3638194173757195,-0.6194681702252083,-0.0022854825006240983,0.2856609055981081,-0.5563442324100971,-0.0011974333563788877,0.6704110989635204,0.8606725505539538,0.05035409334215682,0.7458505729218178,0.7676250004914996,0.0,0.0,0.0,0.0
0.027851172355923187,-0.011681039107923535,0.8338784603111553,0.0012753035511384576,-0.527006009422509,-0.0006405502400549223,0.8498603587230109,0.024136608460119276,0.3520745613379367,-0.6030663345907651,-0.004270111555471537,0.29263816614870847,-0.5570105381907569,-0.006220991569284973,0.6741482124919885,0.8516304719007483,0.047943766359684364,0.7382477362185004,0.7730398508239407,0.0,0.0,0.0,0.0
0.026021130656682302,-0.010896663142270165,0.8331548465354188,0.0010056175902014488,-0.5271325636654418,-0.0005191901708445791,0.8497823130062944,0.022510455579766168,0.34185240239444303,-0.5889167586792149,-0.006425342077893312,0.3026503589881909,-0.5617988582640406,-0.012247944097307483,0.6803389378950117,0.8429540915348905,0.04594078394933182,0.7312822641736273,0.7790774208160498,0.0,0.0,0.0,0.0
0.02475593669374023,-0.010212311570428912,0.8324974452904118,0.0007188984292535431,-0.5275163115893311,-0.0004112211852979067,0.8495444985928476,0.02115517178547275,0.3344052028474163,-0.5776987582653558,-0.008217339902292186,0.3170544029558346,-0.5738703368111184,-0.01904794139682786,0.6897462867562311,0.8349467385344858,0.04468171544771283,0.7264991473719098,0.7853556781554193,0.0,0.0,0.0,0.0
0.024256450862536267,-0.009781734283021353,0.8320710782071706,0.00042405198020604583,-0.5282381430648366,-0.0003288269523816227,0.8490960936573473,0.020397929255591123,0.33051199622115907,-0.5696169413191124,-0.008623306546386747,0.3362560883828121,-0.5977933656512043,-0.024553940387963057,0.7013857243537805,0.8273568490275818,0.04483312152371625,0.7252794378053469,0.7909060830292953,0.0,0.0,0.0,0.0
0.02419194079553702,-0.009610942793767525,0.8320310668732301,0.0002752640006716487,-0.5282692703694992,-0.00033250352873278,0.8490767878433672,0.020219581437536997,0.33040724517361414,-0.5696317393269311,-0.008629507714065256,0.33629634177389084,-0.5977940954635066,-0.02454686716210879,0.7014205746148019,0.8273674203806926,0.04479831599580648,0.7251990902293639,0.7908772077910344,0.0,0.0,0.0,0.0
0.02419194079553702,-0.009610942793767525,0.8320310668732301,0.0002752640006716487,-0.5282692703694992,-0.00033250352873278,0.8490767878433672,0.020219581437536997,0.33040724517361414,-0.5696317393269311,-0.008629507714065256,0.33629634177389084,-0.5977940954635066,-0.02454686716210879,0.7014205746148019,0.8273674203806926,0.04479831599580648,0.7251990902293639,0.7908772077910344,0.0,0.0,0.0,0.0
0.02491634121060811,-0.008851897679880594,0.8324470876797592,0.00019817784826096262,-0.5279806475206403,-0.000234937203346568,0.8492563460897635,0.018587879854451567,0.3373086611698491,-0.5817523465075746,-0.010319638122704417,0.3400066093633274,-0.6033557394657542,-0.027386181993884283,0.7041012234455499,0.8243026030362972,0.041966688800132754,0.7286763136314953,0.7837069320576671,0.0,0.0,0.0,0.0
0.026689188612942182,-0.007399274110164996,0.8340030968857226,8.728929224895249e-05,-0.5285577303689044,-2.392362090465152e-05,0.8488973539100663,0.015319450513479632,0.34882542209260436,-0.5931543705995447,-0.01363684219238412,0.34581362456450854,-0.6029345797460578,-0.03317040102822926,0.7164029364354458,0.8143737971950817,0.03686572064947646,0.7426764585147062,0.7656643241060421,0.0,0.0,0.0,0.0
0.028022766188687098,-0.0060359085092289485,0.8348749470225416,-0.0004527866490025723,-0.5277993906557549,0.00023223741018290768,0.8493689094106575,0.012196021989951851,0.33024100357063063,-0.5681892062938538,-0.016423208462412284,0.3525648344681459,-0.6131974509926721,-0.035670708034443464,0.7210201461057354,0.8065232528945382,0.026954505006092984,0.7211021473175612,0.794245889261104,0.0,0.0,0.0,0.0
0.02986621606710092,-0.004723535238687597,0.8356814691636175,-0.000902703538284378,-0.5272766681131457,0.00048765725296462354,0.8496930402093601,0.007895252651472506,0.3156811857232607,-0.5551038829009751,-0.019226029942839565,0.36228569297363766,-0.6274946083414119,-0.03852585094158061,0.7271020286143484,0.7997550178572725,0.01664717369019575,0.7052997831360283,0.8141759620176269,0.0,0.0,0.0,0.0
0.03183248304047786,-0.003499029558512828,0.8364663895627855,-0.0012464467002961312,-0.5270238715346404,0.0006766471408277036,0.8498492968473346,0.0034314435404459217,0.3053333575970633,-0.5499965668008414,-0.02184037614466614,0.3721845305104015,-0.6408920153075788,-0.041996464126744175,0.7342212119558921,0.7937111533204328,0.007643774841666897,0.6946814863998924,0.8289739366089768,0.0,0.0,0.0,0.0
0.03371262676241379,-0.002411190469505862,0.837262243262416,-0.0015215674585221787,-0.5269757384402229,0.0008237241576293444,0.8498785662707132,-0.0006231602729143632,0.2981204672083132,-0.5495119928732184,-0.024162991042213918,0.38113828176008513,-0.6517236604154101,-0.045486573433974636,0.7418779345046669,0.7877333908822693,-4.3817182708114945e-05,0.6874832791340201,0.8410196328435208,0.0,0.0,0.0,0.0
0.03537078854575595,-0.0014932614269177994,0.8380449998966235,-0.0017461771360425993,-0.5270354202249923,0.0009434496970253857,0.8498410007738768,-0.004066266444843425,0.29291907227076286,-0.5517261725002285,-0.02612632915990335,0.38867581749560387,-0.659832797128535,-0.048597058066340966,0.7493873651696807,0.7817030908656063,-0.006832427274450495,0.6821991250302397,0.8514856266583958,0.0,0.0,0.0,0.0
0.03673173802328622,-0.0007729081142237113,0.8387847742444856,-0.0019298695402287134,-0.5271410752860274,0.001042438294684087,0.8497749558984722,-0.00689050959150963,0.28884056451006723,-0.5555115807872038,-0.027670089828425254,0.3946159155015742,-0.6653922893979329,-0.051036502717726584,0.7562474630842799,0.7757144341505467,-0.013016916098031257,0.6778592898845425,0.8609872541467608,0.0,0.0,0.0,0.0
0.03776289550777625,-0.00027593448498493733,0.8394574341562053,-0.002076117112239063,-0.5272573258461941,0.0011212605714291534,0.8497023860470132,-0.009154869232078141,0.2852529910912035,-0.5601841220572689,-0.028734597921094004,0.398956722492049,-0.6687131702239317,-0.05259655795253246,0.7621496656501829,0.7698981321129137,-0.01872451264891076,0.6738919290924149,0.8698640049756848,0.0,0.0,0.0,0.0
0.03845812408951754,-2.616889492605039e-05,0.8400431805818093,-0.002185126161953415,-0.5273648488402594,0.0011775546363497634,0.8496353069384682,-0.010924712413957947,0.281772202726686,-0.5652855502187489,-0.029264152614471243,0.4017990713499201,-0.6701705202819763,-0.053129623532536537,0.7669148152950537,0.7643875286169176,-0.02396564230916778,0.6699965482143071,0.8782794635348854,0.0,0.0,0.0,0.0
0.03882500544655969,-4.40717732683567e-05,0.8405220575511417,-0.002255781786253631,-0.5274531364584792,0.0012082867917758014,0.8495802730358528,-0.012254726066736582,0.27825851066114143,-0.5704393149808515,-0.029212155948797773,0.4032889699507511,-0.6701599361246595,-0.052535958557310226,0.7704233790141111,0.7593403211044087,-0.028674517147066127,0.6660601545240911,0.8862358157551558,0.0,0.0,0.0,0.0
0.0388755570559921,-0.00034501016719902863,0.8408697840684245,-0.002286544113434177,-0.5275160644975785,0.001210821346334858,0.8495411157352369,-0.0131932425222671,0.2748139042825811,-0.5752358361492399,-0.02854548387407424,0.4035750948217105,-0.66906599629634,-0.05076102398288897,0.7725598029072859,0.7549739201690338,-0.03271450215193573,0.6621189421794991,0.8935274641396358,0.0,0.0,0.0,0.0
0.038619686201886466,-0.0009372895388129606,0.8410555931285526,-0.0022755921191274253,-0.5275497158324417,0.0011830536263170253,0.849520287803496,-0.013792289295845932,0.2717496644627962,-0.5791233430848235,-0.02724811051607473,0.40277486653708583,-0.6672270321325636,-0.047801738851033455,0.7731790191461733,0.7515901363318431,-0.035858576110009636,0.6583706376627014,0.8996275465631962,0.0,0.0,0.0,0.0
0.03806057244363789,-0.0018199060617775842,0.8410448068128772,-0.0022209176602681928,-0.5275520719668976,0.0011233267255233036,0.8495190504192636,-0.014110388704834678,0.2694615951891589,-0.5812969018804799,-0.025324727865747427,0.40094042547397934,-0.6648711262163611,-0.04371442799810964,0.7721073651107632,0.7495545945646439,-0.03778758247000999,0.6552486578964236,0.9034874810632717,0.0,0.0,0.0,0.0
0.03719133303377698,-0.002980860730427813,0.8408120370639127,-0.0021220400919730008,-0.5275248567261003,0.0010325028083393996,0.8495363184819742,-0.014197540174745933,0.26812996820595886,-0.5806286106093164,-0.022805539007921496,0.39801269611975654,-0.6619746557735183,-0.038597172555643273,0.7692054130243491,0.7491616136886089,-0.03819939314278336,0.6535266066352403,0.9033318704035646,0.0,0.0,0.0,0.0
0.03599132480402226,-0.004399924806319771,0.840356441087349,-0.001981462758925602,-0.5274656594301955,0.0009144658628252466,0.8495735493054086,-0.014086729813837873,0.2677420867390949,-0.5771488699327515,-0.019739763719498246,0.3937975452908968,-0.6582018226649932,-0.032556165520642014,0.7644257145776445,0.750430968971189,-0.037147187070775,0.6531794299882545,0.8991349854243657,0.0,0.0,0.0,0.0
0.03442923712593034,-0.00604790274250783,0.8397020413831505,-0.001804605126459397,-0.527366784983717,0.0007759730237954115,0.8496354602781959,-0.013796590620175518,0.2680888150672935,-0.5720497459765668,-0.016197928002967005,0.38798258821415543,-0.6529346132727718,-0.025714067997787717,0.757823297962856,0.7530977981587751,-0.035041253207047096,0.6533772157057373,0.8926150093900775,0.0,0.0,0.0,0.0
0.032472752477997816,-0.007881757895167278,0.8388839558756566,-0.0015982090128640008,-0.5272223272896938,0.0006258596410882766,0.8497256449201117,-0.01334613914512758,0.26873983565878967,-0.5662004280955962,-0.012283578866823333,0.38018766794148856,-0.6453704935978968,-0.01825658439715853,0.7495206701643543,0.7567997693098585,-0.0323236836505255,0.653608172977861,0.8847711228580705,0.0,0.0,0.0,0.0
0.030098774999272947,-0.009844259506337182,0.8379368125958746,-0.0013689505106627966,-0.5270273810904198,0.00047263575424280244,0.8498470698725251,-0.012778884665299382,0.2693485446557576,-0.5602056645551595,-0.008131531108915702,0.37003891764445423,-0.6346938692866019,-0.010451302004299695,0.7396676056587439,0.7612085193164121,-0.029376031912641876,0.6535694052655425,0.8761078833565422,0.0,0.0,0.0,0.0
0.02730767122728074,-0.011865551396383487,0.8368917995968713,-0.0011240204619502574,-0.5267801077850826,0.00032418272030074527,0.8500007938381597,-0.012168785420994173,0.2697888377246391,-0.5544930399155245,-0.003902731951361588,0.35725228873156,-0.6202118909712908,-0.00262653040350682,0.728455951826181,0.7660698076477096,-0.026539828681845883,0.6531041614178448,0.8668653011732486,0.0,0.0,0.0,0.0
0.024144351557152947,-0.013866796286887438,0.8357714742977235,-0.0008720931018691386,-0.5264853766138077,0.0001876037840565488,0.8501837168931542,-0.011607440195444534,0.2701976815524544,-0.5493666580112027,0.0002265250557634598,0.3417710139134186,-0.6015854584433331,0.004868924411509657,0.7161363513898361,0.7712693524969891,-0.024149591494347672,0.6522376839119105,0.8571779669847376,0.0,0.0,0.0,0.0
0.020728948935445225,-0.015767404833968504,0.8345666026975878,-0.0006244952212097256,-0.5261464771537934,7.72586892091369e-05,0.8503937256444607,-0.011175137760529719,0.2709135230936651,-0.5450212082115551,0.004067257842301518,0.32405996386244007,-0.5794601800571769,0.011766607773529232,0.7029168658017197,0.777038990915179,-0.02245463243799578,0.6513075798181909,0.8471670870630704,0.0,0.0,0.0,0.0
0.017278153830924285,-0.017501833568637853,0.8331988703684137,-0.00038108279862664976,-0.5256872438424581,-1.3894960694111383e-05,0.8506778334035456,-0.010948020296413853,0.27206054270191204,-0.5414319812430833,0.007501610788383477,0.30567449558294246,-0.5570862094405895,0.017750229567071427,0.6886975159848959,0.7840803409985566,-0.021682240631324828,0.6507843090162849,0.836918597162837,0.0,0.0,0.0,0.0
0.014236350303604428,-0.01904301111765737,0.8317217926423512,-0.00017604872362287288,-0.5251565431207958,-7.613197926603888e-05,0.8510056218546292,-0.010829645163309407,0.27378831862025743,-0.5380591950186648,0.010505694594973919,0.28963244992172427,-0.5391030188667011,0.023008015416303144,0.6747095919927171,0.7921052121424179,-0.021880123139925194,0.6515754654556,0.8265925157965193,0.0,0.0,0.0,0.0
0.011819341360091436,-0.020243325621871887,0.8303232004645567,-2.7961188479453242e-05,-0.5246321842535377,-9.5814265332609e-05,0.8513289970881764,-0.011041159217192625,0.27575547430298014,-0.535469497037434,0.012786711900769479,0.2771065384191646,-0.5264098757302356,0.02713257067696924,0.6623566470270893,0.8000541264284351,-0.023436701858820415,0.6532668377524429,0.8162528588203166,0.0,0.0,0.0,0.0
0.010336156999846828,-0.020971320232447972,0.8293079619461445,3.401133380362816e-05,-0.5242127569563255,-7.107393432028156e-05,0.8515873291894223,-0.011423857407024748,0.276966364935743,-0.5339997019740728,0.014118831524789056,0.26972564585112735,-0.520125727009411,0.029829098003882688,0.6538323224930033,0.8058805188902882,-0.025549967627952502,0.6554775472839085,0.8064125067143898,0.0,0.0,0.0,0.0
0.010266322191824058,-0.021158729341782465,0.8292355356284395,0.000182817601512835,-0.5242264786977853,-5.9399447600369324e-05,0.8515788642759698,-0.011420966353371571,0.277006113903723,-0.5340025387236709,0.014307911868201116,0.26952786643312454,-0.5201231185478863,0.029864094414841384,0.6536636096028744,0.8057991433175292,-0.025564072450329843,0.6555288166774861,0.8064273940343727,0.0,0.0,0.0,0.0
0.010266322191823978,-0.02115872934178248,0.8292355356284398,0.00018281760151284227,-0.5242264786977849,-5.939944760011717e-05,0.8515788642759701,-0.01142096635337222,0.27700611390372304,-0.5340025387236714,0.014307911868200532,0.26952786643312554,-0.5201231185478881,0.029864094414838775,0.6536636096028746,0.8057991433175303,-0.025564072450333306,0.6555288166774845,0.8064273940343742,0.0,0.0,0.0,0.0
0.010266322191823978,-0.02115872934178248,0.8292355356284398,0.00018281760151284227,-0.5242264786977849,-5.939944760011717e-05,0.8515788642759701,-0.01142096635337222,0.27700611390372304,-0.5340025387236714,0.014307911868200532,0.26952786643312554,-0.5201231185478881,0.029864094414838775,0.6536636096028746,0.8057991433175303,-0.025564072450333306,0.6555288166774845,0.8064273940343742,0.0,0.0,0.0,0.0
0.011778850758582163,-0.022082046634993028,0.8301487647331014,0.0002968963124927958,-0.5249775523262341,-8.102371575336187e-05,0.8511160172628014,-0.009629148492668011,0.28291794044835017,-0.5360411865119558,0.01610380738685267,0.27913263107823627,-0.5296151260646692,0.03348943836742618,0.6632701961045212,0.7969706603762748,-0.02240541295003322,0.6641627102823903,0.8030333135634945,0.0,0.0,0.0,0.0
0.01472465478246164,-0.023857023615683936,0.8325233053525268,0.0005116276618254247,-0.526579848369483,-0.00048558435549875647,0.8501253823620029,-0.005414476156043034,0.2929828477928047,-0.5339728976245469,0.02033201412031723,0.2962849790198967,-0.5427164949677886,0.039128766606343596,0.6859347123167723,0.7743542246791909,-0.017754592301162386,0.6840407785759969,0.7902332259444113,0.0,0.0,0.0,0.0
0.01749839279681087,-0.025721592731398842,0.8338953836327642,0.0007653966706512057,-0.5265619719954684,-0.0004092054735349064,0.850136304581248,-0.00208023401048007,0.30780159503512383,-0.5530528904270441,0.020850449818257608,0.2918609745668142,-0.5381162050508436,0.036864148591677935,0.67640378872418,0.7981505112994316,-0.01025409989508454,0.6962723006774351,0.7817786400730108,0.0,0.0,0.0,0.0
0.020704089625156255,-0.027638275124859904,0.8349535407397615,0.0009848795710097318,-0.526521163930819,-0.00045148975952937013,0.8501613318083593,0.0016779730243517625,0.32575943959586934,-0.5784713793465487,0.020775086730846742,0.28691946915363314,-0.5380360055929787,0.03425016305472764,0.6698041487078383,0.8164961725113626,-0.0026994759248362803,0.7076850752661851,0.776246898727846,0.0,0.0,0.0,0.0
0.024230123122972083,-0.029455163241785064,0.8357724160449171,0.0011720918792384285,-0.5264275766851824,-0.0005374186289662847,0.8502189976042703,0.0054040851733181475,0.3458670793918328,-0.6084325929069252,0.020136438497042483,0.2829738620307812,-0.5405557828494014,0.03267213813282789,0.6663225895254596,0.83125443200296,0.004583343905428022,0.7185735542510407,0.7723770623151806,0.0,0.0,0.0,0.0
0.027567499134498533,-0.031246747779602606,0.8366000667728131,0.0013901444553477158,-0.5264976481119978,-0.0006641729265325394,0.8501751895375752,0.009172741417046533,0.36325493859503544,-0.6324638582852287,0.019766333671710986,0.2803144910931993,-0.5444945093212388,0.03253595467982656,0.6645001488647597,0.8440128431206002,0.01161857965189788,0.7295587586847985,0.7685208914250448,0.0,0.0,0.0,0.0
0.030520116063464237,-0.03300640898871953,0.8374821136501617,0.0016265222056172125,-0.5266743958511616,-0.000815126360661854,0.8500651567670238,0.01293028441144092,0.3772914417021886,-0.6498792765298907,0.019693977203967317,0.27844143624901757,-0.5492933768592245,0.033495812536328676,0.6632035782502178,0.8554596638823176,0.018491361158833923,0.7403666214279675,0.7640474883796665,0.0,0.0,0.0,0.0
0.03300402412551447,-0.034707086692674374,0.8383826055816286,0.0018588525773224232,-0.526885650844261,-0.0009701472281945486,0.849933594121253,0.016587280470138792,0.38808957921719944,-0.6616042750058991,0.01977731110794955,0.2768130483073385,-0.5546450819695187,0.035116263286700894,0.661846537008958,0.8659593647082034,0.025234156066535802,0.7504785312438041,0.7591241559209853,0.0,0.0,0.0,0.0
0.03500632163935366,-0.03630909261427142,0.8392562334105949,0.0020718223463727413,-0.5270880671591961,-0.0011158865978738177,0.8498074086566018,0.020039214026377865,0.39599128510186377,-0.6687521707669337,0.01985229669586849,0.2750656749802797,-0.5603202927155382,0.03700452791417671,0.6602333816805857,0.8757450551592003,0.03173793799165362,0.7595132913532503,0.7540892070737262,0.0,0.0,0.0,0.0
0.036554322081077874,-0.037769410237061,0.8400657393257435,0.002256224209055381,-0.5272602037177323,-0.0012440599611693822,0.8496999701910475,0.023182659384983546,0.4014297143062231,-0.6723839061334328,0.019782913845445213,0.2730357988156165,-0.5661142722429973,0.03886621158744058,0.6583542941628787,0.8849547587954777,0.03781812867887697,0.7672592705811003,0.7492446568094808,0.0,0.0,0.0,0.0
0.037694211967156395,-0.03904871355134861,0.840780980214144,0.002406783314468655,-0.5273932978670406,-0.001349543004515538,0.8496167933207789,0.025927727829451915,0.4048593404561252,-0.6734639879621023,0.01947783450096331,0.27075623183074804,-0.5717964750055072,0.040475790706599624,0.6562927256774412,0.8936006601599152,0.04327773433350973,0.7736141699478828,0.7448465234809959,0.0,0.0,0.0,0.0
0.03847704363066203,-0.040115567312382,0.8413737429768854,0.0025202805320006664,-0.5274848455195903,-0.0014289758245435583,0.8495594999535387,0.028205399553622,0.40671192739094375,-0.6728560506428454,0.018893074778381574,0.26845568746590515,-0.5770462798268866,0.04161425500423288,0.6542076485804981,0.9014984182908587,0.04795180487379335,0.7785163942746833,0.7411531446989077,0.0,0.0,0.0,0.0
0.03894966572943258,-0.040948746668030105,0.8418137019102221,0.0025942518902698306,-0.5275351734673567,-0.001479790256120543,0.849527939995321,0.0299709847386939,0.40736374445740825,-0.6713121674903659,0.01802799485332726,0.26653432522632287,-0.5813685708905052,0.04200651116094552,0.6523700962871121,0.9081416550540393,0.05173457461465117,0.7818958075931665,0.7384698997098961,0.0,0.0,0.0,0.0
0.03914870628022347,-0.0415386766464325,0.8420692143859411,0.002626513856784595,-0.5275466239298391,-0.0014998014429575394,0.8495206952163206,0.03120563284505317,0.4071023251651207,-0.669424424004803,0.0169133239545005,0.2654491973535309,-0.5839933207046958,0.04129843983257189,0.6512561338737817,0.9124951075281968,0.05459121448406985,0.7836613295740024,0.7371459847481422,0.0,0.0,0.0,0.0
0.03909646519752023,-0.041887921825755035,0.842119053469337,0.0026168396141175694,-0.5275261956643044,-0.0014891509946326081,0.8495334292820355,0.03191764561873549,0.4060785037215381,-0.667484377073017,0.015585057226294698,0.2654248198694903,-0.5838069819109112,0.039157031743353755,0.6516670540866745,0.91278841538245,0.056536284770489185,0.7837561581123932,0.7374542404069535,0.0,0.0,0.0,0.0
0.03879705077728762,-0.042007320191329224,0.8419666001917271,0.0025673037270016468,-0.5274787384148806,-0.0014495176848177828,0.8495631161781334,0.03213115055112755,0.40428207366319474,-0.6654248616217814,0.01406631229528423,0.26648754898040694,-0.5808364344669409,0.03560935694709272,0.6535939705838489,0.9090161939443844,0.057605134966547955,0.7822139321375321,0.7393997207527142,0.0,0.0,0.0,0.0
0.038239252843217136,-0.041915110509686805,0.8416398242661532,0.002481842943399118,-0.5274059416784723,-0.0013840396348063192,0.8496086731973358,0.03188458661808035,0.40156064014039494,-0.6628559071676864,0.012359801827593159,0.2684757567560171,-0.5762634088319804,0.031032830560426147,0.6562256451815365,0.9029408843091767,0.057848649040488434,0.7791633229348758,0.7427123938472848,0.0,0.0,0.0,0.0
0.03740522370434362,-0.04163897699396443,0.8411769707494499,0.0023650801795592046,-0.5273121977080449,-0.001297817657978326,0.8496673279662945,0.031238396513863627,0.39767481840512775,-0.6591791260223049,0.010450234336115628,0.2710228404721918,-0.5709524563027699,0.025808997422879423,0.6590899302457233,0.8956073636220704,0.057354873924080264,0.774780089820033,0.747031907103895,0.0,0.0,0.0,0.0
0.03627852005292092,-0.04121410651582976,0.8406145211661682,0.0022204411470956443,-0.5272028403203831,-0.001195840934558733,0.8497357264253941,0.030270382479477644,0.39237051978819204,-0.6537658887633642,0.008319475838289795,0.27386598891656677,-0.5655291591208907,0.020214604485189837,0.6619457144465007,0.8875624966109099,0.05626436700426286,0.7692386199917542,0.7520343042625035,0.0,0.0,0.0,0.0
0.03485377494162948,-0.04068084665468017,0.8399857218409329,0.002050458228911794,-0.5270862719257862,-0.0010830960331242344,0.8498086163786589,0.029071432822282448,0.38543744603178204,-0.646046678850245,0.005955182583465356,0.27698326289051844,-0.5605032049973409,0.014421601910149608,0.6647124103063395,0.8790805797807941,0.054757495731487416,0.7627294197935091,0.7574496766826759,0.0,0.0,0.0,0.0
0.03314939317807578,-0.04008215726714917,0.8393228586604224,0.0018574182040788404,-0.5269784809835071,-0.0009647316472254936,0.8498760497100618,0.02774005575910149,0.37677667926641484,-0.6355891470427966,0.003362821134821972,0.28064044885018485,-0.5563958157662137,0.00851110018493935,0.6674703481588271,0.8703190274085252,0.05303770623688138,0.755508333377162,0.7630455783919851,0.0,0.0,0.0,0.0
0.03122495798117471,-0.03946054321347825,0.8386576422749562,0.001643732119156608,-0.5269104925214597,-0.0008457798447213851,0.8499187700433303,0.026375056285352954,0.36650011918390524,-0.6222252535529761,0.000591935224519371,0.2854098363764973,-0.5538871648694792,0.0024582899603392853,0.6705302603259787,0.8614355403350874,0.05131726122569981,0.7479512783479814,0.7686424817581374,0.0,0.0,0.0,0.0
0.02920494505149382,-0.03885580895705926,0.8380101923348425,0.0014112239322043162,-0.5269436036155547,-0.0007281694592528515,0.8498987685747668,0.025065599266595157,0.35508129066717475,-0.6062792401259863,-0.0022149178423762363,0.29219345046586703,-0.5540213638661675,-0.0038910597025018324,0.6745771393514174,0.8527078865228308,0.049833121246708155,0.7405811239910224,0.7742843718393465,0.0,0.0,0.0,0.0
0.02742997836551073,-0.03824259836635078,0.8373186738173963,0.001148155678233981,-0.5270530590808011,-0.0006015243707756017,0.8498313908185197,0.023770596590853937,0.3449564110226616,-0.5921988248322033,-0.0051345503046354496,0.30181370822418213,-0.5580322165043291,-0.011292923468587419,0.6809372555110906,0.8444221381121461,0.048638633353708174,0.7338080935998867,0.7804334578696167,0.0,0.0,0.0,0.0
0.026200426198272054,-0.03767839561847012,0.8366877530980293,0.0008728206422475274,-0.5274056146382375,-0.0004834325188199642,0.8496130425818503,0.022625794077174913,0.3376082565078773,-0.5811732404533226,-0.00764434176295822,0.31549655089511347,-0.5687924260824105,-0.0196187835284611,0.690414839428144,0.8369275112498847,0.04793301761984112,0.729138408152104,0.7866920506032384,0.0,0.0,0.0,0.0
0.025708563400044668,-0.03730809135252568,0.8362827276799374,0.0006053592699558592,-0.5280869731213165,-0.0003891627918271967,0.8491899851694211,0.02193536007345862,0.3337428965185021,-0.5732428046537823,-0.008603831703510293,0.3335609842376275,-0.5906278056438053,-0.026559994360893853,0.7019117776378279,0.8300336688750415,0.04828459687504049,0.7279428763087443,0.7920676883329095,0.0,0.0,0.0,0.0
0.025649716304205074,-0.037154209761055726,0.8362465860550391,0.0004699907006725767,-0.5281141393305812,-0.0003927537901937118,0.84917317473665,0.02177606654413382,0.3336452742917999,-0.5732561029627237,-0.008613279326833367,0.33360134586123535,-0.5906276617557681,-0.02655378540151549,0.7019462687681591,0.830044523607287,0.04825471289646829,0.7278663110147621,0.7920405647250292,0.0,0.0,0.0,0.0
0.025649716304205074,-0.037154209761055726,0.8362465860550391,0.0004699907006725767,-0.5281141393305812,-0.0003927537901937118,0.84917317473665,0.02177606654413382,0.3336452742917999,-0.5732561029627237,-0.008613279326833367,0.33360134586123535,-0.5906276617557681,-0.02655378540151549,0.7019462687681591,0.830044523607287,0.04825471289646829,0.7278663110147621,0.7920405647250292,0.0,0.0,0.0,0.0
0.026389189150097105,-0.03642469401032346,0.836661929808947,0.0003634605386792574,-0.5278453972462401,-0.0002914916968532645,0.8493403437580169,0.020229489026918474,0.3405416142340556,-0.5852751753946913,-0.010216896728011895,0.3374246385643712,-0.5962675523194721,-0.029084675516512237,0.7046730122690558,0.8269681102974041,0.045741229222720024,0.7314378378565602,0.785017035266175,0.0,0.0,0.0,0.0
0.02818001982721969,-0.03500514613378795,0.8382095031405252,0.00024325934873122698,-0.5284174663760577,-8.794008996838581e-05,0.8489846372698022,0.01705436835636578,0.35212316805807986,-0.5968141208285105,-0.013438118721374168,0.3434134779874959,-0.5962325863971824,-0.03473636729906328,0.7169793094966868,0.8170154719081207,0.04081680535015365,0.7454163905081636,0.767108726251813,0.0,0.0,0.0,0.0
0.029521142318829328,-0.03367709705610587,0.8390711086467745,-0.00032556504374097194,-0.5276667391468248,0.0001802326095645117,0.8494513958560345,0.014061011995073418,0.33289897888494013,-0.570578033200081,-0.016140797521280285,0.3503049466269296,-0.606721068228941,-0.036850515978403775,0.7215332518404853,0.8091986441088175,0.030469267872578348,0.7238116648162987,0.7955403396012076,0.0,0.0,0.0,0.0
0.03137806285423806,-0.03239522492850335,0.8398714383079546,-0.0007997849113453923,-0.5271572654600317,0.0004448915909694083,0.8497672504211194,0.009839845437817477,0.3179104649886951,-0.5566008431081197,-0.01886846009253782,0.36019727800026635,-0.6212600311754443,-0.03939324584369946,0.7276163547305906,0.8024430635130271,0.019814457919968394,0.7080318509941336,0.8153911277723865,0.0,0.0,0.0,0.0
0.0333541818942586,-0.031193261908565337,0.8406569273783956,-0.0011600693387552724,-0.5269213669896576,0.0006390057647921332,0.8499130066780437,0.005415860681433295,0.3073097942975207,-0.5509433509107815,-0.021423758031948514,0.3702048831930967,-0.6347548072067497,-0.042659410935749584,0.7347896304558863,0.7963708948480757,0.010612516889747561,0.6974459963677933,0.8301704482541425,0.0,0.0,0.0,0.0
0.03524128604246307,-0.03012246663052737,0.8414540251101534,-0.001444646191517114,-0.5268853850806551,0.0007879894627420482,0.849934752235957,0.0013907424134609716,0.29994340870919656,-0.5501347571912305,-0.02370010626244773,0.37923963603155736,-0.6456645585595862,-0.046026340826117604,0.7424993692919715,0.7903563026950771,0.0028435440299717056,0.6902760115153098,0.8422246011011845,0.0,0.0,0.0,0.0
0.03690492959781952,-0.029218046704323073,0.8422367156872228,-0.001674011431097027,-0.5269524050866884,0.0009078833428553989,0.8498926615796367,-0.002021701439919496,0.29465034679901736,-0.5521650417711039,-0.02562679511531244,0.38684482051218855,-0.6538613168552959,-0.04906254138581373,0.7500460101003804,0.7842991218236932,-0.003957901031831651,0.685021724845159,0.8527121050255031,0.0,0.0,0.0,0.0
0.03827099975469128,-0.028509011560892264,0.8429750100365186,-0.001859582257204107,-0.5270617133826409,0.001006284283824186,0.8498243816412446,-0.004811172272571182,0.29052108890085176,-0.5558528109489381,-0.027141015038798934,0.3928465663171651,-0.6595223389510407,-0.051453797433762646,0.756926995821075,0.7782969085323406,-0.010123385128868689,0.6807161312096037,0.8622426596691496,0.0,0.0,0.0,0.0
0.039307517427280926,-0.028021904697796342,0.8436452888021032,-0.002006026829509359,-0.527179094042565,0.0010842972831897326,0.8497511417822405,-0.007037707496955678,0.28690990806575273,-0.5604804625296763,-0.0281814449728568,0.39724606627690473,-0.6629544076464642,-0.05297788457184406,0.7628375634614956,0.772477815288466,-0.015801139735242525,0.6767871713597923,0.871152982855222,0.0,0.0,0.0,0.0
0.04000847980204263,-0.027780841738562656,0.844228382093122,-0.0021143041765598987,-0.527286248505243,0.0011398120784564835,0.8496843194290111,-0.008769270923290391,0.28342270737375724,-0.5655685389490208,-0.02869147525111729,0.400144097660986,-0.66452423767337,-0.05347969480513585,0.7676031008330382,0.7669712284188771,-0.021011237758619804,0.6729324154363789,0.8796048913261756,0.0,0.0,0.0,0.0
0.040381280565476206,-0.027806315453612673,0.844704915596234,-0.0021837905825139517,-0.5273735389720852,0.0011699147973625182,0.849629926938851,-0.010063543262272814,0.2799124407869062,-0.5707266360385003,-0.02862407481169045,0.4016846837875163,-0.6646172641679797,-0.052855638533178435,0.7711081979662078,0.7619309231068894,-0.025691148347575292,0.6690358079368505,0.887599099518281,0.0,0.0,0.0,0.0
0.04043759736670489,-0.028113651791030425,0.8450511077997528,-0.002213300460029407,-0.5274356057042073,0.001172037587367645,0.8495913190848899,-0.010971884587605887,0.276475851489081,-0.5755354893166443,-0.02794584287139711,0.40201369701652595,-0.663607596594619,-0.051048985771853295,0.7732409622563587,0.757570663664185,-0.029704828401481972,0.6651297810583964,0.8949283876927336,0.0,0.0,0.0,0.0
0.0401870333033812,-0.028711206641322033,0.8452365775781723,-0.0022012976717054353,-0.5274692157038716,0.0011441216573758036,0.84957052194561,-0.011549232185866771,0.27342081508262267,-0.579435892154536,-0.02664031268992794,0.40124623480910543,-0.6618248139341324,-0.0480547743873726,0.7738596700243872,0.7541889895098077,-0.032825398064987264,0.6614081969340457,0.9010636575840143,0.0,0.0,0.0,0.0
0.0396327178646545,-0.029598283300892807,0.8452268260325028,-0.0021459834366568636,-0.527472867332535,0.0010845230739791858,0.8495684744579365,-0.011856357488924104,0.27114123013482516,-0.5816169000559789,-0.024711256874297143,0.3994343763223283,-0.6594937165233306,-0.04392702342742322,0.7727934021655579,0.752149104640357,-0.034734321638978945,0.6583015893543531,0.9049529144525831,0.0,0.0,0.0,0.0
0.03876821607343779,-0.0307636191635173,0.844996282472048,-0.002046889823192757,-0.5274483126227727,0.000994045517785619,0.849584074489953,-0.011943507066491298,0.26981654470458666,-0.5809471132712071,-0.02218722230431806,0.39652351887797427,-0.6565990015836346,-0.03876094122324387,0.7699037024706088,0.7517444535499501,-0.03513019492697986,0.6565828913528092,0.9048163143914867,0.0,0.0,0.0,0.0
0.037573953392368034,-0.03218821035407693,0.8445435312202947,-0.0019062872523829206,-0.5273927268584819,0.0008765262759554954,0.8496190378207009,-0.01184088120141349,0.269435603714675,-0.577458827128102,-0.019115127996631703,0.3923291381300759,-0.6528256487510994,-0.032658751166435324,0.7651418860270685,0.7529965916237721,-0.0340650317514236,0.6562302074920471,0.9006295454235448,0.0,0.0,0.0,0.0
0.036020140288231244,-0.03384444774838124,0.8438916950707095,-0.0017291372236646696,-0.5272975723368903,0.0007387095405524893,0.8496786066509491,-0.011561339525508885,0.269792816583012,-0.5723512345774364,-0.015562776632700519,0.38655237666608855,-0.6475866054313758,-0.025738652749919357,0.7585595059809315,0.7556447718625108,-0.031946158924075416,0.6564205136199968,0.8941179704994713,0.0,0.0,0.0,0.0
0.03407595952911895,-0.035690922110134256,0.8430748185215877,-0.0015215612471902926,-0.5271555838018759,0.0005893818580039678,0.8497672198590034,-0.011116260159782837,0.2704612428196351,-0.5665031973375864,-0.011630935714897438,0.37882765865524615,-0.6401157971814655,-0.018183428096521022,0.7502736322128725,0.7593311984740964,-0.02921304099626367,0.6566502605784699,0.8862861565216985,0.0,0.0,0.0,0.0
0.03171913195561289,-0.03767160447696478,0.8421266463036777,-0.0012895508507278493,-0.5269602034140933,0.0004369783495632954,0.8498888692801564,-0.010541447348471145,0.2710967121589772,-0.560531459375449,-0.007452396191733392,0.3687920641981446,-0.6296294154172052,-0.010261317969485323,0.7404279413027238,0.7637299923108662,-0.026245259310541526,0.6566226480316396,0.8776412359701522,0.0,0.0,0.0,0.0
0.028949381470505874,-0.039716897008535916,0.841078308763312,-0.0010395766469076166,-0.5267077693768498,0.0002892392642928995,0.8500457407099375,-0.009905195750706539,0.27157395653649663,-0.5548796356208483,-0.003187794846989872,0.35616317857538715,-0.6154493490806274,-0.0023073649233182666,0.7292097554893103,0.7685821180168629,-0.023381786518576808,0.6561794502450465,0.8684228556030105,0.0,0.0,0.0,0.0
0.02580866858316226,-0.04174674117404347,0.8399544378640849,-0.0007796423994236944,-0.526401794632797,0.00015290595429679805,0.8502355669959172,-0.009298895209217605,0.2720309734841895,-0.5498734999232775,0.0009844268665530958,0.3408677079825589,-0.5972108925618237,0.005314460677609033,0.7168737355677907,0.7737505395006242,-0.02095200070288464,0.6553307607280032,0.8587635044377104,0.0,0.0,0.0,0.0
0.022411336013133908,-0.04367727616307935,0.8387525568377889,-0.0005209563996017479,-0.5260486900338912,3.992204638314404e-05,0.8504542919665271,-0.008810030012914985,0.2728195977049068,-0.5457258825341874,0.004873804839003418,0.3233160790855489,-0.5754301216136342,0.012304947496677604,0.7036637266640338,0.7794150928392278,-0.019204487050110065,0.6543886647071318,0.8487853314120427,0.0,0.0,0.0,0.0
0.01897001655060913,-0.045437107601707626,0.8374015254177001,-0.00026606784023549765,-0.5255821797117908,-5.0663312237460374e-05,0.8507427925116592,-0.00851069586661962,0.274112531208325,-0.5424439333617435,0.008341008295817296,0.3049949315575249,-0.5531488370187218,0.018364145309147727,0.6895197867223479,0.7862433724168927,-0.018289750766288887,0.6538325072528673,0.838600584553645,0.0,0.0,0.0,0.0
0.015938204199720824,-0.04700382308632698,0.8359510899902871,-5.0722572419438076e-05,-0.5250525619705212,-0.00011776736513087904,0.8510697919244111,-0.008325291412519925,0.2760692476236134,-0.5393969226621746,0.01139163503872732,0.2889957923094277,-0.5351474151835369,0.023673991341724984,0.675690550697236,0.7939796763262893,-0.018196298851166557,0.6546566708889858,0.8283905293741272,0.0,0.0,0.0,0.0
0.01353298495423368,-0.0482274145861595,0.8345889137978553,0.00010649484677595583,-0.524541626442916,-0.00014755488469817156,0.8513847831709374,-0.00848766376712108,0.27841162245554196,-0.5372522192139881,0.013727814880221503,0.27648093947792235,-0.5222840406637402,0.027821111477804243,0.6635854432306241,0.8015906351138018,-0.019301225883787087,0.6564507599814366,0.8182741975906057,0.0,0.0,0.0,0.0
0.012063385972179888,-0.04897199689057542,0.8336091794684081,0.00017513448123890034,-0.5241440283278228,-0.0001368018041640422,0.8516296073889531,-0.008844471437410054,0.28016159972,-0.5364895586799211,0.015113729756508341,0.2690991538858385,-0.5157695240218608,0.03050617200387248,0.6553290916797957,0.807135295044064,-0.020941474257781572,0.658775021941052,0.8087847606172676,0.0,0.0,0.0,0.0
0.0119932284565169,-0.049161041538844055,0.8335371076283714,0.0003252485771322068,-0.5241578142591263,-0.00012549634307917464,0.8516210801848003,-0.008841651162209236,0.28020165608216846,-0.5364926925441444,0.015304861098895867,0.2689016579569627,-0.5157672691308516,0.030541167257509404,0.6551604127762302,0.8070540970847467,-0.020955061147031932,0.6588262263697695,0.8087995918618025,0.0,0.0,0.0,0.0
0.011993228456379066,-0.04916104153880424,0.8335371076285092,0.0003252485765799793,-0.5241578142593573,-0.00012549634304830258,0.8516210801846584,-0.008841651162240146,0.2802016560827423,-0.5364926925444294,0.015304861098992751,0.2689016579629122,-0.5157672691400197,0.030541167256990454,0.6551604127770464,0.8070540970864185,-0.020955061148075327,0.6588262263698188,0.8087995918629158,0.0,0.0,0.0,0.0
0.011993228456379066,-0.04916104153880424,0.8335371076285092,0.0003252485765799793,-0.5241578142593573,-0.00012549634304830258,0.8516210801846584,-0.008841651162240146,0.2802016560827423,-0.5364926925444294,0.015304861098992751,0.2689016579629122,-0.5157672691400197,0.030541167256990454,0.6551604127770464,0.8070540970864185,-0.020955061148075327,0.6588262263698188,0.8087995918629158,0.0,0.0,0.0,0.0
0.013487263327833036,-0.05006123235898089,0.834439758115682,0.00043586827377700205,-0.5249019656780946,-0.00014853645183219994,0.8511625663661688,-0.0070884373764640825,0.28600978439621344,-0.5384289704408874,0.017058803833562272,0.2783628501636609,-0.5250770451511884,0.034093715907462005,0.6646629003984563,0.7983337968230729,-0.01781220849605698,0.6674207986525234,0.8053277374987667,0.0,0.0,0.0,0.0
0.016392740946235263,-0.05178383024748612,0.8367592252269828,0.0006505179169714862,-0.52649737989059,-0.0005567670426304797,0.8501763204213839,-0.0029723523690795405,0.2958915874696606,-0.5362915116617589,0.021183050172862518,0.29521105495156774,-0.5378845132151489,0.03951084900043092,0.6869483121308744,0.7763317495312737,-0.013288626666125252,0.6870249695257289,0.7927423032679417,0.0,0.0,0.0,0.0
0.01914639809991814,-0.053578651341144055,0.83813189074331,0.0008877110923290903,-0.5264888916013951,-0.0004796942263665832,0.850181409396136,0.00024598703938359407,0.31057337119631157,-0.555092707431247,0.021629074034597722,0.29144288225255066,-0.5345424984678608,0.037083870480806976,0.677616170517061,0.7998063983597903,-0.005916330366839358,0.6993389501795011,0.7840012168995417,0.0,0.0,0.0,0.0
0.022323003305815024,-0.055414742609528556,0.8391955833129301,0.0010945198124232415,-0.5264579521249243,-0.0005180594062759694,0.8502003048019112,0.0038563663301724566,0.32834027230945184,-0.580121559290106,0.021450465513565813,0.28691752526337405,-0.5352132499537049,0.0342931375136897,0.6711267491993668,0.8179852627002614,0.0014574403028507913,0.7108633849745954,0.7780821215257337,0.0,0.0,0.0,0.0
0.025811752464184604,-0.05714908805893545,0.840011548452653,0.0012699601278405353,-0.526365166653029,-0.0005995030513960491,0.8502574546169496,0.007428255257144322,0.3482635722208347,-0.6097906747821696,0.020690476552104157,0.28318467137102016,-0.5381766973909895,0.032540924911733875,0.6676656686664294,0.8326587392178842,0.008541827006691538,0.7217888155246294,0.773869717929438,0.0,0.0,0.0,0.0
0.02910273951689225,-0.05886484286091672,0.8408354527532743,0.0014801967292017168,-0.526440038998413,-0.0007240092469625645,0.85021066222884,0.011052860959477408,0.36541087824183566,-0.6334209795896394,0.020211106260586944,0.28062185374712356,-0.5423660158309389,0.032243450609288744,0.6658141029452319,0.8453788229651943,0.015366778397410786,0.7327776825506601,0.7697250905538051,0.0,0.0,0.0,0.0
0.032007118539056426,-0.06055600510058663,0.8417101283034599,0.001709809828296585,-0.5266185058087118,-0.0008731946975022862,0.8500995608875298,0.014677604001689916,0.37922095465218403,-0.650498057856867,0.02003491773743762,0.27876908024921115,-0.5473001323449805,0.03305179274283807,0.6644606677187184,0.8568114222609455,0.022040527402687284,0.7435415268087525,0.765033828590964,0.0,0.0,0.0,0.0
0.03444534326459467,-0.06219597347734105,0.8426008503977657,0.0019360456452018724,-0.5268293101694799,-0.0010265169214664796,0.849968279370836,0.018214614653346704,0.38981958755506124,-0.6619554647748014,0.020021874550790113,0.2771229824989366,-0.5527147269682343,0.03453011569038658,0.6630458288995487,0.8673130099922585,0.028601553243893494,0.753579184649116,0.759957145663085,0.0,0.0,0.0,0.0
0.036407000251832106,-0.06374545131028883,0.8434641320369539,0.0021435859374284052,-0.5270302484867496,-0.0011705766574450374,0.8498430160739175,0.021561023775651753,0.39755206715932234,-0.6688954048587852,0.020010947690289292,0.27534363566682296,-0.5584090323810359,0.036289051498648764,0.6613848373358298,0.8771118024703837,0.03494460418437185,0.7625284145604329,0.7548171130314836,0.0,0.0,0.0,0.0
0.037920693282556886,-0.06516175633375411,0.844264096789797,0.0023232995889165085,-0.527200601743007,-0.0012971653465192775,0.8497366916656567,0.024614896753560465,0.4028519548799137,-0.6723675356694447,0.019868448824572442,0.2732800845454486,-0.5641975020938689,0.03803804347003756,0.659469999395195,0.8863413916404039,0.040888185026957555,0.770191523534264,0.7499005897453206,0.0,0.0,0.0,0.0
0.03903317668211159,-0.06640578805784093,0.8449714205243325,0.002469986179487783,-0.527331998124549,-0.0014012658874666148,0.8496545765051562,0.02728748860826375,0.4061728694771294,-0.6733277132830472,0.019504429230314348,0.2709711145625359,-0.569862600730986,0.03955420471125526,0.6573834662352748,0.8950100278665712,0.04623778965076646,0.776475001431778,0.7454525363470397,0.0,0.0,0.0,0.0
0.039795634461178675,-0.06744619825647999,0.8455582793898588,0.002580494400833948,-0.5274221372184281,-0.0014796214999523213,0.849598164393503,0.02951048049307004,0.4079451290629684,-0.6726332607940105,0.018875542830512793,0.2686478763452144,-0.575092437875939,0.0406198932031843,0.6552820934888438,0.9029299395378074,0.050830147279345456,0.7813221682891227,0.7417241906617736,0.0,0.0,0.0,0.0
0.040254787680232516,-0.06826170663777248,0.8459944429730226,0.0026524046762755786,-0.52747139810498,-0.0015297361525209725,0.8495672715199866,0.031239430522983367,0.4085435193840768,-0.6710323765117019,0.017981288237184978,0.26671107627794416,-0.5793978438201465,0.040960798987760796,0.6534347392136598,0.9095914533946203,0.0545604524729771,0.7846650122952237,0.7390168711294864,0.0,0.0,0.0,0.0
0.04044699250404052,-0.06884255490813918,0.8462481833682023,0.0026835511006251278,-0.5274820356061526,-0.001549453132250473,0.8495605333707957,0.03245531570356224,0.4082543773230614,-0.6691156419360901,0.01685223382226228,0.2656172009658663,-0.5820127121001053,0.04022342558046336,0.6523155356164755,0.9139555574314503,0.05739422936213026,0.7864126356923177,0.7376777685421939,0.0,0.0,0.0,0.0
0.040394233005169394,-0.06919101876752819,0.846298129726023,0.0026737110172416214,-0.5274608733405545,-0.0015388987349966702,0.8495737226132287,0.03316586903680165,0.40722768966985196,-0.6671747429048667,0.015524020401095209,0.2655895490278136,-0.5818252680914106,0.038074887691049386,0.6527246309677435,0.9142476712950809,0.059345679547464704,0.7865073756374669,0.737978704837801,0.0,0.0,0.0,0.0
0.04010034065999111,-0.06931755663773316,0.846147604589404,0.0026249524968608843,-0.5274127329083557,-0.0014997298354113059,0.849603830971206,0.03339434709969492,0.40545239998228283,-0.6651418311197489,0.014019182582511778,0.2666538311868224,-0.578861767849459,0.03454100122458748,0.6546527832829272,0.9104627768885369,0.06044866884783804,0.7849821136279092,0.7399240910999701,0.0,0.0,0.0,0.0
0.03955388549813309,-0.06923991884366269,0.8458245855078683,0.002541191314389311,-0.5273393970517734,-0.0014350549884385494,0.8496497179902762,0.03317799567937353,0.40277545847651297,-0.6626259516092884,0.012339589886731582,0.2686482795736126,-0.5743009554150383,0.029996434552979685,0.6572891534185957,0.9043682552741107,0.06075148958297135,0.7819648507991614,0.7432435357468846,0.0,0.0,0.0,0.0
0.03873680521311889,-0.06898514387338725,0.845367231351426,0.0024270364337148054,-0.5272452360088062,-0.0013499133050222096,0.849708625550098,0.03257560644581316,0.39895761543080765,-0.6590302684804701,0.010468861087930548,0.27120530915507207,-0.5690020932605131,0.024819171233604796,0.660162753638154,0.8970134993330814,0.06033867646294992,0.7776297142865753,0.7475770123692093,0.0,0.0,0.0,0.0
0.03763237811565259,-0.06858755865789512,0.844811719122149,0.002285932721156753,-0.5271354137408535,-0.0012492188380929786,0.8497773058538032,0.03166280213028291,0.3937458243802055,-0.6537310769531158,0.008387318797967287,0.2740596650310951,-0.5635829169729575,0.019281631850599064,0.6630339298821928,0.8889496025962332,0.05934611693964057,0.772147803000464,0.752602365135371,0.0,0.0,0.0,0.0
0.03623482823784203,-0.06808637238213235,0.8441906596458729,0.002120491867968016,-0.5270179872062404,-0.0011378889233224418,0.8498507221177841,0.03052765898173876,0.38693174871988323,-0.6461677561167442,0.0060800525754996955,0.27718447971181326,-0.5585415126439117,0.013549725138107793,0.6658236461875836,0.8804556390256462,0.05794802735180226,0.7657040874454886,0.7580534705884759,0.0,0.0,0.0,0.0
0.03456191553128134,-0.06752305304249513,0.8435352731021871,0.0019331745823635933,-0.5269083486804959,-0.0010210222231439396,0.8499192976044531,0.029265105984046944,0.3784192313069511,-0.6359213938945479,0.003547938224072132,0.28083610092176803,-0.5543813618341041,0.0076947599424408986,0.6686134690590456,0.8716952383232137,0.056339980249885506,0.7585460678968717,0.7637036110800424,0.0,0.0,0.0,0.0
0.03267214284168221,-0.06693814582747726,0.8428757983523331,0.001726717941350776,-0.5268364281875837,-0.0009036378929513023,0.8499644579735428,0.027969399522178882,0.36832336088077827,-0.6228424517889222,0.0008323627890074871,0.28556866140852233,-0.5517539592887877,0.001674529644374645,0.6717134862268754,0.862834271177849,0.054724229376706804,0.7510382566952091,0.7693785967069225,0.0,0.0,0.0,0.0
0.030688018814034934,-0.06636861951548653,0.8422310456736659,0.0015036532369543042,-0.5268599055287745,-0.0007880583788647655,0.8499504444008164,0.02672401147011669,0.35712324590297845,-0.6072895827838052,-0.0019386588955775516,0.2922442269472167,-0.5516521302097909,-0.004701801416591431,0.6757998325875636,0.8541531257747746,0.053320639937786976,0.743687094627868,0.7751120942060805,0.0,0.0,0.0,0.0
0.02892212322858909,-0.06579615735929155,0.8415455149660651,0.0012528788738764458,-0.5269592867304864,-0.0006636028220779177,0.849889345770565,0.025500387469924828,0.34702928153284746,-0.5932757919078585,-0.0048035526321294954,0.3016530322838432,-0.5553194358237623,-0.012155208171570024,0.6820962696473544,0.8459578355603872,0.052217987172774566,0.736890560950379,0.7813293956393493,0.0,0.0,0.0,0.0
0.02769418135697206,-0.06526328435714294,0.8409152424583068,0.0009951402274776865,-0.5272899741424623,-0.0005487206973539074,0.8496846425411991,0.024404867389255177,0.33970645139453526,-0.582384077997997,-0.0073041702296331185,0.3149364752682068,-0.5654423782604729,-0.02068668043703397,0.691454978142701,0.8386297450697885,0.05153433648517677,0.732137757731592,0.787627968859846,0.0,0.0,0.0,0.0
0.02719315266224329,-0.06490907599486288,0.8405074702681832,0.0007548526632882338,-0.5279402175492912,-0.00045967120970388407,0.8492810757304337,0.023727028296454306,0.335832112297441,-0.5745815233158745,-0.008313905748965884,0.33235862453393805,-0.586214447756002,-0.028007710173399293,0.7027371941202308,0.832039992860817,0.051790699353960655,0.7308089121595958,0.7929794027645582,0.0,0.0,0.0,0.0
0.027135701685862382,-0.06476004876816818,0.840472660136973,0.0006236117398129903,-0.5279664919036189,-0.0004628324897568888,0.8492648469832424,0.02357212358007458,0.33573711132237927,-0.574594835363525,-0.008323282936500281,0.33239888519053884,-0.5862138536884784,-0.02800171430234548,0.7027715222488204,0.8320509461781388,0.05176197780861907,0.7307339194781629,0.792953027902004,0.0,0.0,0.0,0.0
0.027135701685862382,-0.06476004876816818,0.840472660136973,0.0006236117398129903,-0.5279664919036189,-0.0004628324897568888,0.8492648469832424,0.02357212358007458,0.33573711132237927,-0.574594835363525,-0.008323282936500281,0.33239888519053884,-0.5862138536884784,-0.02800171430234548,0.7027715222488204,0.8320509461781388,0.05176197780861907,0.7307339194781629,0.792953027902004,0.0,0.0,0.0,0.0
0.02788342334380872,-0.06403875946789209,0.8408937017949252,0.000494971779653684,-0.5277167634716917,-0.0003542896651689412,0.8494201828498855,0.022053202437759392,0.34262663296093504,-0.5865029501084043,-0.009899556925417812,0.3362343976578138,-0.591729548048646,-0.030349065352296728,0.7055588763256749,0.8289485066966957,0.04944206906612957,0.7344207054668754,0.7859519507418914,0.0,0.0,0.0,0.0
0.029684704608519172,-0.06262639828145533,0.8424478889116261,0.0003651182640552838,-0.5282898769889982,-0.00014991177009479186,0.8490639846831707,0.01890287938972987,0.3542499367274913,-0.5980814785866357,-0.013095400110912132,0.3422711844851919,-0.5917382714397577,-0.03594663484753143,0.71792729730887,0.8188978507733748,0.04461189358190234,0.748476047712611,0.7679680172560458,0.0,0.0,0.0,0.0
0.031029770147940523,-0.061305826541793736,0.843314063826382,-0.00022568186331947565,-0.5275483959766908,0.000131558110792475,0.84952493881144,0.015930534759136427,0.3347620159970676,-0.5713012416805134,-0.015781720759030025,0.3491857726942795,-0.6021733387967655,-0.03784314902699897,0.722492541807823,0.8110358225726955,0.03376045098634026,0.7267399201669218,0.7964235544466421,0.0,0.0,0.0,0.0
0.03289245389645037,-0.06002927924880938,0.844120610157392,-0.0007193523632329934,-0.5270515158203972,0.0004070591428240926,0.8498329344679773,0.01170844159892067,0.3195891574221053,-0.5569177342912152,-0.018494687283100275,0.35911583747669645,-0.6166666082033745,-0.04021367806759737,0.7286232276040359,0.8042215651949863,0.02271652689468326,0.7108909551484276,0.8162844237689487,0.0,0.0,0.0,0.0
0.034870330267977014,-0.05882845013800494,0.8449155236146901,-0.001093382741033666,-0.526830027307253,0.0006082694306348126,0.8499697387848113,0.007269861924081271,0.3088806326994586,-0.5510093920274325,-0.021042417648615724,0.3691179361208667,-0.6300288423968667,-0.043384140930239845,0.7358719845177216,0.7980693045965492,0.013282285590076546,0.7002671760266664,0.8310780980842695,0.0,0.0,0.0,0.0
0.0367574213332091,-0.05775702381337295,0.8457200858531306,-0.0013862591184938228,-0.5268037272088794,0.0007612509313689029,0.8499854891593788,0.0032364810442773485,0.30144685111339375,-0.5500545076480307,-0.023314897181711022,0.37814282191400433,-0.6408384226837012,-0.046710010898705294,0.7436440727936356,0.7919830857717172,0.005401244253133286,0.6930792581569318,0.8431458611886266,0.0,0.0,0.0,0.0
0.038420939678298155,-0.05685169349534944,0.8465072398136702,-0.0016202204917500687,-0.5268762470157391,0.0008832554212959466,0.8499400067510816,-0.00017358602511861193,0.2961141931344891,-0.5520035438436416,-0.025239238659978624,0.3857442333845377,-0.6489827724362797,-0.04973450644703719,0.7512329601712745,0.7858751692363125,-0.0014422204700269906,0.6878267586046029,0.8536475396941274,0.0,0.0,0.0,0.0
0.03978772161997836,-0.056142254056833304,0.847247518931376,-0.0018080483556144119,-0.5269880876824795,0.0009827175852307293,0.849870178714405,-0.0029514096698528298,0.29196607331878577,-0.5556506990469218,-0.026751375373662553,0.3917512795243322,-0.6546332733104349,-0.05212613258017213,0.7581391979080259,0.7798419948408687,-0.007615851274822177,0.6835387365684396,0.8631944515548686,0.0,0.0,0.0,0.0
0.04082618310854176,-0.055655501239063244,0.8479181932423806,-0.001955314252909218,-0.5271061013013804,0.0010612256579960754,0.8497965689017191,-0.005160162583575259,0.2883509726530961,-0.5602631772715575,-0.027789506417260048,0.3961649852701387,-0.6580859458928922,-0.053652655399730256,0.7640633389706815,0.7740064083076398,-0.013288076562864177,0.67963806420247,0.8721239623231287,0.0,0.0,0.0,0.0
0.04153034061516264,-0.05541546562976267,0.8485009245346156,-0.0020635516450996853,-0.527212838161729,0.0011169305363928005,0.8497300262425939,-0.006871056786162074,0.2848697232124944,-0.5653518074414784,-0.028297084467336028,0.39908432953439826,-0.6596961226290492,-0.054153949356122534,0.7688357220931968,0.7684923383933081,-0.01848818042498748,0.6758174958176039,0.8805978444894992,0.0,0.0,0.0,0.0
0.0419073800321642,-0.055442392001426234,0.8489770048304477,-0.002132516071501706,-0.5272993387495982,0.0011470630634722817,0.8496761406416974,-0.00814465369922402,0.2813710670033088,-0.5705195998448135,-0.02822741424076633,0.40065072065813456,-0.6598384556384068,-0.05352427709110765,0.7723449045031123,0.7634491450958005,-0.023156985851074154,0.6719566201035677,0.8886163369455761,0.0,0.0,0.0,0.0
0.041968667104612695,-0.055751333439566654,0.8493231389780677,-0.002161302207547004,-0.527360806543596,0.0011491492799398334,0.8496379157914199,-0.009034914387902515,0.27794849501679697,-0.5753423938833121,-0.027547463431263762,0.4010072466634454,-0.6588774969732094,-0.05170602869375744,0.7744819727302501,0.7590874474489249,-0.027159495349783767,0.6680837685724444,0.895971329154356,0.0,0.0,0.0,0.0
0.041723508211910405,-0.05635046131000334,0.8495092365514839,-0.0021486058545000354,-0.5273944850373611,0.0011211999942800544,0.8496170805460725,-0.009599247647049253,0.2749075478694068,-0.5792569076060002,-0.02624095050029285,0.4002667957201141,-0.6571355263192566,-0.048693612474623976,0.7751072695471634,0.7557040381045196,-0.030269606449148046,0.6643889212002527,0.9021321891153993,0.0,0.0,0.0,0.0
0.04117489349364371,-0.05723909512173984,0.8495008440503381,-0.002092811849724155,-0.5273992063983534,0.0010616110649138465,0.8496143655864674,-0.009900504846293158,0.27264050784733274,-0.5814485907538369,-0.024311432464642114,0.3984808992998245,-0.6548345615450591,-0.044540107118425945,0.774050871094887,0.7536619942837135,-0.03217004609134074,0.6612994758687906,0.9060443204818269,0.0,0.0,0.0,0.0
0.04031658330097454,-0.05840631755055631,0.8492721376975543,-0.00199350133392631,-0.5273766979159712,0.0009711702954221953,0.8496286843533094,-0.009989624431054963,0.27132575691843563,-0.5807836985853927,-0.021786639576394005,0.39559750481079275,-0.6519648040937606,-0.03933927765659367,0.7711737635931041,0.7532560901044626,-0.03256061359907866,0.6595870170485924,0.9059242617874894,0.0,0.0,0.0,0.0
0.03912963466299082,-0.05983385084340171,0.8488212460875428,-0.0018528017008130478,-0.5273238310969514,0.0008537045764569894,0.8496619418754658,-0.009895204095659327,0.27095318998323364,-0.5772958622393327,-0.01871214111809614,0.3914379586502178,-0.6482246242868152,-0.03319099576625454,0.7664256305620407,0.7545102111461802,-0.031492889434794794,0.6592316832392178,0.9017487383077715,0.0,0.0,0.0,0.0
0.03758520801923606,-0.06149510253439763,0.8481706741911729,-0.0016753562706842712,-0.5272314891295745,0.0007159734301668635,0.8497197405225001,-0.009626197973412283,0.2713201738560926,-0.5721892174006482,-0.01515402620694654,0.3857117938073127,-0.6430467773454495,-0.026210613446926465,0.7598552776675341,0.7571666955989322,-0.0293721246772842,0.6594157975578931,0.8952487744043108,0.0,0.0,0.0,0.0
0.03565340575179592,-0.06334972658337033,0.8473536626146345,-0.0014668565028315209,-0.5270914429746305,0.0005667569972006941,0.8498071180341031,-0.009188684143911599,0.27200252953746756,-0.5663489649360456,-0.01121127360335026,0.3780625815916007,-0.6356892689383146,-0.018579135728577747,0.751575263468162,0.7608715963930398,-0.026635627982485078,0.6596423637996249,0.8874330836990895,0.0,0.0,0.0,0.0
0.033312359965691235,-0.06534245224802734,0.8464031303128149,-0.0012328204218201972,-0.5268959426127484,0.00041446771184352376,0.8499288052705042,-0.00861303426800252,0.27265799531497564,-0.5603995264151276,-0.0070154345477910175,0.36813412500377957,-0.6253900325629161,-0.010565764668874366,0.7417234010732657,0.7653029671537954,-0.023661097336352008,0.6596197012498869,0.8788107170050571,0.0,0.0,0.0,0.0
0.030561149076909842,-0.06740375070604807,0.8453497323125044,-0.0009792132331368588,-0.5266399830517577,0.0002667741613444853,0.8500878179483783,-0.00796329358084985,0.27316171833620456,-0.5547948682735371,-0.002727170924153929,0.35564439132724235,-0.611482109020939,-0.0025112035554209627,0.7304810055445282,0.7702028263096032,-0.020784825912649005,0.6591895174152966,0.8696208025463796,0.0,0.0,0.0,0.0
0.02743941219740658,-0.06945253281577342,0.8442188199630312,-0.0007135418619367912,-0.5263259897151213,0.00013017660740408788,0.850282556837702,-0.0073299734490336185,0.27365141565848733,-0.5498753163352731,0.0014731961180455382,0.34050792844444716,-0.5935855090205794,0.005208252997115157,0.7181010690101609,0.7754253541751368,-0.01833115338851317,0.6583521650550127,0.8599933670432862,0.0,0.0,0.0,0.0
0.024057040961485993,-0.07140233749536642,0.8430116502423773,-0.00044682331164133134,-0.5259623707100666,1.4811170982001445e-05,0.8505077217324977,-0.006804301642164563,0.27448622789903093,-0.5458670760013307,0.005393678832380793,0.3230960216604651,-0.5721289224413755,0.01226833035291492,0.7048467989278134,0.7811235088890498,-0.01654719531637009,0.6574015773680881,0.8500492569105429,0.0,0.0,0.0,0.0
0.020623367767848903,-0.07317716969562048,0.841661119194429,-0.00018345525795832875,-0.5254899610691351,-7.559941977910616e-05,0.8507997775296223,-0.006453631576329316,0.27587152706756946,-0.5428032831916383,0.008878026472736668,0.30484566078140474,-0.5500078201048333,0.018379676376928993,0.6906808837205743,0.7879505372877763,-0.015524440709748122,0.6568237883050649,0.8399175910137067,0.0,0.0,0.0,0.0
0.017598157215629896,-0.07475814040613736,0.8402135093280347,3.9418675451569176e-05,-0.5249604799588766,-0.00014656913958337265,0.8511265895535172,-0.006220252006043965,0.2779680573288722,-0.5399774339685711,0.011954467898820922,0.28890150025006156,-0.5321049824689466,0.02371968656452079,0.6768638627041569,0.7956771565423199,-0.015204289741777385,0.6576847554045744,0.8297864751845302,0.0,0.0,0.0,0.0
0.01519942766263431,-0.07599366834432687,0.8388577760599399,0.00020296467195786408,-0.5244591636429382,-0.00018385366964699843,0.8514355587324973,-0.006348284802149962,0.28053917258839883,-0.5381209487850365,0.014321464149500699,0.27641169915108976,-0.5192279030952727,0.027873125517912014,0.6648193400627135,0.8032716087552351,-0.01595493510640711,0.6595810442525768,0.8198048613874664,0.0,0.0,0.0,0.0
0.013736913145620549,-0.07674579243804827,0.8378858951856272,0.0002755984660808291,-0.5240780169392883,-0.00018314135989559686,0.8516701959477687,-0.006687589548066193,0.2826186443315417,-0.5378016220936176,0.015738141103475,0.26903312468437934,-0.5126193510832548,0.03054254937441531,0.6566537600418588,0.8088095357117249,-0.01722358196322564,0.6620279669151616,0.810512013934846,0.0,0.0,0.0,0.0
0.0136664945622129,-0.0769357387109635,0.8378139635291559,0.00042653481697402603,-0.5240920093204245,-0.00017219050488595438,0.8516615255986147,-0.006684853979505262,0.2826590010080015,-0.537804853703188,0.015930518064283087,0.26883609407416287,-0.5126176366940624,0.030577415291699005,0.6564851857364836,0.8087286469319709,-0.0172366979251752,0.6620791346966229,0.8105267826771634,0.0,0.0,0.0,0.0
0.013666494562152933,-0.07693573871094708,0.8378139635292156,0.00042653481674887053,-0.5240920093205133,-0.00017219050486252946,0.8516615255985603,-0.006684853979538921,0.28265900100823615,-0.5378048537033201,0.01593051806430758,0.26883609407662423,-0.5126176366978668,0.03057741529140013,0.6564851857368227,0.8087286469326926,-0.01723669792569335,0.6620791346965944,0.8105267826776559,0.0,0.0,0.0,0.0
0.013666494562152933,-0.07693573871094708,0.8378139635292156,0.00042653481674887053,-0.5240920093205133,-0.00017219050486252946,0.8516615255985603,-0.006684853979538921,0.28265900100823615,-0.5378048537033201,0.01593051806430758,0.26883609407662423,-0.5126176366978668,0.03057741529140013,0.6564851857368227,0.8087286469326926,-0.01723669792569335,0.6620791346965944,0.8105267826776559,0.0,0.0,0.0,0.0
0.015145208674661697,-0.07781740753952675,0.838707154838894,0.0005345359242044822,-0.5248300343073936,-0.00019632894561245307,0.8512068554794368,-0.0049629172821965785,0.28838233543469777,-0.5396633798198422,0.017650717236050197,0.2781776091948808,-0.5217788827774535,0.03406947213926953,0.6658977716173946,0.8001027334513715,-0.01410471757787005,0.6706393465198881,0.8069916805808445,0.0,0.0,0.0,0.0
0.018017110441685687,-0.0794977034211577,0.8409793020208849,0.0007493423469904198,-0.526417876795516,-0.000607060580110258,0.850225434195896,-0.0009280502464687531,0.2981130835117538,-0.5374870807927589,0.021690074418565464,0.294776860137457,-0.5343624815138119,0.03930181611324226,0.6878552404399525,0.7786229841017196,-0.00968152961381382,0.6900106294360984,0.7945834053031945,0.0,0.0,0.0,0.0
0.02075198279573819,-0.08123774036536527,0.8423452578410722,0.0009752669952628047,-0.5264171571281054,-0.0005310647517115942,0.8502257015085353,0.0022007875771295066,0.31268106705194343,-0.5560825600384877,0.022076732709322727,0.2914468224326627,-0.5318972652233649,0.03680894561322334,0.6787388640837676,0.8016681885962367,-0.002419355081147257,0.7023499893334295,0.7856761714275696,0.0,0.0,0.0,0.0
0.02390291535107422,-0.08301032359518608,0.8434065279986247,0.0011735932964081625,-0.5263940855403607,-0.000567689273491595,0.8502397115612695,0.005695844353651188,0.3302975365517261,-0.5808297168522111,0.021815583428645802,0.28719287179000563,-0.533088634989347,0.03393323609130988,0.6723697491805124,0.8196103821815591,0.004803610970174861,0.7139253020447603,0.7795075703392146,0.0,0.0,0.0,0.0
0.027359907800533427,-0.08467918922183913,0.8442147726136854,0.001340790566396934,-0.5263017434735379,-0.0006464278265457832,0.8502965713375754,0.00914607354795947,0.3500792492559913,-0.6102975504343434,0.020958467481554485,0.2835896892056107,-0.5363555030447097,0.03207465179215197,0.6689462575623932,0.8341596787944141,0.011725043691052919,0.7248516756984897,0.7750653608721002,0.0,0.0,0.0,0.0
0.030611113077856744,-0.08633515967383293,0.8450324956041932,0.0015458361899340356,-0.526381324356585,-0.0007698831563841896,0.850246857706047,0.012657487434272224,0.3670237766012325,-0.6335973541977623,0.0203943946987342,0.28107949085374356,-0.5407133564183091,0.031665278439965944,0.6670836503171652,0.8468200474235258,0.01838008378425609,0.7358270932826801,0.7707167204289502,0.0,0.0,0.0,0.0
0.03347399089152853,-0.08797249332480535,0.8458991880533387,0.001770718643068451,-0.526561818447398,-0.0009181482533325835,0.850134502836252,0.01617800991402022,0.380637661796879,-0.6503834739843479,0.020137892472942398,0.279226902524673,-0.5457371396170994,0.03236010871538351,0.6656896130204675,0.8582265694523492,0.024896739196121516,0.7465441222663557,0.7658678152815833,0.0,0.0,0.0,0.0
0.03587292095689916,-0.08956478154746018,0.8467805530128515,0.0019924623541646607,-0.5267725768023755,-0.0010704221810414578,0.8500032568285294,0.019620759161435086,0.39106138150004016,-0.6616061027509513,0.02004956854617485,0.2775559862190253,-0.5511918467425997,0.03372720687988933,0.664229902064722,0.868722729901695,0.031316948838616944,0.7565128695047376,0.7606802399973388,0.0,0.0,0.0,0.0
0.037799739358549425,-0.09107293525895115,0.847634323466011,0.0021958376004201563,-0.5269723632573798,-0.0012133329685427993,0.8498787175140181,0.022884042413808925,0.39864504849410987,-0.6683625044845413,0.019970599654919385,0.27574409731802546,-0.5568964147539408,0.035382620726121604,0.6625308225471179,0.8785294774404282,0.03753709305184126,0.7653854764485846,0.7554653799210594,0.0,0.0,0.0,0.0
0.0392842031706143,-0.09245451179224247,0.8484256419245866,0.0023718562605673163,-0.5271411454772317,-0.0013387825621809005,0.8497733784392651,0.02586710755779286,0.4038234048374833,-0.6716942914726204,0.019769376098734852,0.2736492405530749,-0.5626785642697336,0.037040324962366616,0.6605875752100409,0.8877750410404789,0.04337710357648269,0.7729753739961068,0.7504988507502255,0.0,0.0,0.0,0.0
0.04037353936203943,-0.09367062223505565,0.8491258166560497,0.002515440890787076,-0.5272709705044559,-0.001441872429645354,0.8496922485372634,0.028482214134429473,0.4070495326188103,-0.672550065740981,0.01935742843602552,0.2713141997925894,-0.5683297830148187,0.03848022449778259,0.6584817154267179,0.896463421005156,0.04864386596858391,0.7791962483114041,0.7460170601474081,0.0,0.0,0.0,0.0
0.04111899331709081,-0.09469005119287664,0.849707328635108,0.002623527286713604,-0.5273597591862926,-0.001519441735008445,0.8496366828194067,0.030661746999645943,0.408752451757428,-0.6717815681864091,0.018692288235380553,0.2689714912453192,-0.5735443632686039,0.03948615902214263,0.6563683051224745,0.9044032934305395,0.05317531860069708,0.783995435814056,0.7422656408423692,0.0,0.0,0.0,0.0
0.04156710366057918,-0.09549155003772979,0.8501400254205705,0.0026937531070412514,-0.5274079644557812,-0.0015690579357792776,0.8496064505287151,0.03236162133013097,0.4093054249786527,-0.6701331862142316,0.01777390506684816,0.26702182619881615,-0.577837344706818,0.03978475701110767,0.6545141320236629,0.9110815849236571,0.05686752319808372,0.7873066364886506,0.7395426570341267,0.0,0.0,0.0,0.0
0.04175391268587623,-0.09606528891421301,0.850392117154758,0.0027239873765488596,-0.5274177907171006,-0.001588591547632249,0.8496002179288561,0.03356282397616772,0.40899336247388707,-0.6681934165500477,0.016633029029744322,0.26592091336506424,-0.5804452717991692,0.03902336038134786,0.6533914450038407,0.9154553896805274,0.05968646529429748,0.7890390626658459,0.7381936736724123,0.0,0.0,0.0,0.0
0.04170106514184747,-0.09641337295594847,0.8504421181586587,0.0027140222822366554,-0.5273959132863577,-0.001578156048822594,0.849613850025637,0.034272742734029235,0.40796510332869884,-0.6662533238965994,0.015305218177675594,0.26589080420872907,-0.5802574055965097,0.03686952352947516,0.6537992674115006,0.9157457206422333,0.0616462860718919,0.7891342324307081,0.7384897056032879,0.0,0.0,0.0,0.0
0.041412123407854814,-0.09654599143815464,0.8502932953634668,0.002665914156741823,-0.5273471104664043,-0.0015393877267088276,0.8496443657612694,0.03451400294999912,0.4062085750878131,-0.664244101679317,0.013812547217344734,0.2669566305949442,-0.5772995476159876,0.03334816422484003,0.6557279678693163,0.9119478284739543,0.06277989221092406,0.7876242299704646,0.7404347867578321,0.0,0.0,0.0,0.0
0.04087547025094554,-0.09648051386114678,0.8499736194933797,0.002583543289628188,-0.5272732201483974,-0.0014753689394246382,0.8496905906886947,0.034322920536918246,0.40356996458019484,-0.6617737511719302,0.012156052317025365,0.2689566547401118,-0.5727484515445443,0.028831562454693784,0.6583670615876753,0.9058340213624669,0.0631336844965076,0.7846363109721146,0.7437584905607364,0.0,0.0,0.0,0.0
0.04007286694773725,-0.09624345775363566,0.8495211659902144,0.0024714822558856834,-0.5271785589372296,-0.0013910817335128862,0.8497498006260051,0.033756954756424574,0.39980989281822227,-0.6582465137318084,0.010318250491349271,0.27152267416852166,-0.5674595958063579,0.023694577510892628,0.6612466124304587,0.8984581464453593,0.06278957713864096,0.7803430445179912,0.7481012861577118,0.0,0.0,0.0,0.0
0.0389873516425005,-0.09586845112570722,0.8489718583643179,0.0023331592861037132,-0.5270681071503268,-0.0012913679172949835,0.8498188625593218,0.03288995633191667,0.3946758621870512,-0.6530424402258684,0.008278010199847946,0.27438771488131636,-0.5620449341875997,0.018205833292801687,0.6641281301816768,0.8903754172349742,0.061879964258315115,0.7749126465327935,0.7531425916079669,0.0,0.0,0.0,0.0
0.03761278369550625,-0.09539377748155176,0.8483578006245936,0.0021712077565777996,-0.5269495875629444,-0.0011810693780920393,0.8498929480230111,0.031807709236246345,0.3879607516706213,-0.6456077677999527,0.006018186759635001,0.2775213303582517,-0.5569938792465643,0.012525789333579104,0.6669335574521074,0.8818695959082737,0.06057446615843622,0.7685254685728039,0.7586192253899621,0.0,0.0,0.0,0.0
0.03596635545760423,-0.09485968796824343,0.8477093823610969,0.001988164997307157,-0.5268378476099594,-0.001065209765450988,0.8499628196890757,0.030602213161530434,0.37957025202509415,-0.6355340947160563,0.0035358460597555907,0.2811728899309741,-0.5527965230681187,0.006716547028138214,0.6697448941333995,0.8731106393353211,0.05906281721850723,0.7614223225867673,0.7643085684339948,0.0,0.0,0.0,0.0
0.034105663243346025,-0.09430510960500584,0.8470557248835737,0.0017869303085201265,-0.5267618522274657,-0.0009487357471891008,0.8500105045341757,0.029363954593821382,0.36962188228189535,-0.6226869071911809,0.0008657180284200173,0.2858828596720572,-0.5500824777697201,0.0007190119342450896,0.6728709338006529,0.8642733311549903,0.05753988335068877,0.7539589608508176,0.7700394585823254,0.0,0.0,0.0,0.0
0.03215165619758582,-0.09376460522524481,0.8464147261646867,0.0015704532730212131,-0.5267761149840153,-0.0008342069496662221,0.8500022132074891,0.028171586417413814,0.35860024463790263,-0.6074553045509724,-0.0018761365292872872,0.29248201921697387,-0.5498046038821561,-0.005693209466916679,0.6769797540475914,0.8556436199911996,0.0562121202062429,0.7466293690555663,0.7758341717660386,0.0,0.0,0.0,0.0
0.030392490909843115,-0.09322627553598918,0.8457366273484319,0.0013279702517331143,-0.526865833290165,-0.0007105634721659587,0.8499471308887527,0.02700787863133588,0.34852024561749473,-0.5934754300572282,-0.004692854990512948,0.30173748834583425,-0.5532221989813318,-0.01321398619064016,0.6832046841426664,0.847551297048084,0.05520207753957819,0.7398222876157027,0.7820850077913044,0.0,0.0,0.0,0.0
0.02916553489695524,-0.09271946417606851,0.8451099089401238,0.0010819554506438797,-0.5271764602542672,-0.0005968485738051273,0.8497549369659254,0.025953532064219367,0.3412130855002732,-0.5826870416069024,-0.007182092195717195,0.31472463667269107,-0.5628729473748845,-0.021962317837523997,0.6924399529822968,0.8404157181949365,0.05455819173310075,0.73501434415248,0.7883838641037384,0.0,0.0,0.0,0.0
0.028657136781023874,-0.09237855851440278,0.8447027078139699,0.0008603047444085878,-0.527798461645013,-0.0005103359361602451,0.8493690501296458,0.025286717119612206,0.33733443128456364,-0.5750024163948978,-0.008227532769955847,0.3316656687647215,-0.5828552769731216,-0.029652152399797654,0.703505129786683,0.8341719834296091,0.05476270188164927,0.7335902756364246,0.7936802185673223,0.0,0.0,0.0,0.0
0.0286008375364343,-0.09223361520497576,0.8446690392402081,0.0007325142335618402,-0.5278239108645463,-0.0005131227781432572,0.8493533535858722,0.02513556054178345,0.33724147163538276,-0.5750156861343931,-0.008236895075613404,0.3317058284301938,-0.5828543300467782,-0.029646356832878286,0.7035393249898579,0.8341830326753158,0.05473512185589268,0.7335163866098124,0.7936543273590018,0.0,0.0,0.0,0.0
0.0286008375364343,-0.09223361520497576,0.8446690392402081,0.0007325142335618402,-0.5278239108645463,-0.0005131227781432572,0.8493533535858722,0.02513556054178345,0.33724147163538276,-0.5750156861343931,-0.008236895075613404,0.3317058284301938,-0.5828543300467782,-0.029646356832878286,0.7035393249898579,0.8341830326753158,0.05473512185589268,0.7335163866098124,0.7936543273590018,0.0,0.0,0.0,0.0
0.029354415476657646,-0.09152054210655146,0.8450945914203575,0.0005887394508196066,-0.5275915776960306,-0.00039943579799912003,0.8494978640238688,0.023641025514962898,0.3441144024316888,-0.5868020250419185,-0.009789373994967428,0.335541790191777,-0.5882464455846156,-0.03185842633734796,0.7063829068736686,0.831061049363936,0.05256207766281892,0.7372961112390048,0.7866786141493222,0.0,0.0,0.0,0.0
0.031162903073408046,-0.09011766615864508,0.8466540906047431,0.0004512607499992399,-0.52816906227106,-0.00019352071150013418,0.8491390937727333,0.020516847650430443,0.3557497158396332,-0.5983583386906065,-0.01295914842757948,0.3416017101132135,-0.5882448350931505,-0.03740025489387832,0.718808693835457,0.8209287725203158,0.04782985032035564,0.7514224534226723,0.7686440725467713,0.0,0.0,0.0,0.0
0.03251241133173144,-0.08880821595253861,0.8475285058298442,-0.00015465997655846875,-0.527437555451373,9.798530333136434e-05,0.8495937803319017,0.017555449058281884,0.33616911141651923,-0.5713414624428161,-0.015623267329449079,0.34853728162051745,-0.5986132465684006,-0.03911401489107261,0.7234180079207113,0.8129791620987054,0.036526662766311044,0.7295536639444071,0.7971699801811457,0.0,0.0,0.0,0.0
0.034379675669005585,-0.08754227359103203,0.848344335112273,-0.0006622591460163024,-0.5269522641581811,0.00038202491374391117,0.8498945386154422,0.013334106113193751,0.3209275242671827,-0.5567593968448457,-0.0183129469366627,0.3584960015132629,-0.6130448867947546,-0.04132724890004542,0.7296164589330957,0.8060589195764226,0.025146916924113083,0.7136285861238818,0.8170682494320306,0.0,0.0,0.0,0.0
0.036357549451373324,-0.08634874416846851,0.8491502680132641,-0.0010462757916005591,-0.5267433998082175,0.0005891283926070616,0.8500234990829284,0.008889572586294518,0.31018031585231254,-0.5507270450810884,-0.020842948174695237,0.36848518286980436,-0.6262690669466973,-0.04439785907526682,0.736947330522607,0.7997886125114195,0.015519607700162624,0.7029588096333534,0.831888891634869,0.0,0.0,0.0,0.0
0.03824256253597385,-0.08528293542607375,0.8499632246356102,-0.0013451359836624873,-0.5267254596829366,0.0007456233605999721,0.8500340727151993,0.004857953216018671,0.30271955825369357,-0.5496990151895494,-0.023100935116073477,0.3774924540494416,-0.6369711404634375,-0.04766655769798333,0.7447827073758841,0.793600931384925,0.0075529625642405795,0.6957468606356375,0.8439748388158563,0.0,0.0,0.0,0.0
0.039903667156773695,-0.08438246723513085,0.8507556059516377,-0.001582295688204816,-0.5268027683523663,0.0008695888023682064,0.8499856371798014,0.0014589453595318168,0.2973702414466803,-0.5516067225015644,-0.025012745240518105,0.38508106967021827,-0.6450504642515961,-0.05065841443706058,0.7524131278746016,0.7874175901727488,0.0006851168797155126,0.690491139261884,0.8544911589219402,0.0,0.0,0.0,0.0
0.041268725127817714,-0.08367758727528715,0.8514986653185652,-0.0017715365839368286,-0.5269169254949772,0.0009700781009977568,0.8499143922969715,-0.0013008694847379124,0.29321548195071395,-0.5552329930115185,-0.026513691965833575,0.3910830332581003,-0.6506727028851702,-0.05302938909543578,0.7593439287333266,0.7813322873266985,-0.005484401984064779,0.6862159828801485,0.8640526662828247,0.0,0.0,0.0,0.0
0.042306671140832586,-0.08319519442809806,0.8521706064591951,-0.0019191160242483982,-0.5270356968040985,0.0010490623860342255,0.8498403325072388,-0.0034878474858540745,0.2896022681799947,-0.5598380003531527,-0.027541858727745262,0.3954997210711692,-0.6541247850695047,-0.0545399157675814,0.7652816213644956,0.7754618305502989,-0.011142168960352378,0.682338951092802,0.8729983002740289,0.0,0.0,0.0,0.0
0.04301170550173405,-0.0829592129121854,0.8527538987043803,-0.002027016037945095,-0.5271423383820667,0.001104917329410709,0.8497738672427881,-0.005176062508032176,0.2861292218018106,-0.5649280230553692,-0.028040901387441135,0.39842925031645415,-0.6557530674069791,-0.05502612184745633,0.7700617079459883,0.7699243881986803,-0.016325774230978314,0.6785481449013065,0.8814903058642178,0.0,0.0,0.0,0.0
0.04339098396836984,-0.08298968933665087,0.8532304369357643,-0.002095295711524353,-0.5272284399898692,0.0011350109182161827,0.849720244287463,-0.006428407575386297,0.28264278271733195,-0.5701028692008047,-0.027964460932624197,0.40001156892927187,-0.6559241964630493,-0.05438055896895759,0.7735766508888131,0.7648649309943496,-0.0209791387824819,0.6747191862787166,0.8895288061231128,0.0,0.0,0.0,0.0
0.043455717319501604,-0.0833014740857455,0.853577318156666,-0.0021232780112239143,-0.5272896482760135,0.001136962770205231,0.8496821910732884,-0.007300861328750864,0.2792343913335648,-0.5749358329643222,-0.02727981857049935,0.40038812344433267,-0.6549959897885119,-0.052544809706783824,0.7757201766352957,0.7604913441346087,-0.024968342753612024,0.6708767643806882,0.8969051182461557,0.0,0.0,0.0,0.0
0.043215015790041875,-0.08390260215635126,0.853764628953096,-0.0021098504063030536,-0.5273235684735812,0.0011088528411959896,0.8496612107828201,-0.007852766090206225,0.27620787626938736,-0.5788613089109954,-0.025970848040139254,0.3996704609235249,-0.653285863646432,-0.04951267024606043,0.7763540620534083,0.7570994672382744,-0.028068168118699912,0.6672073315205572,0.9030874170331431,0.0,0.0,0.0,0.0
0.04267173870798058,-0.08479240132861905,0.8537578642273271,-0.0020535543475633956,-0.5273292726401969,0.0010491180576293834,0.8496578843761785,-0.008148678567206599,0.2739540688460961,-0.5810624386278161,-0.024040951445464906,0.3979098267562278,-0.6510143341827548,-0.04533639898180787,0.7753086003384547,0.7550531705594503,-0.02996266559294777,0.664135220360161,0.9070189038787376,0.0,0.0,0.0,0.0
0.04181972990885552,-0.08596021205236705,0.853530938275512,-0.0019540278001402584,-0.527308451688358,0.0009585404515885994,0.8496711480058537,-0.00824021690967464,0.27265016960597543,-0.5804036974260625,-0.02151722439380667,0.3950559847536383,-0.6481759764977415,-0.040108518185578916,0.7724437512425198,0.7546490413506691,-0.03035275252150631,0.662430429140887,0.9069128752800463,0.0,0.0,0.0,0.0
0.04064044263938192,-0.08738831459233878,0.8530816488805628,-0.0018132952526154775,-0.5272577618293534,0.0008409383057163787,0.8497030406993927,-0.008154821978721853,0.2722867806165074,-0.5769194918596343,-0.0184441606815486,0.39093431196392525,-0.6444785728393654,-0.03392692703459788,0.7677077618294292,0.7559128318752347,-0.029289591791169925,0.6620745075364034,0.9027468219878295,0.0,0.0,0.0,0.0
0.03910566461951544,-0.08905091314872607,0.8524321311828732,-0.001635750527494383,-0.5271676912312296,0.0007030776244432469,0.8497594102591631,-0.0078984335788138,0.2726637238099943,-0.5718172473541788,-0.014886455739363865,0.3852600491401292,-0.6393683442887134,-0.02690456252958505,0.7611475758000485,0.7585885668206853,-0.027176449160769386,0.6622541490416792,0.8962565398816347,0.0,0.0,0.0,0.0
0.037186085826370535,-0.09090851195434461,0.8516151279727381,-0.0014267530591424362,-0.5270293167044541,0.0005537291699826538,0.8498457254665406,-0.007473046429634577,0.27335903157886055,-0.5659860979598816,-0.010941595071014231,0.37768297981011545,-0.6321198936151652,-0.01922075406383208,0.7528725506959829,0.7623243836707012,-0.02444833905829241,0.6624778406556345,0.8884541124242398,0.0,0.0,0.0,0.0
0.03486002370578266,-0.09290647812518919,0.8506629897040336,-0.0011914582134827862,-0.5268340082044054,0.0004012845066961484,0.8499672624268246,-0.00690484045235554,0.27403178342633483,-0.5600550926660415,-0.006740015567453312,0.367851319220566,-0.6219863207683045,-0.011145120944691542,0.7430159508232561,0.7668009509662709,-0.021480794004007833,0.6624583515334382,0.8798500539061981,0.0,0.0,0.0,0.0
0.03212593670044387,-0.09497542787708779,0.8496059684187706,-0.0009354416138328612,-0.5265757471009098,0.00025335633724474617,0.8501276629569656,-0.006254434871390298,0.2745569790313676,-0.5544845858501539,-0.0024421747222921454,0.35548279671069105,-0.608308536968414,-0.0030223896230933307,0.7317539359585531,0.7717615345827782,-0.018607211134057285,0.6620380620149225,0.8706828856116017,0.0,0.0,0.0,0.0
0.029021574472937618,-0.09703362359747787,0.8484697768792108,-0.0006658122896290329,-0.5262560869366528,0.00011626125227721637,0.8503258635014216,-0.00561113104313728,0.27507104061315757,-0.5496244083690209,0.0017704609050205955,0.340482484833885,-0.5906956207914378,0.0047619474261183115,0.719336964789715,0.7770550545113384,-0.016147089303131485,0.6612108140076172,0.86108021212104,0.0,0.0,0.0,0.0
0.0256532969963033,-0.09899279441605466,0.8472581932089185,-0.0003933640621546558,-0.5258848531918805,-1.3314419096831492e-06,0.8505556809793796,-0.005067811180001325,0.27593689733014776,-0.5457098525326165,0.005705199462973061,0.3231917024760678,-0.5695114325613767,0.01186382521997801,0.7060413965438352,0.7828160692970141,-0.014346150760661522,0.6602572700033007,0.8511609618652208,0.0,0.0,0.0,0.0
0.022227875678554724,-0.10077364212673029,0.845906763380632,-0.00012380565841125517,-0.5254081258858093,-9.190406869753814e-05,0.8508503261320187,-0.004685266378007534,0.2773830521336146,-0.5427942992349162,0.009192718039885809,0.305010858617381,-0.5475443193261408,0.018003171795332767,0.6918450763245556,0.7896885154601477,-0.01324750011663195,0.6596694482086227,0.8410667000429939,0.0,0.0,0.0,0.0
0.019209673098202207,-0.10236055467519349,0.8444588777066564,0.00010459049204302423,-0.5248785820829018,-0.00016617895770296384,0.8511770882231414,-0.004419124702851297,0.27956762300598065,-0.5401069004725078,0.01228005727821559,0.28912630788942173,-0.5297588912528028,0.023355164600856414,0.6780179157964179,0.797460724702059,-0.012752357284664048,0.660573080158792,0.8309862283775542,0.0,0.0,0.0,0.0
0.016817207063755023,-0.10360124759118915,0.8431050766648768,0.00027271970385577194,-0.5243841403225231,-0.00020937314441194703,0.8514817409463681,-0.004520687855610572,0.2822822284112479,-0.538419367520476,0.014663456670855652,0.27667213972543186,-0.5169152079956905,0.027505646334126797,0.6659979588773668,0.8050928113649551,-0.013218319705102491,0.6625723621598496,0.8210854430384928,0.0,0.0,0.0,0.0
0.01536048725713712,-0.10435679213396219,0.842136951114567,0.0003479315403299443,-0.5240148938123056,-0.00021607833926000122,0.8517090015472847,-0.004842829177772997,0.2845660649760253,-0.5383537918759139,0.01609900911950995,0.26930553410369085,-0.5102637423754611,0.030162161118023077,0.6578845625282655,0.8106573288616158,-0.014178719578841162,0.6651466532125432,0.8119001687275886,0.0,0.0,0.0,0.0
0.015289941776118253,-0.10454700684318677,0.8420652767400914,0.0004992202712706727,-0.5240290495094407,-0.00020546441975790564,0.8517002194632364,-0.00484014300320466,0.2846066211969501,-0.5383570266030735,0.016291920182600846,0.2691092687722135,-0.5102625107189502,0.030196739001720582,0.6577163322970562,0.8105768587745693,-0.014191418393359679,0.6651977682784903,0.8119148816992008,0.0,0.0,0.0,0.0
0.015289941776054375,-0.10454700684316953,0.8420652767401555,0.0004992202710279627,-0.5240290495095372,-0.00020546441973283818,0.8517002194631772,-0.004840143003237858,0.28460662119720137,-0.5383570266032109,0.01629192018263119,0.2691092687748471,-0.5102625107230172,0.030196739001406767,0.657716332297422,0.8105768587753401,-0.01419141839391926,0.6651977682784626,0.8119148816997279,0.0,0.0,0.0,0.0
0.015289941776054375,-0.10454700684316953,0.8420652767401555,0.0004992202710279627,-0.5240290495095372,-0.00020546441973283818,0.8517002194631772,-0.004840143003237858,0.28460662119720137,-0.5383570266032109,0.01629192018263119,0.2691092687748471,-0.5102625107230172,0.030196739001406767,0.657716332297422,0.8105768587753401,-0.01419141839391926,0.6651977682784626,0.8119148816997279,0.0,0.0,0.0,0.0
0.016755803916008366,-0.10541338703073264,0.8429504655387976,0.0006052061573623793,-0.5247616708374371,-0.00023048940133312898,0.8512489467952629,-0.0031443000048943176,0.29025867164439645,-0.5401518757139327,0.0179841128986194,0.27834900855698863,-0.5192976760043403,0.033636822517696036,0.6670531686730984,0.8020300182432688,-0.011067437962368941,0.6737307784736665,0.8083219132236522,0.0,0.0,0.0,0.0
0.019599294268316764,-0.10705869670366237,0.8451820866556868,0.0008202538910690483,-0.5263417441307723,-0.0006429302025530317,0.850272475274653,0.000822260399364211,0.2998613345276154,-0.5379518721822634,0.021952536239285537,0.2947400866058786,-0.5317039010750615,0.03871207533322725,0.6887282125089556,0.7809923733248938,-0.006725332116727148,0.6929047241299531,0.796055977248375,0.0,0.0,0.0,0.0
0.02231684226403599,-0.1087545233992577,0.8465380327639052,0.0010383655080855093,-0.5263473201864356,-0.0005689731846920563,0.8502688378384478,0.0038799953950384674,0.3143327586281486,-0.5563894640874677,0.022289966219417843,0.29170913484751004,-0.5298673165688121,0.036216879585478395,0.6798225332917542,0.8035704361942977,0.000441746390381627,0.7052394719522398,0.7870495143823067,0.0,0.0,0.0,0.0
0.02544502256975776,-0.11047575161120066,0.8475929918968093,0.0012310672195591508,-0.526330723730242,-0.0006052559268043282,0.8502788292062573,0.007282722922047227,0.3318264481025762,-0.5809223389638213,0.021961977710733136,0.28763505751437973,-0.5314285653455958,0.03331626797332177,0.6735712694121696,0.8212491536709265,0.007536096621839973,0.7168329142370925,0.7807123376456396,0.0,0.0,0.0,0.0
0.02887458258854724,-0.11209139383705315,0.848391471084483,0.001392497109569018,-0.5262387236451994,-0.00068249648804504,0.8503354637357041,0.010634630929173272,0.3514955782132665,-0.6102444908640423,0.021025896863662307,0.28411004885381363,-0.5349067896067604,0.031396422478185144,0.670191949453302,0.8356584312218348,0.01432038745579619,0.7277428576818603,0.7761078618106335,0.0,0.0,0.0,0.0
0.03209117000636563,-0.11369910827484195,0.8492021218706503,0.0015941136392629504,-0.5263228346758408,-0.0008056800750600707,0.8502829431313492,0.014055021228002179,0.36826537918020186,-0.633262997914752,0.02039481783826213,0.281625896108637,-0.5393802671036976,0.03090909718170305,0.6683275420914506,0.8482499063667239,0.02083528736098491,0.7386976769776428,0.7716072470313164,0.0,0.0,0.0,0.0
0.034917837568398495,-0.11529313322846425,0.8500609278065777,0.0018156155179872208,-0.5265054070890306,-0.0009535709409451727,0.8501693069905344,0.017491845866744907,0.381706778258693,-0.6497941481932711,0.020074573745302842,0.27976217890947797,-0.5444648320864939,0.031517094657625346,0.6669026784337196,0.8596246301137322,0.027225547028980675,0.7493691732391052,0.7666384804513465,0.0,0.0,0.0,0.0
0.03728249227418976,-0.11684706956463778,0.8509336082422186,0.00203394331043536,-0.5267162748953729,-0.001105224843173968,0.8500380034521974,0.020858799200583877,0.39197534818923163,-0.660808109486243,0.019925742497883134,0.2780633998710942,-0.5499455589203377,0.03279492283580823,0.6654066922892129,0.8701111648152646,0.033534584390785695,0.7592752518451857,0.7613667506615686,0.0,0.0,0.0,0.0
0.039179002529504736,-0.11832191926134626,0.8517787648369542,0.00223402756726138,-0.5269150791603523,-0.001247350750942277,0.8499140854170923,0.024055043338477917,0.3994265915689199,-0.6674003467566074,0.01979131110029234,0.27621997212580973,-0.5556551675479916,0.03436525525201956,0.6636765099256066,0.8799223361820465,0.039658916528968094,0.7680795942281847,0.7560960066086205,0.0,0.0,0.0,0.0
0.0406381597260754,-0.1196754172330896,0.8525623259823143,0.0024070573054700765,-0.527082429593922,-0.001371976620756177,0.8498096470202303,0.02698078895628316,0.4044968781553263,-0.6706066102664501,0.019541589873172158,0.2740964741890615,-0.5614308334714927,0.03594702014018895,0.6617103511438744,0.8891807636808645,0.04541886142288501,0.7756048360806801,0.7510930837611504,0.0,0.0,0.0,0.0
0.04170759479490145,-0.1208688723945524,0.8532561014744992,0.002548094193319134,-0.5272107779085232,-0.0014743204459309854,0.8497294447365552,0.029549188333278364,0.40763905041982856,-0.6713695663525008,0.019089602119799053,0.27173838473604883,-0.5670705709878464,0.037323013382336234,0.6595894170580059,0.8978862023103729,0.050622049003798096,0.7817706952261186,0.7465874863958246,0.0,0.0,0.0,0.0
0.04243857176573696,-0.12187122797454876,0.8538328188203473,0.002654170956060548,-0.5272982708612192,-0.001551310511688704,0.8496746920786806,0.031693315662547634,0.4092809807247268,-0.67053600670334,0.01839388321467473,0.2693788996409034,-0.5722731739861907,0.03827858585761159,0.6574671581273037,0.9058438476347427,0.05510729074828741,0.7865278957268781,0.7428202515513884,0.0,0.0,0.0,0.0
0.04287741958881423,-0.1226613213444089,0.8542623908980185,0.002722991044939375,-0.5273454503555507,-0.0016005722308162365,0.8496451020735684,0.03336950494031429,0.4097944374504396,-0.668846644722729,0.01745502155528474,0.26741840676857237,-0.5765567245356772,0.038541369188470585,0.6556083834440656,0.9125372938761009,0.05877141341892096,0.7898115764383439,0.7400867485638553,0.0,0.0,0.0,0.0
0.04305985166088703,-0.12322932249324006,0.8545129768396726,0.0027524658662578037,-0.5273544884842142,-0.0016200008906291632,0.8496393605550076,0.034558867344099034,0.4094628488408278,-0.6668877238727979,0.016304150344451315,0.26631172038931056,-0.5791596139667521,0.037759676665904476,0.6544834855422919,0.9169197908618092,0.061580936523232314,0.7915309996921465,0.7387311978326655,0.0,0.0,0.0,0.0
0.043007170195402136,-0.12357724358468274,0.8545629914867664,0.0027424049414583943,-0.5273319229950372,-0.001609696517897535,0.8496534182139288,0.035268592897937885,0.40843380440127663,-0.6649494071158639,0.014976905372581836,0.26627964652488717,-0.5789717049045903,0.035601709535808365,0.6548903471619297,0.9172079759298776,0.0635501598614944,0.791626885319216,0.739023968516858,0.0,0.0,0.0,0.0
0.042722681152268675,-0.12371508093003812,0.8544156508454673,0.0026948509914352164,-0.5272824826681132,-0.00157127713675484,0.8496843251100048,0.035520843081837485,0.4066941339945243,-0.662961756109968,0.013494994629286201,0.26734679987521864,-0.5760184461441198,0.0320917257001159,0.6568189560016093,0.9133972975640311,0.06471137809796476,0.7901305284116725,0.7409688843218232,0.0,0.0,0.0,0.0
0.04219460535646611,-0.12365990083843538,0.8540989153484191,0.0026136433337660904,-0.5272080403054836,-0.0015078032620226428,0.8497308854190828,0.03535119318911196,0.40408918129301735,-0.6605316132526383,0.011858652611763765,0.2693515955772119,-0.5714752370724102,0.02759988384929515,0.6594592050977126,0.9072648131572748,0.06510957338264335,0.7871684363622218,0.7442956644514442,0.0,0.0,0.0,0.0
0.04140455630231296,-0.12343779155555533,0.853650784202409,0.002503303813400212,-0.5271128401459041,-0.001424204458168559,0.8497904205537962,0.034816005523057046,0.4003792605955119,-0.657063936621593,0.010049313223570475,0.271925465303408,-0.5661947713959479,0.022498265403900024,0.6623421706596181,0.8998686170706702,0.06482467957024293,0.7829117094028302,0.7486453583805102,0.0,0.0,0.0,0.0
0.04033536180266907,-0.12308180123806763,0.8531069647633288,0.0023672219078022436,-0.5270016716243399,-0.0013252534456611414,0.8498599167326903,0.03398765919821635,0.39531209868910433,-0.6519417252919384,0.008044473648315084,0.2748002013087201,-0.5607846032107943,0.01705211460684336,0.6652303813758536,0.8917677950165196,0.06398643856244957,0.7775259803702208,0.753698806692002,0.0,0.0,0.0,0.0
0.0389805530147805,-0.1226294459851297,0.8524991402680985,0.002208014933515948,-0.5268819356101911,-0.0012157147491485625,0.8499347461042879,0.03295003460234253,0.3886813037313343,-0.6446166927190562,0.005825005198886863,0.27794267451460447,-0.5557274290206952,0.011416937179184433,0.6680464804898876,0.8832505089944669,0.06276099080812653,0.7711876150229532,0.7591952613562433,0.0,0.0,0.0,0.0
0.03735681644327806,-0.12211996640791506,0.8518570217242561,0.0020282331065424835,-0.526767976835037,-0.0011005231904115025,0.8500059845085178,0.03179269187413013,0.3803938272203348,-0.6346889885344957,0.003384718041691969,0.28159690234173734,-0.5515028610515742,0.005646184302651829,0.6708725527281145,0.8744927570871321,0.06133368870846326,0.7641318414019043,0.7649152550446885,0.0,0.0,0.0,0.0
