zhuoxili-jackie/tripod-support-walk/examples/pcbA样数据/trajectory_trotting_acc_03.csv
root_pos_x,root_pos_y,root_pos_z,root_rot_x,root_rot_y,root_rot_z,root_rot_w,FL_hip_joint,FL_thigh_joint,FL_calf_joint,FR_hip_joint,FR_thigh_joint,FR_calf_joint,RL_hip_joint,RL_thigh_joint,RL_calf_joint,RR_hip_joint,RR_thigh_joint,RR_calf_joint,FL_foot_joint,FR_foot_joint,RL_foot_joint,RR_foot_joint
0.01,0.0,0.8259446621,0.0,-0.523845373591082,0.0,0.8518133742594206,0.0,0.27,-0.52,0.0,0.27,-0.52,0.0,0.6572093368,0.8119390607,0.0,0.6572093368,0.8119390607,0.0,0.0,0.0,0.0
0.011524060859204903,-0.00035827492477812897,0.8268729616485968,0.00012386844403276253,-0.5246487815565606,-5.446735361155623e-05,0.8513187638605955,0.0007100302152821187,0.2768832913965024,-0.5235921613030738,0.0007100302152821172,0.27861615508276055,-0.5273188336418746,0.0007307380160806808,0.666857234714765,0.8049928456760633,0.0007307380160806866,0.6662530424270506,0.8069172426894186,0.0,0.0,0.0,0.0
0.014271294840823963,-0.0010422662103757902,0.8286046749639049,0.0001902675597702424,-0.5262011731993558,-8.618523464382053e-05,0.850360089429168,0.002093726987784951,0.2888158473947815,-0.5286586616613441,0.00209475394108024,0.2934488747386617,-0.5382252993432094,0.0033493666171208213,0.684678537313502,0.7917570662869128,0.0033530201746358795,0.6834279593974114,0.7974827993447559,0.0,0.0,0.0,0.0
0.016921702958592258,-0.0016421623696902042,0.8297153212140925,0.0005236864990630641,-0.5263486752212999,-0.0002286047621645645,0.850268631424855,0.003260296555755298,0.30518749517106797,-0.5508088261515919,0.007136850940418796,0.2905106952281976,-0.5371667914991483,0.01330342722845586,0.6756196558313357,0.8080561818418239,0.0038132168138058226,0.6943626161435911,0.7885300968032621,0.0,0.0,0.0,0.0
0.019922366955068008,-0.0020897334804174566,0.8306294303339782,0.0008578271727421387,-0.5264614902076213,-0.00039245124217778026,0.8501984529760889,0.004171668560090366,0.3242022129462645,-0.578212346456534,0.014168388040018272,0.2865231083382325,-0.5392024739158646,0.025837507398399382,0.6678502788974218,0.8209066960138411,0.0034474696705323045,0.7050308761992807,0.7808244964598305,0.0,0.0,0.0,0.0
0.02311632606554884,-0.0022887334947238203,0.8312909980878177,0.001108145680740252,-0.5264496945306368,-0.0005058692724660871,0.8502054076739506,0.004571629440097089,0.34498397040472223,-0.6101863929140511,0.021195436477174597,0.28290269072401514,-0.5432308557258712,0.037980551361284476,0.6625249479573296,0.8316981349520265,0.0025663345390637498,0.7148569115692572,0.7743689856778573,0.0,0.0,0.0,0.0
0.026030932661213858,-0.0023375282790054387,0.8319464548728706,0.0013476448390306467,-0.5266121148055165,-0.0005943435293352834,0.8501044119102186,0.004621350539112438,0.3626724277588968,-0.6358042861140273,0.028048141632751357,0.28018177475157163,-0.5481415312688054,0.04945476183935818,0.6587636573174789,0.8414311153945659,0.0011106228156059152,0.7246044315015787,0.7678967882404679,0.0,0.0,0.0,0.0
0.028479429918851093,-0.002245274733139816,0.8326127605570992,0.001570170697986973,-0.5268690936882077,-0.0006703995579618613,0.8499447295233841,0.004364398089350281,0.376834841688749,-0.6549130180023861,0.03440020971381062,0.27792290966703076,-0.5536295610115327,0.060263715928264114,0.6553777385386578,0.8504050289822825,-0.0009247649801193045,0.7337667709734893,0.761022614587952,0.0,0.0,0.0,0.0
0.030387305069968368,-0.0019956978600049104,0.8332532248121609,0.0017674726559292146,-0.5271530540223633,-0.000736259403086547,0.8497681987444559,0.0037777587690735145,0.3876176081753751,-0.668424447727895,0.040123087117578116,0.27567630003852883,-0.5594881340063436,0.07050396377673959,0.6517510217500325,0.8587608420488574,-0.0035927942166269,0.7418168647648513,0.7539463823453826,0.0,0.0,0.0,0.0
0.03175081184218223,-0.001555747311560462,0.8338289811272839,0.0019330320456065005,-0.5274238636209638,-0.0007895697047859796,0.849599734021808,0.002794941413231641,0.39538455245575194,-0.6774151641006847,0.04520406750064361,0.27314096725541714,-0.5655426342619222,0.08022791277211229,0.6476567946764978,0.8666070214100384,-0.0070026405247787405,0.7484336685819348,0.7469417919572859,0.0,0.0,0.0,0.0
0.0326059130066801,-0.0008853741476080278,0.834308091973995,0.002061998961871433,-0.527660801939374,-0.00082594819764915,0.849452261205156,0.0013304714848832134,0.4005899528682515,-0.6829368903645803,0.04967647717582552,0.27018702756589025,-0.571620423691555,0.08943024308030394,0.6430813989157298,0.8740131071831195,-0.011287029836642107,0.753475248751215,0.7402289720502738,0.0,0.0,0.0,0.0
0.03300702618025742,5.4891428024886313e-05,0.8346624616438866,0.002150816076496898,-0.5278545175826878,-0.000840895645692205,0.8493316638111793,-0.0007004489345343202,0.4037084294711058,-0.6859682348481493,0.05358138266496551,0.2668642558334062,-0.57751395709912,0.09804133339771665,0.6381331804127807,0.8809605538295849,-0.016572996050023943,0.7568984310398311,0.7339927968052867,0.0,0.0,0.0,0.0
0.03301330995358875,0.0012986513803401275,0.83486314758121,0.0021966664560246914,-0.5280017206919287,-0.0008306808194691203,0.8492400529721967,-0.0033689069274809302,0.40518964711319055,-0.6873966750057635,0.056954504848986,0.2634126210630463,-0.5829233154578674,0.10590394954068151,0.6330198021797743,0.8872643800933909,-0.022957138298312748,0.7586877541455628,0.7284353117461563,0.0,0.0,0.0,0.0
0.032679890317047426,0.00286961548709391,0.8348777787488401,0.0021968406866020506,-0.5281025590109922,-0.0007923432632548014,0.8491773862092609,-0.006723769101333359,0.4054230714533739,-0.6879919983911879,0.0598285990852306,0.2602457231644457,-0.5873758765503769,0.11273869678754236,0.6280817924075154,0.8924466026758309,-0.030483242858153667,0.7588116060764273,0.7238161237152185,0.0,0.0,0.0,0.0
0.032051791977201226,0.004778054691394366,0.8346729406974741,0.002148651407868931,-0.5281604280491402,-0.0007235671587027915,0.8491415794734369,-0.01078510713583628,0.4047000482000267,-0.6883395435052306,0.062240298605222295,0.25784156985950457,-0.5901285211721574,0.11814035117075297,0.6238811944502043,0.8955319723073788,-0.039126639714834655,0.7572168484284143,0.720444357185648,0.0,0.0,0.0,0.0
0.03115912400732599,0.007018567337147107,0.8342265571535241,0.0020517915780140167,-0.5281844829391731,-0.0006249143327889718,0.849126934925324,-0.015537841818464376,0.40316259581939345,-0.6886914023684061,0.06423008157965195,0.25645328887669977,-0.5901003652101185,0.1217099916377992,0.6213039108090255,0.8948359604051298,-0.048812120255715935,0.7538843114724633,0.7185588840887064,0.0,0.0,0.0,0.0
0.0300130018094245,0.009575169258280296,0.833540321286887,0.00191018028412524,-0.5281813596869651,-0.0004998034690829042,0.8491292909133469,-0.02094375784915131,0.4007889750012049,-0.688937828764887,0.06585054701935034,0.25612927444598066,-0.5873529608648432,0.12346789937290481,0.6204039416070807,0.8903656542392792,-0.05944760073170239,0.748876005585446,0.7181450813826866,0.0,0.0,0.0,0.0
0.028608743942293017,0.012420956002418364,0.8326398439773082,0.0017317576037427008,-0.5281541073301277,-0.0003541932903410721,0.8491466978520443,-0.026939801989318404,0.3974175250847533,-0.6886515325954593,0.06717771239364999,0.2567217131505047,-0.5831009837935659,0.12387050478866271,0.620403732159996,0.8837984017871277,-0.07091506618643288,0.7423454626565061,0.7189285204509461,0.0,0.0,0.0,0.0
0.026935186137864154,0.015510623643846803,0.8315639130328581,0.0015266335962174072,-0.528109815997865,-0.0001965380871296554,0.8491746893362663,-0.033419048193728235,0.39279512898249397,-0.6871680621473437,0.06832212092277253,0.2578901665212843,-0.5782463138316604,0.12343876211892729,0.6208473201032219,0.876080295050392,-0.08302779084523253,0.7345089818020822,0.7205507195798274,0.0,0.0,0.0,0.0
0.024983973401332446,0.018779173401030105,0.8303547835610066,0.0013055514984921827,-0.5280585383035299,-3.6236000869223635e-05,0.8492069679100476,-0.04022894939304765,0.3866508407844917,-0.6837520014212294,0.06944001336350436,0.2594247498060145,-0.5734653092379968,0.12268642375750452,0.6215033011063914,0.8676426831072358,-0.09551863142326841,0.7256045087016618,0.7226931282668391,0.0,0.0,0.0,0.0
0.02275986447638317,0.022141818507583684,0.829057269340697,0.0010815423219838905,-0.5280156146682088,0.00011444809105788439,0.8492339653089682,-0.04716964642717088,0.3787564691972114,-0.6776835739591058,0.0707207213644178,0.26139737289964926,-0.5693462018275074,0.12222181151521903,0.6222765280462954,0.858606056817906,-0.10807506244633501,0.7158987464380219,0.7251081158343906,0.0,0.0,0.0,0.0
0.020293089588255486,0.025493734939906386,0.8277172681266486,0.0008730784667555753,-0.5280057332333398,0.0002363650525554058,0.8492403237825417,-0.05399059028456732,0.3689943057580066,-0.668348022345116,0.07234977163755112,0.2642180336119391,-0.5665434609249739,0.12292964451956931,0.6231618536404131,0.8488963397604767,-0.12039562482264175,0.7056909373584717,0.7276607465086935,0.0,0.0,0.0,0.0
0.01765372036680073,0.028708329695309773,0.8263662383980491,0.0007077171417523045,-0.5280570903326421,0.0002866227139794101,0.8492085293573604,-0.06036080867379618,0.3574758956209632,-0.6555054906482036,0.07447433604958995,0.2686185386572359,-0.5660298338151882,0.12609848070257873,0.6242152049438109,0.8383008225178203,-0.13229214890749452,0.695201145743087,0.7304807384416973,0.0,0.0,0.0,0.0
0.014943410152473777,0.03163521445512351,0.8250190313387349,0.0006127748419813855,-0.5282251534789489,0.00021612784934861898,0.8491040955194402,-0.06589362082689146,0.3444506389869609,-0.6390610546780607,0.07737944626484805,0.27567661606035526,-0.5695250750255634,0.13371911083810673,0.6254712536912753,0.8265682692951114,-0.14357858903491993,0.6846031690775444,0.7341051193090526,0.0,0.0,0.0,0.0
0.012735277851678722,0.034238356206157276,0.8236421302212807,0.0006247107760415546,-0.5285496259228909,3.6399599828733826e-06,0.8489021749648007,-0.07057480545375795,0.3335605679778714,-0.6249647458432528,0.08085443427003063,0.2866057647993046,-0.5784967509356972,0.14791386899682843,0.6282038046964242,0.8133528540608118,-0.15478851797314713,0.6747125530139756,0.7392758788043651,0.0,0.0,0.0,0.0
0.011243720229646856,0.036282165187857186,0.8223353263198777,0.0007197314548113686,-0.5292589793876041,-0.000369570799993908,0.8484599449247138,-0.07387539573313832,0.32553861943973716,-0.6128781697229897,0.08506279082698466,0.30321923482843355,-0.5976291803621343,0.16986616850631422,0.6329830603468841,0.7979779167263562,-0.16536767541221253,0.6665710608078466,0.7467728536636571,0.0,0.0,0.0,0.0
0.010718392134923415,0.03749119367521612,0.8212693151474729,0.0007256580413706191,-0.5304850893827661,-0.0007857175727748854,0.8476935920548542,-0.07533069387493307,0.32151705406514147,-0.6036040972886714,0.08965498552521237,0.3268944028172048,-0.6327091332141336,0.19545131424491807,0.6413029066240802,0.7798542715488294,-0.17334510381765716,0.6618328745438,0.7566671417248825,0.0,0.0,0.0,0.0
0.010603801929931786,0.03792801718771225,0.8211260758648279,0.00037290540424171213,-0.5305832615985037,-0.0007928997015732087,0.8476323700538557,-0.07581470747708517,0.3213140075815125,-0.6036724501565193,0.08970818890592655,0.32694227892078537,-0.6327129777289783,0.19548019408881134,0.6413304262256975,0.7798593408410225,-0.1735008566175877,0.6616845930015266,0.7566051078039445,0.0,0.0,0.0,0.0
0.010603801929931786,0.03792801718771225,0.8211260758648279,0.00037290540424171213,-0.5305832615985037,-0.0007928997015732087,0.8476323700538557,-0.07581470747708517,0.3213140075815125,-0.6036724501565193,0.08970818890592655,0.32694227892078537,-0.6327129777289783,0.19548019408881134,0.6413304262256975,0.7798593408410225,-0.1735008566175877,0.6616845930015266,0.7566051078039445,0.0,0.0,0.0,0.0
0.011511323705686116,0.04002093444386917,0.8217566303398295,0.0002809599164965773,-0.5304084081303626,-0.0007788147626949378,0.8477418446046564,-0.08012000275204532,0.32996099889216846,-0.6175810017630179,0.0855909680322588,0.33038389301731835,-0.6363175370598401,0.18758820216682523,0.6446614537685282,0.7811504062553513,-0.18185875732410153,0.6679782810110116,0.7417222265189795,0.0,0.0,0.0,0.0
0.013885273048959746,0.04419219955733082,0.8249170385052238,-0.00018149976715075582,-0.5312351693195813,0.0002343367637933893,0.8472243545968868,-0.09035126514496064,0.345649955378487,-0.6300589375839242,0.07536360104632527,0.3363243425017316,-0.6270729653729046,0.17818082272910143,0.6628051173456638,0.7670145007042027,-0.19446383645719462,0.6960618529000067,0.6968526212137163,0.0,0.0,0.0,0.0
0.015527404355220556,0.04828389699535365,0.8277361001158712,-5.1151295046102085e-05,-0.5294346763164767,-0.00042800007361209813,0.8483505983454892,-0.08476728082980711,0.3218425520016204,-0.5907135197365417,0.06844529153928071,0.34300361597152057,-0.6362185244275955,0.1553746721297368,0.6772557092433056,0.7483764805343559,-0.16934086520266037,0.672912199383429,0.7449205262479562,0.0,0.0,0.0,0.0
0.017862829091503774,0.052732366239051004,0.8300066449876807,-7.652805396110746e-05,-0.5284284772662723,-0.0006890550894738643,0.8489775401979662,-0.0767777345706238,0.304664718541824,-0.5684648976561587,0.06008619433369711,0.352312823578215,-0.6469694411395357,0.13505498822132234,0.6905577171417389,0.7375808825859829,-0.1413739287709579,0.6611098393603422,0.7789107231369935,0.0,0.0,0.0,0.0
0.020623653983412513,0.05747934971214799,0.8314502194057427,-0.00031059559046608563,-0.5279862437710257,-0.0006003688061220264,0.8492526534996748,-0.06841676478158781,0.2929492608193076,-0.557955942114384,0.05056678955061629,0.3631385680123313,-0.6596835584880668,0.1165934629885874,0.7002986560997048,0.7374108449263743,-0.11739509595879453,0.656322488091826,0.8027172440789653,0.0,0.0,0.0,0.0
0.023411481801738396,0.06232653488116531,0.8326503982375547,-0.0006348487781920333,-0.5278103249861182,-0.0003172497012914778,0.8493619706330771,-0.06040481935119284,0.28549506676751646,-0.5545301204448304,0.04044078668203117,0.37308717549096715,-0.6699191570438997,0.09868163216406167,0.7090696483437771,0.740299284499899,-0.09962380833095288,0.6541070015997152,0.8208055921255054,0.0,0.0,0.0,0.0
0.026096642009029336,0.06711331457020407,0.8338860159928978,-0.0009940257905182782,-0.5277740137557222,2.7205497229758376e-05,0.8493842484863746,-0.05315807198322291,0.2809477678481847,-0.5548886569863548,0.030265350271345883,0.38160316796642685,-0.6766125425565284,0.08093097652469929,0.7183638470165367,0.7423681690304131,-0.08698238182405893,0.6531141492254183,0.8356133551120897,0.0,0.0,0.0,0.0
0.028580363521067242,0.07176909861575245,0.8351678416317627,-0.0013413981726184431,-0.5277769071543944,0.0003704454269077374,0.8493818927288654,-0.0467302368148971,0.27802812701136,-0.5574235810020767,0.020293044275549284,0.38847970234914986,-0.6800971450997201,0.0630828956523154,0.7280036049365605,0.7430253752385291,-0.07764909695322442,0.6526860101297696,0.8484583278470416,0.0,0.0,0.0,0.0
0.030805670484545668,0.0762503894488317,0.8364446572684539,-0.001652519418121962,-0.5277676099864834,0.0006824322790624155,0.8493869279161955,-0.04091177531419725,0.275827897982938,-0.5612168481815852,0.010672173510693833,0.3936760909921397,-0.6808990725271905,0.04511770343444415,0.7375089907798398,0.7426156335295564,-0.07005043814033494,0.6525429979549842,0.8600539184291617,0.0,0.0,0.0,0.0
0.03274947549067811,0.08052422700458219,0.8376639536146037,-0.0019190808874367414,-0.5277275961611048,0.0009531565644857926,0.8494109681839133,-0.03540462055166293,0.2738308247396815,-0.5656865447383809,0.0014988168217324408,0.3972660070682188,-0.6795176178890383,0.027192967086433838,0.7464635557625289,0.7416417880339846,-0.06310361264267572,0.6525714056416585,0.8707926166620331,0.0,0.0,0.0,0.0
0.03440992951757952,0.08456607217544304,0.8387837761391992,-0.0021415504266999773,-0.5276545777226431,0.0011830476069589948,0.849455508410222,-0.029938492780398576,0.27185652972545654,-0.570382397770279,-0.007165197911396689,0.3993887917699594,-0.6764017035345059,0.00954208656415621,0.7545606609212192,0.7405726572220827,-0.05613781802922462,0.6527451889368925,0.8808264069276074,0.0,0.0,0.0,0.0
0.03579458331631747,0.08836093841247254,0.8397697362107693,-0.002323692347235238,-0.5275513930324761,0.001376631029963746,0.8495188244237891,-0.02432878792186582,0.27000535262283754,-0.5748421135516457,-0.015286292745928872,0.4002026209609467,-0.6719544249139717,-0.007608766148456247,0.761561584451573,0.7398402669310978,-0.04872143972667254,0.653116945863685,0.8900458850903726,0.0,0.0,0.0,0.0
0.036911128176328516,0.09190433547424308,0.8405895042424295,-0.0024699958814066963,-0.5274211473659156,0.0015393909767565284,0.8495990011216983,-0.01849040364416332,0.26859463848422793,-0.5784684564701152,-0.022856711365211106,0.3998421754340119,-0.6665172590227346,-0.024084955818713474,0.7672450499536094,0.7398829055835707,-0.04050152791995331,0.6538594298731532,0.897980861131219,0.0,0.0,0.0,0.0
0.037760515241749996,0.09520247448619736,0.841211001409975,-0.0025843326072251195,-0.527265647020486,0.0016762391564209484,0.8496949152015293,-0.01241703787874704,0.2680177503725282,-0.5804128006508656,-0.029892401390086674,0.39838005470851084,-0.6603263363575164,-0.03978407315635383,0.7713835802428031,0.7411553296305782,-0.031119341452957933,0.6553533593531293,0.9036079068549331,0.0,0.0,0.0,0.0
0.038332015908654114,0.0982714125113443,0.8416113190742426,-0.002670038907090412,-0.5270868989716795,0.0017921004571803977,0.8498053072325475,-0.006130736513877867,0.26843914084004894,-0.5795073718124136,-0.036430693121885876,0.395779701847616,-0.6533927356972385,-0.05466696011753477,0.773784767795309,0.7440255873151588,-0.020275031162645556,0.6582980088485231,0.9051484243622615,0.0,0.0,0.0,0.0
0.0385980720986828,0.10113323923201666,0.8417900021582477,-0.002723617530109629,-0.5268773321770501,0.00188525216679998,0.8499348825467817,0.00036960945369592536,0.26982008804774416,-0.57575196113441,-0.04251387373502986,0.39187175418350106,-0.6454785453832472,-0.06879805056085028,0.7743479322862824,0.7485834589423832,-0.008066264850116592,0.6625548504393944,0.9025552512399349,0.0,0.0,0.0,0.0
0.03851638222481,0.1038149876666367,0.8417686442169148,-0.0027329390359504624,-0.5266191029357988,0.0019458548624692062,0.8500947389063024,0.007138621584835531,0.2719210030511,-0.5703224523689776,-0.04818489006550795,0.38636513337133577,-0.6361233671612341,-0.08234324151148839,0.7730630247892479,0.7546355467315143,0.005052906767868936,0.6671532506662431,0.8975396970300592,0.0,0.0,0.0,0.0
0.03803910778112381,0.10634724167589905,0.8415756655682343,-0.0026806642168049626,-0.5262929837648703,0.0019605429213300244,0.850296810267262,0.014287340089219315,0.27426991245636895,-0.5640788183700275,-0.05349014869775162,0.37889713113867846,-0.6247285796913732,-0.09551610680823286,0.7699520514437795,0.7618935418794142,0.018659154114394748,0.6714388358842839,0.8911132998591823,0.0,0.0,0.0,0.0
0.03712272154624789,0.10875747208300678,0.841234414740101,-0.0025437772937228465,-0.5258784872173715,0.0019114004865113023,0.8505537563418487,0.02196031304579467,0.27645817947666473,-0.5576075546951397,-0.0584656085310724,0.36911721803565684,-0.6107430394865008,-0.10855367610573975,0.765029263848597,0.7700861991008009,0.0324816342720569,0.6749655787628795,0.8838128053812396,0.0,0.0,0.0,0.0
0.035742860386484804,0.11106073111654942,0.8407608483791059,-0.002297419904828678,-0.5253596044650977,0.001778737475110346,0.8508753398418899,0.03029586044423912,0.2782711776939658,-0.551291724470053,-0.06312079213691595,0.3567856500367543,-0.5938005458484985,-0.12164087170720857,0.7583314751561587,0.778974184732498,0.04644718088149269,0.6774644704772275,0.8759424380345978,0.0,0.0,0.0,0.0
0.03391750983777858,0.11324654844640984,0.8401621243848656,-0.0019259515314457127,-0.5247382456220158,0.0015496142463099283,0.8512600442801924,0.03934766672373092,0.2797323286220513,-0.545339049023489,-0.06741959791932171,0.34192132190755664,-0.5738865485698698,-0.13476590818060025,0.7499785370448004,0.7883743469712678,0.06082959802442524,0.6789791784513516,0.8677764506840415,0.0,0.0,0.0,0.0
0.03174188240669163,0.1152599448700642,0.8394278810677265,-0.0014395160883450256,-0.524049282683065,0.001228422858436849,0.851685838845567,0.04897119699525845,0.28106683572663355,-0.539691525987582,-0.07125036997017455,0.32507523412447475,-0.5517403787400015,-0.14754641520089268,0.7402228330663668,0.7982709770899852,0.07665108121719812,0.6802000106576885,0.8597200778150914,0.0,0.0,0.0,0.0
0.029441235307778053,0.11697077419541568,0.8384964664081668,-0.0008639642411392966,-0.5232885252574461,0.0007746917840777474,0.8521547821565734,0.05895558212119045,0.28221750250850886,-0.5334079037943299,-0.07426834706634818,0.30817315279076474,-0.5309452344988181,-0.15949453623616355,0.7293306405619477,0.8089330683504103,0.09598783834637548,0.682614478148015,0.8521902048181205,0.0,0.0,0.0,0.0
0.027320671724616788,0.1182869420563524,0.8373758987174063,-0.0002912055516442588,-0.5225236174885131,0.000306912017216519,0.8526247065216082,0.06935042208344697,0.28313751799551523,-0.5259663781060078,-0.07646669444206235,0.2935349446459522,-0.5148677045953056,-0.16933126421014177,0.7180041400948681,0.8202483399944076,0.12200507493867421,0.68767818634411,0.8459737687901016,0.0,0.0,0.0,0.0
0.025626718681348158,0.119141622498022,0.8362785519603073,0.00013994566589562829,-0.521886020824586,-6.0546248923232144e-05,0.8530152155836624,0.07913174017417754,0.2832308102692343,-0.517022276195403,-0.07780911972857804,0.2825401991971853,-0.5041405878330808,-0.17581923530817337,0.7079473249527816,0.8304729008436028,0.1551820836362316,0.6954073007370092,0.8418488825951252,0.0,0.0,0.0,0.0
0.024573352516672153,0.11949050908621303,0.8355192975240667,0.0002547129438221561,-0.5214388249886928,-0.00019382901527965798,0.8532886084708037,0.08605321842033242,0.2810424018946207,-0.5066505692423859,-0.07830547409252502,0.27618065195041236,-0.4985844020418959,-0.1774611179844025,0.7010198287880118,0.8368523637017076,0.18844443479225226,0.7030303392266817,0.8404130963240716,0.0,0.0,0.0,0.0
0.02455582818027744,0.11948375730844256,0.8354931900546759,0.00029182039864581746,-0.5214172185480691,-0.00019725525768985125,0.8533017989743215,0.08612435753957312,0.28107776132176926,-0.5066453102778361,-0.0783196193525585,0.276050161542598,-0.49856550383116577,-0.17749596572750373,0.7008871553225523,0.8367925594737498,0.1884575805835913,0.7030698999154595,0.8404270308894816,0.0,0.0,0.0,0.0
0.02455582818027536,0.11948375730844277,0.8354931900546786,0.0002918203986380308,-0.5214172185480643,-0.00019725525769297324,0.8533017989743243,0.08612435753958088,0.281077761321781,-0.5066453102778635,-0.07831961935254719,0.27605016154264583,-0.4985655038312678,-0.1774959657275188,0.7008871553225312,0.8367925594737705,0.18845758058367118,0.7030698999154169,0.840427030889554,0.0,0.0,0.0,0.0
0.02455582818027536,0.11948375730844277,0.8354931900546786,0.0002918203986380308,-0.5214172185480643,-0.00019725525769297324,0.8533017989743243,0.08612435753958088,0.281077761321781,-0.5066453102778635,-0.07831961935254719,0.27605016154264583,-0.4985655038312678,-0.1774959657275188,0.7008871553225312,0.8367925594737705,0.18845758058367118,0.7030698999154169,0.840427030889554,0.0,0.0,0.0,0.0
0.025791108251849038,0.12009397883098741,0.8361900514888991,0.0003305247302856306,-0.5221154562605264,-0.00022439333248587721,0.8528747215945008,0.08495651443967367,0.28871127167095983,-0.513663610123611,-0.07958265083102893,0.28033597021293216,-0.4992046437192393,-0.18254953238636165,0.7088432199843896,0.8333868745880113,0.18694553213131926,0.7109950209171191,0.8347881904392354,0.0,0.0,0.0,0.0
0.027930260532146246,0.12125418672773301,0.8372763936172699,0.00037044664649977263,-0.5232864308128715,0.00010003847701876281,0.8521567720136425,0.08200026486563859,0.30251045401213733,-0.5281211191454855,-0.08273602383510623,0.28777192792217876,-0.5003572594725437,-0.19003678063464857,0.7215289551292806,0.8285483141161315,0.18584284936495957,0.7246409475499416,0.8257848773918225,0.0,0.0,0.0,0.0
0.030207028568889103,0.1224203546889486,0.8384719688707954,0.0007851927897132604,-0.5238155980607561,-0.0004302153111902445,0.851831214276233,0.08045393215952255,0.3182230190355925,-0.5467684439110865,-0.07421176835727734,0.2909154547798527,-0.5104332349894072,-0.15477499636201125,0.7118992231294302,0.8358727449452883,0.1770324395785818,0.7362723758081191,0.8129712590129254,0.0,0.0,0.0,0.0
0.03252359523766132,0.12376247853412987,0.8393238373049586,0.0013730353191474813,-0.5243956041750517,-0.0010410287236952565,0.8514730068270464,0.07852422685950088,0.33443865904592646,-0.5669504871223534,-0.06171944125857645,0.2907610789681975,-0.5200409086821418,-0.11468970391504346,0.701270218369413,0.842898292127864,0.16584702044621769,0.7462533330259452,0.803004891526518,0.0,0.0,0.0,0.0
0.03479494227690311,0.12542577260002685,0.839970916731898,0.001817206183714348,-0.5248839140225628,-0.0013968734282291137,0.8511707368716727,0.07557115064109786,0.35143438573816366,-0.5903212790313633,-0.04879203309868209,0.28928558163491463,-0.5286864019510702,-0.08210317186037008,0.6932793930395835,0.8501502636135265,0.15473146360388718,0.7553839555664422,0.7938638364638237,0.0,0.0,0.0,0.0
0.03683858121072452,0.12737343300624437,0.8404769575999887,0.002114940111251758,-0.5253109421941954,-0.0015552365178207411,0.8509062946522057,0.07175356188545007,0.36751105624285973,-0.6134690481484448,-0.03686311464374238,0.2873385533123499,-0.5364996682229515,-0.05738201315212217,0.6877175368416115,0.8578238737146053,0.14355668952902173,0.7635551155141095,0.785139322683675,0.0,0.0,0.0,0.0
0.03846096133588546,0.1295109375307223,0.8409109442597276,0.0023201648052278167,-0.5257427941674254,-0.0016158342667837995,0.8506388894800936,0.06736902456243865,0.3809056469573667,-0.632614241626318,-0.026324667926532257,0.28520699035335545,-0.5437993526922432,-0.03790447961465493,0.6832702955525698,0.8657219217928448,0.13197058055446617,0.7706197792413542,0.7766117665199447,0.0,0.0,0.0,0.0
0.039579727416928764,0.13180161335611784,0.8412843297305823,0.00245990935828325,-0.5261629279211265,-0.0016234338998300194,0.8503786724687945,0.06255240747194679,0.3912550570241128,-0.6471774779945829,-0.017160740486897808,0.28278394385673417,-0.5507907003324063,-0.02142872516416575,0.6788628651572839,0.8735661288640684,0.11976083131674695,0.7762976494953282,0.7682597121060868,0.0,0.0,0.0,0.0
0.04018773959582114,0.1342467587266201,0.8415876990914009,0.0025486457188961527,-0.5265523856398029,-0.0015990059340097375,0.8501373611141054,0.05734046476834418,0.3987376922184279,-0.6576141608888818,-0.009147094000261615,0.279926945731045,-0.5575644242108037,-0.0065966633844222015,0.673956226015162,0.8811841629540417,0.10679447917464287,0.7804315997403161,0.7601623034702634,0.0,0.0,0.0,0.0
0.04032052700452725,0.1368690515433766,0.8418031876621587,0.002593431030789727,-0.5268990085686013,-0.0015499980321495611,0.8499225296407984,0.051711070845781845,0.4037486764849763,-0.6647353906201261,-0.002018997174354952,0.27657444398270475,-0.5641142075108441,0.007282624296479289,0.668392011952834,0.8884694753966713,0.09299294866035397,0.7829815410700481,0.7524235286608776,0.0,0.0,0.0,0.0
0.04003278350938225,0.13970042821793674,0.8419068644886595,0.002597365777127125,-0.5271962876388164,-0.0014775747262808607,0.8497382801567777,0.0456145690928221,0.4067483115152762,-0.6694423982057002,0.004447289150549301,0.2728035160024854,-0.570334410630826,0.020479289473128395,0.6622388886477025,0.8952929002493943,0.07830795373892217,0.7839609449145203,0.7451731964652949,0.0,0.0,0.0,0.0
0.039383317464471705,0.14277354801527292,0.8418682517703154,0.0025614798175745473,-0.5274411699489128,-0.001380752245130646,0.8495865727442401,0.03899569295402157,0.40818362421979887,-0.6726099462119688,0.010413133289909546,0.26886432656251374,-0.5759877912020925,0.032996586544236706,0.6557104960447925,0.9013947953145268,0.0627145172596389,0.7833787191667282,0.738595160396819,0.0,0.0,0.0,0.0
0.03842601565330174,0.14611527365140065,0.8416504196807322,0.0024854373055307097,-0.5276329113168738,-0.001258066816108697,0.8494679221516057,0.03180863808876714,0.4084406656985285,-0.6750160589059345,0.015988725168602117,0.26517358910371785,-0.5806423542466754,0.04463853992496901,0.6491635374300859,0.906238146626114,0.04622204852099848,0.7812058157617393,0.732949959580107,0.0,0.0,0.0,0.0
0.037204325177853985,0.1497409191200185,0.8412141028124134,0.002368040566445763,-0.5277737013000838,-0.0011081069664069737,0.849381000905269,0.024028804274874076,0.4078028514508581,-0.6772556854805745,0.02125390465160397,0.26220929861521375,-0.5835845335848149,0.05505466232522493,0.6431758154401742,0.9087914129475927,0.028892411553699798,0.7773797274272222,0.7285556702121069,0.0,0.0,0.0,0.0
0.03574741729112945,0.15364961092193963,0.840531822255792,0.0022096834760564343,-0.5278719639659343,-0.0009318697975100367,0.8493205746809408,0.015664105424968787,0.40639810065584775,-0.6795767286581239,0.02627081342971393,0.26022555934759994,-0.5837579684892424,0.06388112985432959,0.6386592848770959,0.9073160979530567,0.010831268304495784,0.7718722241758257,0.7256591209160513,0.0,0.0,0.0,0.0
0.03406632419433473,0.15782589732208155,0.839602770820528,0.002014867035592293,-0.5279346184123205,-0.0007334060118082294,0.8492823094285482,0.006751775550358857,0.4041798909351438,-0.6818288825680292,0.031102014099059484,0.25927929622060947,-0.5812418001042539,0.07112166343697535,0.6357144946898896,0.9018305533832358,-0.00784242043526041,0.7647464331195766,0.7242407657348361,0.0,0.0,0.0,0.0
0.032157420468401934,0.16223893649713772,0.8384528435843102,0.0017923673058392,-0.52796570463114,-0.0005196295994951175,0.8492636411255718,-0.002637439158236894,0.4009579676815665,-0.6835214714181654,0.03583203493686882,0.2592381633110422,-0.5772604597447673,0.07718635561577684,0.6336252603085603,0.894073955929597,-0.02697960750510587,0.7561690827336217,0.7240098585019101,0.0,0.0,0.0,0.0
0.030011962657079963,0.16683607436924866,0.837122173139174,0.0015533518707999514,-0.5279734756871421,-0.0002998109952172812,0.84925938686727,-0.012381889287454581,0.3964575178589581,-0.6839330564742016,0.04058802830519412,0.2597810746502171,-0.5727207476802809,0.0825769970575176,0.6319984354943606,0.8850333593851045,-0.04634952792279591,0.7463773731395359,0.7245937762499469,0.0,0.0,0.0,0.0
0.02762484793939967,0.1715406115109383,0.8356549348266832,0.0013102808299296762,-0.5279691041970592,-8.423820047009769e-05,0.8492625630989671,-0.022304404548329167,0.3903934472519984,-0.6822814760153804,0.04555036845228311,0.2607240654072214,-0.5682981348851355,0.08783103156720533,0.630656978807314,0.8751557442612917,-0.06562954398557772,0.7356310138646028,0.7256743074424007,0.0,0.0,0.0,0.0
0.0250045042484112,0.17625040385589322,0.8340972362155162,0.0010788434830582576,-0.5279688648731833,0.00011341321158475776,0.8492630340234436,-0.03216737599829057,0.3825304125656242,-0.6778141483135338,0.05092377563144474,0.26217367042398826,-0.5645720102644014,0.09362685076000078,0.629550221573245,0.8645516716081052,-0.08444342609574318,0.7242067738176331,0.7270417834069122,0.0,0.0,0.0,0.0
0.0221843835151765,0.18083610155447682,0.8324905857638003,0.0008820005664727431,-0.5279960150624005,0.00026992266376840674,0.8492463466480039,-0.04166347771121314,0.37275428358025947,-0.6699314189352731,0.056867909913437306,0.2645671803681776,-0.5621776142383863,0.10095695068953361,0.6287029365728942,0.8531010301600056,-0.10243019253439306,0.7123594911706069,0.7286934017686247,0.0,0.0,0.0,0.0
0.019233555464678004,0.18513925841042483,0.830841554945634,0.0007537256661265772,-0.5280457425980026,0.0003041179339958405,0.8492155398566529,-0.050322787502074875,0.36125230977979866,-0.658734553438273,0.06348040992971671,0.26857201328669184,-0.5622025338260924,0.11104915810700167,0.6281134669288011,0.8405200835421762,-0.11946800923428846,0.7000195397509674,0.7310136834981528,0.0,0.0,0.0,0.0
0.01621353057406764,0.18899563049063028,0.8292262014510823,0.0007235124022568977,-0.5282232867077754,0.00022836647170413612,0.8491051664889302,-0.057851535184000706,0.3478548969623308,-0.6430105840015446,0.07134551064909854,0.2752418625907159,-0.5661816545093245,0.12645744741788228,0.6277237531127505,0.8263956774304788,-0.1350811301204869,0.6877795833744597,0.7341944629182822,0.0,0.0,0.0,0.0
0.013744741030265958,0.19234187101326775,0.8275959538845197,0.0008373737860967469,-0.5285519197729965,-3.272305634183553e-05,0.8489005629863982,-0.06407217560706402,0.3365364542258328,-0.629324101932529,0.07983243497448339,0.2857440426387271,-0.5756748416695356,0.14884722279031762,0.6288668245237369,0.810230185114276,-0.15002941185625918,0.6762986666834575,0.7391953546080398,0.0,0.0,0.0,0.0
0.01204930494324698,0.19491012880642863,0.8260416376422609,0.0010639629978553649,-0.5292545196025835,-0.0004891119887638502,0.8484623045441914,-0.06841115594236685,0.3280988340578978,-0.6175399059914523,0.08852728992129412,0.3018016188822305,-0.595284959809768,0.17879139694054405,0.6323090684488348,0.7910595885854987,-0.16361380769679645,0.6665281900578479,0.7470679898615076,0.0,0.0,0.0,0.0
0.011397211080892353,0.19640655847582592,0.8247653750564423,0.0011967570501562142,-0.5304786428796521,-0.0009914407368757413,0.8476968764047622,-0.0704037714325329,0.323772338135392,-0.6084915558604131,0.09609693624578916,0.32489140151190377,-0.630688168839214,0.21029211351839078,0.6403137540670331,0.7681719356814717,-0.17360597003505102,0.6603795586881422,0.7577916440738371,0.0,0.0,0.0,0.0
0.011264567326760608,0.19691697178474962,0.8245940230210508,0.0007935281619132707,-0.5305985331428601,-0.0009993641686673871,0.8476223028041202,-0.0709779916863122,0.3235401963655709,-0.6085728825567304,0.09617222183583111,0.32493997914382344,-0.6306921878489062,0.21032498670588673,0.6403412480519304,0.7681751044542428,-0.17378485061163695,0.6602062023538992,0.7577169764940992,0.0,0.0,0.0,0.0
0.011264567326760608,0.19691697178474962,0.8245940230210508,0.0007935281619132707,-0.5305985331428601,-0.0009993641686673871,0.8476223028041202,-0.0709779916863122,0.3235401963655709,-0.6085728825567304,0.09617222183583111,0.32493997914382344,-0.6306921878489062,0.21032498670588673,0.6403412480519304,0.7681751044542428,-0.17378485061163695,0.6602062023538992,0.7577169764940992,0.0,0.0,0.0,0.0
0.012182278426511938,0.19916899870777321,0.8252765873380524,0.000638747265421222,-0.5304355874348359,-0.0009503531989569855,0.8477244696323144,-0.0756088978381452,0.33240017095465796,-0.6227205758582502,0.09172583083250346,0.328264981007956,-0.6337458856968153,0.20238224991268153,0.643657052816332,0.7697754558208664,-0.1823235339739389,0.6670316110605292,0.7417889572354496,0.0,0.0,0.0,0.0
0.014578654511002938,0.2035778341280575,0.8285461357000283,0.0001979696185719768,-0.5312145296522418,3.0746219876051604e-05,0.8472373241005424,-0.08629922277767903,0.34861299101231186,-0.6359877699980038,0.08106143180093713,0.3342783957131716,-0.6245207647422047,0.1919574854235543,0.6621292481679357,0.7555958038336233,-0.19603778142426315,0.6957938397135367,0.6946359681044442,0.0,0.0,0.0,0.0
0.016223941726187054,0.207905379346689,0.8314214846400559,0.0002113810406279666,-0.5294638146362757,-0.0005584958261510172,0.848332312476232,-0.08119105703148619,0.32397262006789446,-0.5948495045322222,0.07363854242305252,0.34060568479530956,-0.6324011303500462,0.16927801135568413,0.6766189343527572,0.7374954288607264,-0.17141780709360432,0.6725702718455968,0.7435685087430721,0.0,0.0,0.0,0.0
0.01857270426103802,0.21260488220815865,0.8337563125198527,0.00011145210562408701,-0.5284908791267391,-0.0007768562420300488,0.848938616598782,-0.07371806658087715,0.3062346315405946,-0.571493182393546,0.06477069502573474,0.3496761758676965,-0.6422024595279715,0.1487305731593745,0.6899649869628377,0.7273239612016439,-0.14428973104620807,0.6606407559322038,0.7780074415950324,0.0,0.0,0.0,0.0
0.021341292154579576,0.2176150338625583,0.8352709611139901,-0.0001446441903184437,-0.5280390975368163,-0.0006855075203982671,0.849219771690463,-0.06584214700983747,0.2941206426977762,-0.5602613675404223,0.05475302505041616,0.3603263617074818,-0.6543568703881176,0.129550099433507,0.6997162876387332,0.7277519688178274,-0.12092182829828711,0.6557178621351217,0.8018381506839327,0.0,0.0,0.0,0.0
0.024139097581541386,0.22272203318924003,0.8365168738771949,-0.00047922899463663434,-0.5278499524022795,-0.0004075776199326603,0.849337407611937,-0.05828376243950494,0.28642986426040545,-0.5564371367148081,0.04413809410151004,0.3701250308839017,-0.6642049210417946,0.11082817216212898,0.7083754080509698,0.7314535010465302,-0.10365834942140269,0.6534085257065722,0.8197784571817259,0.0,0.0,0.0,0.0
0.026841694844987402,0.2277451848619758,0.8377922844042733,-0.0008435174274879758,-0.5278002628034684,-7.073377161104971e-05,0.849368098093914,-0.05142459946561887,0.28178127869102115,-0.5565857659441232,0.03351742462742566,0.3785305917680248,-0.6706018094242473,0.09229585494100051,0.7176002045704266,0.7342278715593494,-0.09149970294569745,0.6523443722931883,0.834399512409331,0.0,0.0,0.0,0.0
0.02935160454138698,0.2326060783463467,0.8391089359554529,-0.0011956225092566721,-0.5277937734190038,0.00026622063992461407,0.849371669149328,-0.045314229131394886,0.2788537496981683,-0.5590251054306957,0.02315766039649288,0.3853461039408223,-0.6738663117725331,0.07377055286824132,0.7272239124337542,0.7354645159140558,-0.0826419661898835,0.6518800684752076,0.847072202116529,0.0,0.0,0.0,0.0
0.03161095725094362,0.23725808026454984,0.8404148368162109,-0.0015133409901593772,-0.5277813392644176,0.0005749311109989549,0.849378736005042,-0.03974709385685169,0.2767060967652801,-0.5627914678979036,0.013213369185128908,0.3905333001514472,-0.6745187841894831,0.05527239078659854,0.7367540719561712,0.7355315478805609,-0.07549052172989847,0.6517503865696892,0.8585300780652166,0.0,0.0,0.0,0.0
0.03359400458499681,0.24166791102776147,0.8416573305868923,-0.001787460763147827,-0.5277434245338056,0.0008446065062581365,0.8494015360741946,-0.034430080868891856,0.27479379501572143,-0.567273333236997,0.0037826341249849443,0.3941625531969221,-0.6730632797695419,0.036957550393272975,0.7457603249424452,0.7349490733937684,-0.06894064635559191,0.6518345378465041,0.8691704658784503,0.0,0.0,0.0,0.0
0.03529543563415305,0.24581234428201507,0.84279496507414,-0.002016757635734149,-0.5276757635806925,0.0010742014414471858,0.8494427981385415,-0.029098384686407106,0.27291442006825734,-0.5720000440625613,-0.005073836941625777,0.3963643867826342,-0.6699482792139503,0.01904202693392483,0.7539237231759452,0.7341965786181736,-0.06230580408649632,0.652090058852981,0.8791435018146381,0.0,0.0,0.0,0.0
0.03671948143088824,0.24967844809698445,0.8437942425088093,-0.0022037974874796027,-0.5275798842870041,0.0012670437407755872,0.8495016207003401,-0.023573176507478782,0.27115426491733174,-0.5764946780064867,-0.013325332526224264,0.3972851836319254,-0.6655656315042171,0.0017349788080007929,0.76099624137442,0.7337144218478449,-0.05514514150873093,0.652555347266809,0.8883365740390026,0.0,0.0,0.0,0.0
0.03787115588092658,0.2532639856811565,0.8446238653135637,-0.0023522830632387486,-0.5274581971939836,0.0014276887108661384,0.8495765290320867,-0.017774996485220965,0.2698228627620984,-0.5801489267390979,-0.020967494380008795,0.3970485358939032,-0.6602420055188897,-0.014803501428350765,0.7667503528271236,0.7339479179791017,-0.04710224267040233,0.6533929984424731,0.8962768282130852,0.0,0.0,0.0,0.0
0.038749605730807664,0.25657728990981993,0.8452526026665232,-0.00246562345393599,-0.5273121996442,0.001560368113014319,0.8496665993545531,-0.011703097337491992,0.26930995291107573,-0.5821056262172709,-0.028019542713658793,0.39571907668820294,-0.6542015707677479,-0.030482381110666826,0.7709540464044001,0.7353594938923347,-0.0378174261462777,0.6549781290675809,0.9019395663875531,0.0,0.0,0.0,0.0
0.03934322633184469,0.2596361957188172,0.8456577678694048,-0.0025468548130166005,-0.5271435739841988,0.0016695118975021148,0.8497707800741039,-0.005384463085581528,0.26977871556198924,-0.5811921010647094,-0.03452165217426037,0.3932571641705821,-0.6474531075854157,-0.04527146012323821,0.773409788062583,0.7383280707733705,-0.026992581350965612,0.6580072184811798,0.9035465893818047,0.0,0.0,0.0,0.0
0.039624537815174284,0.26246394015452124,0.8458383668486226,-0.0025928772725429708,-0.52694469118217,0.0017536451766023994,0.8498938134561115,0.0011780970174775094,0.27119217138735413,-0.5774093533755953,-0.04051858480321989,0.38949535576470173,-0.6397641426914406,-0.059235524051247185,0.7740109809783442,0.7429580019112204,-0.01473225255426475,0.6623443818651423,0.9010482760676694,0.0,0.0,0.0,0.0
0.03955206363880909,0.26508827868378193,0.8458147196125826,-0.0025927360147926476,-0.5266978713177218,0.001804060469934129,0.8500466901501111,0.008036322921950124,0.273315345141797,-0.5719407088197491,-0.046056071103459655,0.38414846916406475,-0.6306855655289703,-0.07253249088996667,0.7727402841894134,0.7490749372864202,-0.001500955970022616,0.6670271109622742,0.8961514177150621,0.0,0.0,0.0,0.0
0.03907908547603299,0.2675408721543819,0.8456133399614337,-0.0025306436279481804,-0.5263840124808322,0.001809040386370398,0.8502412567149914,0.015298857481596144,0.27568267756831355,-0.5656576606627864,-0.05118492216957331,0.3768610431251568,-0.6196332471981609,-0.08536736030295262,0.7696099813254919,0.7564158709951667,0.012270406462861738,0.6714124819023984,0.8898655036359154,0.0,0.0,0.0,0.0
0.0381628695531766,0.26985148821416627,0.8452553973207474,-0.0023854221024223335,-0.5259827092943921,0.001752740741613379,0.8504901099863637,0.02310770871668941,0.27789328216091685,-0.5591619353582928,-0.0559487324405645,0.36728616502956046,-0.6060641675706724,-0.09797338425580362,0.7646226425009872,0.7647397617388365,0.02630976763068671,0.6750667846911391,0.8827259095788157,0.0,0.0,0.0,0.0
0.036778666474455594,0.27203975879038705,0.8447548337115668,-0.002133893787780043,-0.5254775383499356,0.0016174975995189498,0.850803259801295,0.031598979138414564,0.27974004716162204,-0.5528575372932201,-0.06036943232016993,0.3551772775850288,-0.5896038188486542,-0.11054583024533356,0.7578016185106798,0.7738383865235567,0.0405458891797953,0.6777246582888806,0.8750320152986818,0.0,0.0,0.0,0.0
0.03494187864842169,0.274103371457978,0.8441180028948362,-0.001759887024681374,-0.5248677073862877,0.0013905002534231237,0.8511808615387024,0.04082745141652882,0.281250000624403,-0.5469809499108106,-0.06442898847495435,0.3405303019865103,-0.5702125282224294,-0.1231203739039354,0.7492538673741245,0.7835458802140881,0.05523061568018464,0.6793986226938848,0.8670422985290509,0.0,0.0,0.0,0.0
0.032742614629393436,0.276000043833545,0.8433360194174913,-0.0012709618097933272,-0.5241848467749621,0.0010745358212898692,0.8516028865852653,0.050653463561497664,0.2826571737176136,-0.5415219413864384,-0.06804079738151445,0.32384405345946243,-0.548551203091724,-0.13539494134040567,0.7392249640682195,0.7938436012497415,0.07130496858538847,0.6807001306634857,0.8591375936216544,0.0,0.0,0.0,0.0
0.03039852334125553,0.27761785716487686,0.8423525343965802,-0.000695923300376875,-0.5234374862681752,0.0006377230902608365,0.8520635580573048,0.060839722704650226,0.2839748287661186,-0.5356531086739053,-0.07090714894238079,0.30689598003482466,-0.5278369598371503,-0.14690677883403824,0.7280041351819718,0.805011190532288,0.09073506113272536,0.6830534599972212,0.8517407054690127,0.0,0.0,0.0,0.0
0.0282373808202928,0.27886012851325004,0.8411578396488302,-0.00012501757905926584,-0.5226830216454715,0.00018806479440798882,0.8525270716439435,0.07141889487210233,0.2851360036290055,-0.5287462729707446,-0.07299462617534071,0.2922311642887284,-0.5119572475418932,-0.15640698000990041,0.7162438938072904,0.8170568660336293,0.11669527800911625,0.6880349666332749,0.8455915194745273,0.0,0.0,0.0,0.0
0.026501842858332292,0.2796706588675034,0.8399693203709953,0.0003110312467745666,-0.5220573375142833,-0.0001704063716982408,0.852910318010475,0.08128831620721756,0.28561778228036033,-0.5206321950271707,-0.07427427999291819,0.28116399409088577,-0.5014145721470964,-0.1627878438283667,0.7056928976845565,0.8281981039955589,0.14947880301370692,0.6956272401259797,0.8414598852911991,0.0,0.0,0.0,0.0
0.02541929256340016,0.2800079218994223,0.8391225668470651,0.00044500498030311357,-0.5216297169740972,-0.0003121779544337748,0.8531718132269815,0.08820349347207553,0.28406669244015154,-0.511578707636704,-0.07475211309607417,0.274728796177127,-0.4960115590163546,-0.1646450528373623,0.6983708409459418,0.8354843375345422,0.18204379627084338,0.7031375349649773,0.8399700456216816,0.0,0.0,0.0,0.0
0.025397373655175096,0.27999207282815763,0.8390936962112442,0.0004891336447657572,-0.5216105529457465,-0.0003150575744040955,0.8531835046123635,0.0882726656519357,0.2841033298366627,-0.5115738381150785,-0.07475610108784232,0.2745933524401214,-0.49599487797752445,-0.16467746951252604,0.6982354857471076,0.8354237779059646,0.18205618804973228,0.7031783186663384,0.8399842286367494,0.0,0.0,0.0,0.0
0.025397373655174735,0.2799920728281581,0.8390936962112439,0.0004891336447669769,-0.5216105529457463,-0.00031505757440548915,0.8531835046123636,0.08827266565193587,0.28410332983666237,-0.5115738381150775,-0.07475610108784204,0.27459335244012234,-0.49599487797753183,-0.16467746951253948,0.698235485747102,0.835423777905976,0.1820561880497164,0.7031783186663302,0.8399842286367554,0.0,0.0,0.0,0.0
0.025397373655174735,0.2799920728281581,0.8390936962112439,0.0004891336447669769,-0.5216105529457463,-0.00031505757440548915,0.8531835046123636,0.08827266565193587,0.28410332983666237,-0.5115738381150775,-0.07475610108784204,0.27459335244012234,-0.49599487797753183,-0.16467746951253948,0.698235485747102,0.835423777905976,0.1820561880497164,0.7031783186663302,0.8399842286367554,0.0,0.0,0.0,0.0
0.026622394708085827,0.28060643814776776,0.8397913165256456,0.0005292865588496252,-0.5223063713934036,-0.00034617087604085723,0.8527576762617379,0.08710154254337894,0.29164887243647214,-0.518439286823511,-0.07601928269614591,0.27881760595606037,-0.4965471654964903,-0.16961914287911412,0.7061319615592535,0.8320647236111064,0.18041583885439766,0.7110646108831574,0.8342940850479909,0.0,0.0,0.0,0.0
0.02874796947664697,0.2817787714053032,0.8408929721381814,0.0005540826076819938,-0.5234619232604064,-6.640084994950908e-06,0.8520488881777204,0.08410496811172694,0.30537429612604755,-0.532832908628172,-0.07920791285280042,0.28616609300409446,-0.4975352787486759,-0.1767104535889226,0.718709823939366,0.8271414737278868,0.17925264880385666,0.7247394865823935,0.8250226169196722,0.0,0.0,0.0,0.0
0.031015739947265166,0.2829648647038736,0.8420663460347133,0.0009430082805574218,-0.5239898179649619,-0.0005193382051276251,0.8517238470844042,0.08251415994096958,0.321080154804602,-0.5516085971139765,-0.07076233318225406,0.28972346760589435,-0.5084930025178211,-0.14294959910526867,0.7092284668926069,0.8347742338348588,0.1704880335927083,0.7362698865574073,0.8123248693303854,0.0,0.0,0.0,0.0
0.0333137810216593,0.28432990121473306,0.8429143581408066,0.0014990737976847603,-0.5245547135796957,-0.0010994870593390355,0.8513747097296694,0.08051335207061601,0.33723483012304034,-0.5718523621553585,-0.05834475671267231,0.28981470787612434,-0.5185995591828608,-0.10436338305123703,0.6987005288923817,0.8419575904848572,0.1593968838885988,0.7462021817155542,0.8022423410522125,0.0,0.0,0.0,0.0
0.03556035307533346,0.28601516266531735,0.8435563657321831,0.0019187599376203443,-0.5250229865351442,-0.001431389543796611,0.8510846803309253,0.07749688589408228,0.3541217758390782,-0.5952144104816197,-0.04546875031645339,0.288455715409708,-0.5275220294088853,-0.07277000313357035,0.690707151013675,0.8492556163008139,0.14830889872478148,0.7552424274317313,0.7929840628101602,0.0,0.0,0.0,0.0
0.0375742525045999,0.2879812968780818,0.844056172109711,0.0022003956509487306,-0.525433348225659,-0.0015747450798521728,0.8508304619660054,0.0736299670023915,0.37004015597681883,-0.6182369389066317,-0.0335723593533903,0.28655334160320006,-0.5354903243679312,-0.04858722869190775,0.6850596714943497,0.8569075674834937,0.13710403480122135,0.7632990813818125,0.7841732709730855,0.0,0.0,0.0,0.0
0.03916587623602606,0.2901348809287204,0.8444829938240241,0.002395274352579176,-0.5258511698822069,-0.001625945940250252,0.8505716701690045,0.06920381964680969,0.3832800734405975,-0.6372464105206938,-0.02305732871402007,0.28442009248610794,-0.5428657723853922,-0.02937029635590646,0.6804827973099802,0.8647419236519313,0.12545916462860413,0.7702392127949447,0.7755829616849411,0.0,0.0,0.0,0.0
0.040254561461274846,0.2924396599730539,0.8448490091628252,0.002528481547900438,-0.5262596747521653,-0.0016276228331310412,0.8503185946189347,0.0643504071672521,0.39349033869542654,-0.6516863720871028,-0.013910260723170507,0.281966981596426,-0.5498812814911047,-0.01301142137056166,0.67592940624896,0.8724988929974108,0.11318649758312646,0.7757951772252958,0.7671809850571328,0.0,0.0,0.0,0.0
0.04083377159462104,0.2948971229992284,0.8451451235251559,0.0026131494533307652,-0.526639411991276,-0.0015993677023407313,0.8500832566345312,0.0591050676857807,0.40085038569457954,-0.6620168930254898,-0.00590818413260036,0.27906299570205606,-0.5566463017183769,0.0017702179128269348,0.6708743584386678,0.8800164556047093,0.10016907797539856,0.7798161058220237,0.7590389478312183,0.0,0.0,0.0,0.0
0.040939255604702074,0.2975301758185566,0.8453534215950871,0.0026554776571599604,-0.5269776974355288,-0.00154781620673777,0.8498735547767978,0.05344484961910638,0.40575424371872076,-0.6690506404484349,0.0012121070668172414,0.2756539763059034,-0.5631673737848821,0.015626613037260567,0.6651654836285803,0.887193708661937,0.08633638601889425,0.7822638157478757,0.7512569917565967,0.0,0.0,0.0,0.0
0.04062589156319055,0.3003710826683941,0.8454497226873814,0.0026580235404749216,-0.5272675710496274,-0.0014736787954143227,0.8496938694030294,0.04731943382293525,0.40866167392435615,-0.6736912578478745,0.007672248430374124,0.2718218632916821,-0.569347974618774,0.02880990868446635,0.6588746436606248,0.8939053295762494,0.0716425444197101,0.7831515172238298,0.7439634421822526,0.0,0.0,0.0,0.0
0.039952761177515644,0.30345287973274754,0.8454032411029275,0.0026214524359927664,-0.527505637936657,-0.0013757158405771298,0.8495463715054595,0.04067294684859161,0.4100201844084634,-0.6768171377052217,0.01363106948567262,0.26782000404244344,-0.5749576632216101,0.04131442831679435,0.6522185050492454,0.8998954787464963,0.05606181589644946,0.782487145595413,0.7373418777455147,0.0,0.0,0.0,0.0
0.03897411034318782,0.3068027604485186,0.8451767930262983,0.0025451590594955478,-0.5276909393210584,-0.0012523061018108632,0.8494317079396367,0.03345908858564169,0.4102168801377517,-0.679210028452321,0.01919613582616069,0.26406720916334975,-0.5795697781188546,0.052937427474656795,0.6455579848159961,0.9046321224180492,0.039601583321407036,0.7802408593480343,0.7316529792570143,0.0,0.0,0.0,0.0
0.03773374779702435,0.31043622443084856,0.8447310081917078,0.0024277443900844655,-0.5278255996657938,-0.0011019349152892478,0.8493485904704052,0.025652989457541367,0.40953598207649794,-0.6814669051516459,0.02444514963650609,0.26104302578445177,-0.5824748755998632,0.06332076517359889,0.639476191943564,0.9070908618026585,0.022321465404192626,0.7763500268908489,0.7272148107804713,0.0,0.0,0.0,0.0
0.036261076524618185,0.3143523734016065,0.8440384766422115,0.002269517510529762,-0.5279181155355499,-0.0009255548159325299,0.8492917378191936,0.017262587271132633,0.40810539317566846,-0.683834982836179,0.029439377021956217,0.25900277892391327,-0.5826188868242618,0.0720931931143594,0.6348893931978817,0.9055423079300065,0.004324785860968423,0.7707867929272177,0.724273892076146,0.0,0.0,0.0,0.0
0.03456719151875133,0.3185356197361742,0.8430984677918703,0.0020750425804337224,-0.5279754789504031,-0.0007271966540469847,0.8492567685985247,0.008325153444875333,0.40587842177447064,-0.6861630345397565,0.03424191198096293,0.2580032960161559,-0.5800796509367105,0.07925854523785625,0.6318986136481547,0.9000060647997236,-0.014271554073040465,0.7636143210335049,0.7228108898793935,0.0,0.0,0.0,0.0
0.03264837782943781,0.3229549054469855,0.8419368874272141,0.0018532624426317646,-0.5280017467370755,-0.0005137104343382601,0.8492411064959736,-0.0010886163998366644,0.40266481776152535,-0.6879604417854013,0.03893907448487389,0.2579105740814799,-0.5760761805160534,0.08523392693435561,0.6297847112794807,0.8922135364695675,-0.03331990386417593,0.7549987702131995,0.722536299945554,0.0,0.0,0.0,0.0
0.03049569363843896,0.32755724372998846,0.8405938732405407,0.001615566736823674,-0.5280051595857091,-0.00029424722998569876,0.8492395744509063,-0.010857037252431171,0.3981897988727358,-0.688506177399135,0.043660751703404145,0.2584008373892876,-0.5715067060215765,0.09052821461505056,0.6281509488756587,0.8831444522111027,-0.052590815237037646,0.7451762535396476,0.723079742454302,0.0,0.0,0.0,0.0
0.02810381240927807,0.3322655847460671,0.8391135362106426,0.0013746801508542005,-0.527996759202698,-7.891945098958045e-05,0.8492452686342452,-0.020802939670983733,0.3921689121993026,-0.6870204698437763,0.0485901437761216,0.25928528249889526,-0.5670345791492911,0.0956861258211792,0.6268177041393712,0.8732390234173907,-0.07176363601009171,0.7344042857156883,0.7241266959062385,0.0,0.0,0.0,0.0
0.02548087784488521,0.3369775017325133,0.8375417314613982,0.001146679441217132,-0.5279924385211907,0.00011878243574410524,0.8492482887126936,-0.030688883298922363,0.3843682113145265,-0.6827563443300533,0.05393426750725483,0.260660982213683,-0.5632217913097891,0.10139688205703275,0.6257318348520498,0.8625999351816093,-0.09046582688628207,0.7229550202848382,0.7254732803970179,0.0,0.0,0.0,0.0
0.022659776801024965,0.34156346182143116,0.8359193786723945,0.0009551687577583229,-0.5280145286744042,0.0002755793089558727,0.8492347550691948,-0.040207508694481475,0.3746748061457582,-0.6751230891770104,0.059854627235899266,0.26294704328442464,-0.5606791802634777,0.10867106388716652,0.6249121034986437,0.8510959785538237,-0.10834314293942215,0.7110738179011139,0.7271247491094555,0.0,0.0,0.0,0.0
0.019707883660887084,0.34586482760948845,0.834252919481455,0.0008351577979736907,-0.5280581617198109,0.00031088298160178115,0.8492077388391596,-0.0488899750082288,0.3632651732798272,-0.6642042060265678,0.06645410486064483,0.2667826233648402,-0.5604575003526991,0.11877383513623015,0.6243445420893611,0.8384278615370252,-0.12527693024832345,0.6986836776492591,0.729472302273205,0.0,0.0,0.0,0.0
0.01669006831447551,0.3497193537518343,0.8326167861231375,0.0008178375009851526,-0.5282268640753126,0.0002377508467965,0.8491028528308676,-0.056450015502060295,0.35000528938534864,-0.6488626990062951,0.0743016004860609,0.27317033004992486,-0.5640077980630316,0.134288205056761,0.6239715194581318,0.8241557015782172,-0.1408140450734818,0.686368176416052,0.732718723107444,0.0,0.0,0.0,0.0
0.014220377337843978,0.35306271513339615,0.8309606175716495,0.000950503884585565,-0.5285407641751005,-1.9409267175155555e-05,0.8489073899848243,-0.06270652797760748,0.33881212956954404,-0.6355827835639261,0.08275520140136604,0.2832046676783059,-0.5728182023578996,0.15692237964193645,0.6250814803199818,0.8077414781837511,-0.15572092767672388,0.6747497745875507,0.7378375892841824,0.0,0.0,0.0,0.0
0.012517619122175848,0.35562841617590374,0.8293757611388755,0.0012048859291793473,-0.5292210616697876,-0.00046938731157242756,0.848482996771622,-0.06709331575221512,0.3304634459717318,-0.6241926538276812,0.09137336069714463,0.29850265344492943,-0.5912939775548962,0.1871888412825748,0.6284502727705283,0.788151093481977,-0.1693217258691872,0.6647671597145046,0.7458719861404113,0.0,0.0,0.0,0.0
0.011847817174974008,0.35712517132743765,0.8280722879167962,0.0013781257892997007,-0.5304182229870746,-0.0009619499597031316,0.8477344419951438,-0.06915471348411378,0.326138141887319,-0.6153888389902871,0.09878947758413649,0.32047481919481813,-0.6248751588762008,0.2188762261212142,0.6364130307441428,0.7646272212185644,-0.17942770199158597,0.6583667435122499,0.7567301647545684,0.0,0.0,0.0,0.0
0.011714534745306399,0.3576347899627769,0.8278997021748294,0.0009762798110285001,-0.5305392940024101,-0.0009703837127441596,0.8476592256046086,-0.06972972159455425,0.3259062239468894,-0.6154724090551861,0.09886555271303515,0.3205238405920812,-0.6248785664661894,0.21890958429166915,0.6364402005861602,0.7646303434674679,-0.1796081209284662,0.6581926951605829,0.756654863101049,0.0,0.0,0.0,0.0
0.011714534745306399,0.3576347899627769,0.8278997021748294,0.0009762798110285001,-0.5305392940024101,-0.0009703837127441596,0.8476592256046086,-0.06972972159455425,0.3259062239468894,-0.6154724090551861,0.09886555271303515,0.3205238405920812,-0.6248785664661894,0.21890958429166915,0.6364402005861602,0.7646303434674679,-0.1796081209284662,0.6581926951605829,0.756654863101049,0.0,0.0,0.0,0.0
0.012652643052369657,0.3599052484914124,0.8285899949031008,0.0007904558175569618,-0.5303795722934792,-0.0009236344474525723,0.8477594183332875,-0.07436783856424067,0.3348965907473893,-0.6298153008925738,0.0944291118865875,0.32400050457674195,-0.6281415612030202,0.2111590298579296,0.6397184070313143,0.7663949612053758,-0.18805076067658436,0.6651765635518325,0.7405220301786835,0.0,0.0,0.0,0.0
0.015088705155394278,0.3643703737649663,0.8318990358380506,0.00037809711673242324,-0.531131156913024,1.5244437281790706e-05,0.847289531958474,-0.08513646217768037,0.3514745458634647,-0.6436433615613806,0.08372572606807455,0.3303389760005603,-0.6195517429187571,0.20037286668134324,0.6583425997533057,0.7522976700852185,-0.20225665899618894,0.6942074046311675,0.6924452746910699,0.0,0.0,0.0,0.0
0.016757081775533297,0.368743832258897,0.8348029134969797,0.00032713549295091933,-0.5294173510417834,-0.0005541072237905446,0.8483612758509518,-0.07998590048294599,0.32586249840195275,-0.6002158620633814,0.07624598122434793,0.33674230744055517,-0.6272168680302689,0.17812807402684544,0.6729099115830709,0.7343970316253884,-0.177119284110314,0.6711808945276423,0.7419098977302666,0.0,0.0,0.0,0.0
0.019143851731641088,0.3735012895412689,0.8371733261940892,0.00019864916163489475,-0.5284679755450886,-0.0007724097048532689,0.8489528624988751,-0.07253884717160915,0.3075174288101261,-0.5754059174044251,0.0673074302463062,0.3460285992286951,-0.6371311264948664,0.15773019963041096,0.6863796144355198,0.7244594114505223,-0.14975552630176456,0.6593674184109765,0.7766961185163685,0.0,0.0,0.0,0.0
0.021956116536661584,0.3785810621106339,0.8387267113169603,-6.258623747864093e-05,-0.5280280951676983,-0.0006969621462898312,0.8492266134785824,-0.06473035372544099,0.2950431029867192,-0.5632481039597669,0.05720719032488781,0.35695289187991625,-0.6495783238628656,0.13848243145346023,0.6962614437131566,0.725144534731194,-0.1262532889166563,0.6545415465599501,0.8006901495487566,0.0,0.0,0.0,0.0
0.024799464628272993,0.3837651311062577,0.8399914727608063,-0.00039539406932671963,-0.5278444676127119,-0.0004358961268583788,0.8493408454023327,-0.05726519525225177,0.287137155759442,-0.5588855873117979,0.04648854252356539,0.36704238784297116,-0.6598547457280917,0.11961443087352407,0.7049377938118911,0.7292975922336526,-0.10897460111976026,0.6522934892209595,0.818685969730274,0.0,0.0,0.0,0.0
0.027547957955197717,0.3888623947761946,0.8412835818751538,-0.0007556237286479916,-0.5277990071985056,-0.00011502427212331515,0.8493689562271919,-0.05049642557833376,0.28239011736980774,-0.558726810214843,0.03576188985658375,0.3757190315962516,-0.6666535390431885,0.10091791984806522,0.7141922354055377,0.7324836477102513,-0.09690423747775323,0.6512712709006928,0.8333181572662312,0.0,0.0,0.0,0.0
0.030102854971633463,0.39379015307144705,0.8426175513424591,-0.0011047300636975695,-0.527797415192981,0.0002093193863050212,0.8493695451760023,-0.04446542086926631,0.27944117909148036,-0.5609983700563381,0.025301209816560814,0.3827809296357206,-0.6702614830170044,0.08225282165707051,0.723871731729962,0.7340539367934868,-0.08819529173472158,0.6508488981176355,0.8459876822782427,0.0,0.0,0.0,0.0
0.03240518681156734,0.3984998990797628,0.8439406640170897,-0.0014206428045449443,-0.5277916446029071,0.0005080291682887689,0.8493725352092241,-0.03896165766170191,0.2773209824469156,-0.5646801556079292,0.015267436154999451,0.38819010564542655,-0.6711997527121711,0.0636461887552031,0.7334781539182162,0.7343906338101216,-0.08122525148834521,0.6507716454563774,0.8574409277849153,0.0,0.0,0.0,0.0
0.03442794666085229,0.40295707526936764,0.8451993489698929,-0.0016941714906622812,-0.52776144829645,0.0007703896469600423,0.8493905991796621,-0.03369142460463721,0.275461130060912,-0.5691250590567434,0.005761977318318064,0.3920187268674675,-0.669984821863055,0.04526157648178468,0.7425691517927628,0.7340239962321577,-0.07485458097971288,0.6509211098991516,0.8680813824491544,0.0,0.0,0.0,0.0
0.0361646196511831,0.40713777708339144,0.8463514423237626,-0.0019234022897972245,-0.5277018399036374,0.000994611183360717,0.8494269123559374,-0.02838967334355293,0.27364310345322146,-0.5738398214573417,-0.00315162821189059,0.39439798454276864,-0.6670762219702644,0.027313561118296834,0.7508164094418804,0.7334438762665478,-0.0683773902836579,0.6512506629840514,0.8780624268419045,0.0,0.0,0.0,0.0
0.037618416602673545,0.4110287494299705,0.8473630289609789,-0.002110100244036387,-0.5276138888449723,0.0011830669342617656,0.8494808603655967,-0.02287779721036673,0.27194283053734386,-0.5783326688277041,-0.011440423528878635,0.39547425346602355,-0.6628733884668069,0.01000721632630263,0.7579654626443801,0.7330992871116122,-0.061343107173541966,0.6517927669595914,0.88727341828109,0.0,0.0,0.0,0.0
0.03879363580731335,0.4146276103511829,0.8482026481451154,-0.002257290377341328,-0.5274998273598283,0.0013394411904559173,0.8495510830272662,-0.017077133176386268,0.2706635830490246,-0.5819849382747276,-0.01909832401162863,0.39537134578128474,-0.6577081150712315,-0.006501100724323024,0.7637849555632208,0.7334419889453394,-0.05338999411588094,0.6527050580130038,0.8952433023487585,0.0,0.0,0.0,0.0
0.039689112038251005,0.4179425970724419,0.8488390525259064,-0.0023678804906036915,-0.5273612216268311,0.001467247876992595,0.8496366177666226,-0.010988205999723933,0.2701919612811036,-0.5839318976568896,-0.026143137896668743,0.3941552247844182,-0.6518091137447999,-0.022122868244714336,0.7680412645167438,0.7349392292803756,-0.044154232307648325,0.6543600993154827,0.9009496608259345,0.0,0.0,0.0,0.0
0.04029339322091879,0.42099134442499586,0.8492495423452302,-0.002444544057578933,-0.5271998249382177,0.001570379934533879,0.8497363724687348,-0.00463915887516345,0.27069014606716346,-0.5829960400868487,-0.03261375909990976,0.39178992177161115,-0.645192960759155,-0.03682900230974527,0.7705365064313167,0.7379734705380201,-0.03333465041413805,0.6574536048821922,0.9026169607608387,0.0,0.0,0.0,0.0
0.040579705058855726,0.4237965119711775,0.8494329371567977,-0.0024844614714472084,-0.5270082769706378,0.0016475384757438172,0.8498549223676988,0.0019665674094580593,0.2721224003250267,-0.5791779098504674,-0.03855379608369735,0.3881145884575903,-0.637637701472173,-0.050678001326732884,0.7711638465932623,0.7426530600718139,-0.02103616507405467,0.6618526475447738,0.9001948443853347,0.0,0.0,0.0,0.0
0.04050773869093474,0.42638505535984517,0.8494092083646455,-0.0024776124672639755,-0.5267694312560192,0.0016909011815128112,0.8500029226913672,0.008880792363946115,0.27425733493884585,-0.5736646697998915,-0.04400825346056165,0.3828527353692292,-0.6287056204923669,-0.06381510291139786,0.7699058284225714,0.7488092526362364,-0.0077273512838436885,0.6666016825912784,0.895386569738733,0.0,0.0,0.0,0.0
0.04003208244931124,0.4287881803353791,0.8492046044817486,-0.0024093734099920046,-0.5264645359936155,0.001690020588069312,0.8501919966050081,0.016212486333643278,0.2766338966811949,-0.5673341365536742,-0.0490286155057651,0.3756578830143459,-0.6178239000321771,-0.07643256677767861,0.7667748603464402,0.7561840941967458,0.006158367038921492,0.6710664395266476,0.8891987193946793,0.0,0.0,0.0,0.0
0.03911110897573365,0.4310361335000247,0.8488403082964061,-0.0022598856281493508,-0.5260735079802705,0.0016305479549822163,0.8504345350652491,0.024103920507232195,0.2788566476067733,-0.5607970317909167,-0.053661440734641984,0.36618873936526775,-0.6044532551422421,-0.0887550296480315,0.761774660672304,0.7645410021145798,0.02034915718883437,0.6748228702978208,0.8821635864246237,0.0,0.0,0.0,0.0
0.03772045235508255,0.43315060042725023,0.8483309219181984,-0.002007053325901577,-0.5255796875477141,0.001496215279151943,0.8507406920525388,0.03269187804362188,0.2807233252162415,-0.554470710417019,-0.05793490888199197,0.3541971064386657,-0.5882106689651557,-0.10097959443954704,0.7549308468092616,0.7736714920621397,0.0347733295752223,0.6776091654892928,0.8745746068319807,0.0,0.0,0.0,0.0
0.03587459864935298,0.43513367075124276,0.8476847748336672,-0.0016346833726548229,-0.5249808809937929,0.0012746165949349593,0.8511114954891562,0.04203372121904169,0.2822648546351697,-0.5486120916113679,-0.06184106435115753,0.3396648727596035,-0.5690293244726736,-0.11316484839046496,0.746355681364543,0.7833972352038289,0.04966618315509262,0.6794223254877455,0.8666777543629549,0.0,0.0,0.0,0.0
0.03366101509039041,0.43695062754894004,0.8468972634328535,-0.001148305313362744,-0.5243063565781887,0.0009671479962769501,0.8515283850062579,0.05199502160586823,0.2837240547490697,-0.5432459605915849,-0.0653078019117382,0.32305621880361607,-0.5475069685924646,-0.12506032876814752,0.7363076755055086,0.7936655758040224,0.06590248210099003,0.6808226712697137,0.8588350154398772,0.0,0.0,0.0,0.0
0.031292838919127305,0.4385011940269362,0.8459196143825255,-0.0005767207708427326,-0.5235715925121205,0.0005455783863452977,0.8519813127362001,0.062323523100964076,0.2851691507534446,-0.5376291794521343,-0.06806570466117058,0.3060484903194511,-0.5266114558136966,-0.13623465769383003,0.7251115625061091,0.8047219561933129,0.08533669032507554,0.6831805308345589,0.8514722616639933,0.0,0.0,0.0,0.0
0.029117660247123506,0.4396840609284126,0.8447340035674955,-9.370915545410725e-06,-0.5228280486704264,0.00011156508970441961,0.8524381613870246,0.07304929908945151,0.2865370916313618,-0.531048418657581,-0.07006151671989762,0.29136526907144505,-0.5106065466998143,-0.14544436170381675,0.7134117633172696,0.8166248883157454,0.1111408972581804,0.6881707411596132,0.8452991188052258,0.0,0.0,0.0,0.0
0.027372202408336106,0.44045115765480136,0.8435604894013143,0.00043106122593406415,-0.522211815255073,-0.0002412017979831353,0.8528156752874057,0.08300567300536749,0.28736724232599564,-0.523462654357011,-0.07126938781409851,0.2802700507205459,-0.4999217628698703,-0.1516971712588955,0.7029680172261341,0.8275831188160993,0.14346327328146016,0.6957423598859602,0.8410628886889233,0.0,0.0,0.0,0.0
0.026288069269190945,0.44076669690323095,0.8427296549710462,0.0005815738909759594,-0.5217950630297915,-0.00039152943173245154,0.8530705836413828,0.08994178303499513,0.28636377280446274,-0.5152872718817721,-0.07170291131869432,0.2738251745651846,-0.4944245045729248,-0.15365686680129817,0.6957932410623769,0.834711135554464,0.17536147835392765,0.7032731261437981,0.8393649885695417,0.0,0.0,0.0,0.0
0.026263460195417566,0.4407444801323933,0.8427001921470703,0.0006305464701637275,-0.521777133559708,-0.0003940955248582205,0.8530815142728629,0.09000982814655661,0.2864009522923868,-0.5152829075541591,-0.07169965149448577,0.2736874160296357,-0.4944083577793965,-0.1536875458077413,0.6956564330171537,0.834650020286533,0.17537305954296523,0.7033146853273552,0.8393793626733841,0.0,0.0,0.0,0.0
0.02626346019541745,0.4407444801323935,0.8427001921470701,0.0006305464701646624,-0.5217771335597082,-0.0003940955248588419,0.8530815142728628,0.09000982814655646,0.2864009522923869,-0.5152829075541555,-0.07169965149448539,0.27368741602963553,-0.49440835777939773,-0.1536875458077454,0.6956564330171515,0.8346500202865406,0.17537305954296212,0.703314685327354,0.8393793626733889,0.0,0.0,0.0,0.0
0.02626346019541745,0.4407444801323935,0.8427001921470701,0.0006305464701646624,-0.5217771335597082,-0.0003940955248588419,0.8530815142728628,0.09000982814655646,0.2864009522923869,-0.5152829075541555,-0.07169965149448539,0.27368741602963553,-0.49440835777939773,-0.1536875458077454,0.6956564330171515,0.8346500202865406,0.17537305954296212,0.703314685327354,0.8393793626733889,0.0,0.0,0.0,0.0
0.027482399842300557,0.4413594202936579,0.843400828385293,0.0006722183368229637,-0.5224721754375398,-0.00042793588727006634,0.8526559627932879,0.08884039989481679,0.2938790350762769,-0.5220147682234756,-0.07295861830076836,0.2778798666076535,-0.4949067130243811,-0.15852019694967406,0.7035179258673118,0.8313168485801614,0.17363164394345182,0.7111885247981538,0.8336251987985407,0.0,0.0,0.0,0.0
0.029599545391864473,0.44253506287056205,0.8445148805483076,0.0006843627848636057,-0.5236156114694892,-7.560746229384292e-05,0.8519543516858888,0.08582424218796735,0.3075506148208369,-0.5363634790460795,-0.07616352879986864,0.28519627627153765,-0.4958293750637266,-0.16525021552039793,0.7160084040402681,0.8263246061057646,0.17243665293490898,0.7248949717599892,0.8241365132650742,0.0,0.0,0.0,0.0
0.03186070814081149,0.4437291802496087,0.8456666805329817,0.0010537194400357687,-0.5241409841556004,-0.0005739803117836721,0.8516306646371665,0.08421310423083826,0.3232485212292144,-0.5552559489220977,-0.06777448717976978,0.2889859238229313,-0.507323387525736,-0.13274630322767783,0.7067086750776959,0.8340846063686757,0.16372538281660387,0.7363220371504225,0.8115619751728899,0.0,0.0,0.0,0.0
0.034146255265329564,0.44510359210781164,0.8465066590449954,0.0015845866200433498,-0.5246910836111828,-0.0011293397199590412,0.8512904794815711,0.08217432096758139,0.33936873766025644,-0.5756029648321886,-0.05541042150918376,0.2892054353314445,-0.5177287881578596,-0.0954136105686557,0.6963061213302544,0.8413207009439481,0.15273735462209742,0.7461882970328867,0.8014270913716443,0.0,0.0,0.0,0.0
0.036375814821571976,0.44679701663283405,0.8471401724815656,0.0019848482230769523,-0.5251404578861464,-0.0014416163289217528,0.8510120337639298,0.07912676421470682,0.3561836504929804,-0.5990112703801054,-0.04256472331498756,0.28789597508635445,-0.5268138346120771,-0.06463836347936117,0.6883375347796964,0.8486109390662471,0.14170583164088046,0.7551334963854226,0.7921118625926477,0.0,0.0,0.0,0.0
0.03836749013364251,0.44876745034361126,0.8476327138628208,0.002254489227678627,-0.5255365581739903,-0.001573403071276465,0.8507665765083474,0.07524270032796347,0.37196919414046886,-0.6219295946130088,-0.030677611051547933,0.286004692808428,-0.5348719642292993,-0.04088443121034854,0.6826331019418355,0.8562167096483153,0.13051170883689514,0.7630871493766038,0.7832562035562295,0.0,0.0,0.0,0.0
0.03993516313798315,0.4509232243445944,0.8480527572121033,0.00244214611624049,-0.5259425459096553,-0.0016177625075025162,0.8505150540518883,0.07080608787152662,0.3850712303433371,-0.6408065166255216,-0.020162530376500808,0.2838552060770594,-0.5422894740139899,-0.021860239266778127,0.6779518235552042,0.8639779538663492,0.11885589582762941,0.7699209724843115,0.7746297455695992,0.0,0.0,0.0,0.0
0.04099983749969358,0.4532290576187629,0.8484123670214291,0.0025711634177642616,-0.5263410283125669,-0.0016154445531991652,0.8502681349859257,0.06594521108446455,0.3951541392390207,-0.6551198370161112,-0.011010108519549935,0.2813682683890258,-0.5493154414900491,-0.005574408745674685,0.6732742911190593,0.8716459401323535,0.10656949543016833,0.7753740624129951,0.7661963509354586,0.0,0.0,0.0,0.0
0.04155567061158923,0.45568701460616085,0.8487023290645056,0.0026535413049749382,-0.5267121010699435,-0.001584866616343793,0.8500381223820711,0.06069332357094606,0.4024007253860338,-0.6653396133403588,-0.0029995147692854357,0.27841960747963934,-0.5560702564176423,0.009187501589335886,0.6680902355466521,0.8790653791757164,0.09354716907709999,0.7792991976449232,0.7580242613109105,0.0,0.0,0.0,0.0
0.04163870308824985,0.45832042605029566,0.8489045085049025,0.0026947777125783156,-0.527042709435895,-0.0015319824422451319,0.8498331445838925,0.05502623924741941,0.40720513233413524,-0.6722819077954437,0.004130647836463384,0.27495963558635683,-0.562568100352291,0.02304441999226784,0.6622544341143404,0.8861392928114481,0.07972367477221837,0.7816593097096799,0.7502116521841227,0.0,0.0,0.0,0.0
0.0413040112649666,0.4611619238996522,0.8489944451207898,0.0026969943303168363,-0.527325598808621,-0.0014571265686159633,0.8496577639525661,0.04889285334414887,0.41002697345465655,-0.6768527426541245,0.010600053732003692,0.27107338558819855,-0.5687180937153075,0.03623331928923962,0.6558422122926509,0.8927452676481706,0.0650541980058082,0.7824673511108926,0.7428859514921418,0.0,0.0,0.0,0.0
0.04061091188148693,0.46424485351441247,0.8489410767286444,0.002660568328617238,-0.5275571577828796,-0.0013588535792298803,0.8495142848505661,0.04223679022195298,0.4113140915053769,-0.6799331405110274,0.01656538626820428,0.26701627553393603,-0.5742942370610379,0.048740955193046054,0.6490731082722593,0.8986305933959537,0.04951191651742614,0.7817305714028006,0.7362304377947518,0.0,0.0,0.0,0.0
0.039613940687913886,0.4675966126433737,0.8487070167069448,0.0025846835680729307,-0.5277363044031271,-0.001235421534189568,0.8494034295665492,0.03501150202193409,0.4114541984278584,-0.6823071530474203,0.02213208362217483,0.26320855612066923,-0.5788735186623698,0.06035872564674049,0.6423118160573662,0.9032675293863445,0.03310248637522019,0.7794186872925544,0.7305056677629398,0.0,0.0,0.0,0.0
0.03835719483721776,0.4712327431609773,0.8482528313948778,0.0024677852822524602,-0.5278651488673027,-0.0010852416563433209,0.849323917535382,0.02719215844925537,0.41073180445202134,-0.6845724524741092,0.02737616357221459,0.26013097064842744,-0.5817494209525129,0.07072182304725583,0.6361461846666093,0.9056379488313733,0.015883915352991117,0.7754692194813186,0.7260294181920693,0.0,0.0,0.0,0.0
0.03687026052492804,0.4751521924969602,0.8475511901582551,0.0023101218891269436,-0.5279522625971722,-0.0009092424733532311,0.8492704192620325,0.018787029412335284,0.4092743604699088,-0.6869746899381253,0.03235827032531777,0.2580398938339139,-0.581869542384051,0.07945263724692782,0.6314963318306969,0.9040205282866203,-0.002041970019186049,0.7698547966684915,0.7230477871500883,0.0,0.0,0.0,0.0
0.03516429557295679,0.4793391307584337,0.8466014212455393,0.002116316161200719,-0.5280046863386306,-0.000711448803405998,0.8492385214125359,0.009833713460507786,0.40703469721427243,-0.6893612494797233,0.03714204300328352,0.2569921972908976,-0.5793108592440366,0.0865554249852851,0.6284637114881807,0.8984359954548292,-0.020559344546072878,0.7626386219525572,0.7215417881557582,0.0,0.0,0.0,0.0
0.03323553968090945,0.48376219886982064,0.8454294086649697,0.00189545064196875,-0.5280264611554201,-0.0004986612294915805,0.8492256560676471,0.000403124122050973,0.40382231643346456,-0.691241244118102,0.041815403684916035,0.2568527133715206,-0.5752885178495744,0.0924539203972668,0.6263265365165431,0.8906088535440441,-0.03952093851135781,0.7539862513018145,0.7212234672154799,0.0,0.0,0.0,0.0
0.031074915817401225,0.48836800706434974,0.8440752630360733,0.0016590933243058512,-0.5280257746119956,-0.0002799273485467615,0.8492266778637036,-0.00938277615039517,0.3993621456957466,-0.6918936221207574,0.046510634772585616,0.25729576403076826,-0.570694468100127,0.09766380649104431,0.6246847574368835,0.8815123158570366,-0.05869756844243411,0.7441327140986328,0.7217249514525537,0.0,0.0,0.0,0.0
0.02867694185806251,0.49307908397359496,0.8425830197784854,0.0014201743710873511,-0.5280135116973235,-6.520141568519928e-05,0.8492347792681312,-0.019346578743617258,0.39336989845182513,-0.6905401371302372,0.051413408526921583,0.2581290448520109,-0.566183066758106,0.10273684432264754,0.6233561862706357,0.8715805628117232,-0.07776942322979534,0.7333335372873901,0.7227354617959046,0.0,0.0,0.0,0.0
0.026049557546079093,0.4977926369470641,0.840998299553121,0.0011950726526312658,-0.5280051809097599,0.00013219055955383943,0.8492402977128809,-0.029250736838636503,0.3856124369279202,-0.6864381333234387,0.056732817760750946,0.25944243532361155,-0.5623033347308757,0.10837238754317223,0.6222849514920973,0.8609092891437589,-0.09636636254465991,0.7218567647070058,0.7240566875915517,0.0,0.0,0.0,0.0
0.023225205483812246,0.5023788662643103,0.8393614594024861,0.0010078942918275132,-0.5280220589550231,0.0002887090817538642,0.8492300077441098,-0.03878718026033645,0.3759780455241393,-0.6790058745215667,0.0626327444854343,0.2616404278895842,-0.5596491240008816,0.11559596261483411,0.6214832995539357,0.8493577885514592,-0.11414008770602284,0.709938546370852,0.7257009131613013,0.0,0.0,0.0,0.0
0.02026944220272106,0.5066789788480994,0.8376797065958744,0.0008944332358819976,-0.5280600551478142,0.00032509204555449705,0.8492064957721626,-0.04748956018316677,0.36462869409727544,-0.6682961349797453,0.06922537044779907,0.2653415947566441,-0.559242272685708,0.12571079540775557,0.620925647981171,0.8366133727197779,-0.13097091615972933,0.6975024328118355,0.7280594187160112,0.0,0.0,0.0,0.0
0.017251240997351546,0.5105323967298394,0.8360252015697348,0.0008871260476588185,-0.5282201368628613,0.00025433394190054745,0.8491069634234556,-0.05507651789490682,0.3514703770983275,-0.6532608052461374,0.07706263119073835,0.271507930859141,-0.5624711466630727,0.1413198320621077,0.6205543733841647,0.822214581066139,-0.14642760070278238,0.6851186210749145,0.7313502806666123,0.0,0.0,0.0,0.0
0.014779100176552257,0.5138736868893998,0.8343464642146035,0.0010342048295432671,-0.5285204913056828,1.0227410036063343e-06,0.84891991417879,-0.061363727009517324,0.3403710251383836,-0.6403115256573754,0.08549506993439593,0.28117887134491126,-0.5707723423698734,0.1641690373302835,0.6216195388609496,0.8055904898427292,-0.16128065606008501,0.6733820020349686,0.7365577694565737,0.0,0.0,0.0,0.0
0.01306942275066878,0.5164373469749418,0.8327354327002379,0.0013095342126941002,-0.5291809792408436,-0.00044239711511549057,0.8485078553641328,-0.06579100921148238,0.3320907093181333,-0.6292498745135822,0.09405905957153073,0.2958914991861506,-0.5884038667115041,0.19471900868561734,0.6249056799633151,0.7856498798714793,-0.17487195299090286,0.6632219887839195,0.7447187272708699,0.0,0.0,0.0,0.0
0.012385372050570543,0.5179340425608168,0.8314088026164583,0.0015129490039648874,-0.5303546381204827,-0.0009248657301592497,0.8477740344176533,-0.06790979781692504,0.3277699013357455,-0.6206658951320951,0.10136052286680665,0.317010748107446,-0.6206287293079185,0.22658207318912837,0.6328118495391708,0.7616001016588607,-0.1850452818512083,0.6566148129928249,0.7556857560132031,0.0,0.0,0.0,0.0
0.012251315802890147,0.518443235650575,0.8312349623517368,0.001112076981229091,-0.5304767064913742,-0.0009337410459188847,0.847698269009977,-0.06848572137671871,0.32753758271621397,-0.6207515080805152,0.10143727884618073,0.3170601699568578,-0.6206316602494658,0.226615900846073,0.6328387581830011,0.7616031904990707,-0.1852269519809437,0.6564396776379093,0.7556096141582107,0.0,0.0,0.0,0.0
0.012251315802890147,0.518443235650575,0.8312349623517368,0.001112076981229091,-0.5304767064913742,-0.0009337410459188847,0.847698269009977,-0.06848572137671871,0.32753758271621397,-0.6207515080805152,0.10143727884618073,0.3170601699568578,-0.6206316602494658,0.226615900846073,0.6328387581830011,0.7616031904990707,-0.1852269519809437,0.6564396776379093,0.7556096141582107,0.0,0.0,0.0,0.0
0.01320572746312427,0.5207304166219991,0.8319322571795066,0.0009023497863903054,-0.5303213393024452,-0.0008902052607952677,0.8477957716218673,-0.07313109107311397,0.33663473391141957,-0.6352427718359235,0.09700699791092221,0.320659511586001,-0.6240555498438456,0.21901377271954264,0.6360857780088206,0.763525420809846,-0.19360914036711882,0.6635622972061592,0.7392852102683112,0.0,0.0,0.0,0.0
0.01567593060967819,0.5252474607617983,0.8352811440775558,0.0005134071290327389,-0.5310582220489821,1.291785858867388e-05,0.8473351763265956,-0.08397162969872746,0.35351311812870884,-0.6494665466062421,0.08626093309864749,0.3272655727306038,-0.6159222637260862,0.20793434232501506,0.6548712209192435,0.7495057024425262,-0.20824917894946257,0.6928865510436538,0.6903398680258853,0.0,0.0,0.0,0.0
0.017363908743037164,0.5296640227274804,0.8382172442956902,0.0004122950379539794,-0.5293734589645116,-0.0005412751855315433,0.8483886361673663,-0.07881208829011026,0.3271953238734236,-0.6043107280420582,0.07872347644114226,0.3337318847868433,-0.6233873227225881,0.18601318183484475,0.6695414935855011,0.7317241262579743,-0.18263734269885948,0.6699937923616551,0.7403241098998882,0.0,0.0,0.0,0.0
0.019782120657384474,0.5344742353102928,0.8406252759876022,0.0002608429958166524,-0.5284436538239837,-0.0007585990292610291,0.8489679977605763,-0.07141060721779295,0.3084172841307783,-0.5783995051772036,0.0697143410697117,0.34319118538216775,-0.6333532052033385,0.1657345022830146,0.683143383933525,0.7219375996911038,-0.1550215789669553,0.6582716004184378,0.7754460134681321,0.0,0.0,0.0,0.0
0.022629683159328003,0.5396171095031924,0.8422179126064142,-9.171674616198681e-07,-0.5280116001187408,-0.0006984389481414194,0.849236870562178,-0.06367250538471503,0.2956876206407106,-0.5655381347955947,0.0595359538527093,0.35433850948970685,-0.6460243641974899,0.14639883041447493,0.6931573796006891,0.7228050744619291,-0.13138831962329975,0.6535085508794328,0.7995981299697927,0.0,0.0,0.0,0.0
0.025510339714097784,0.5448716809591704,0.8435003874589562,-0.00033026258578477085,-0.5278339892266458,-0.00045334554883599723,0.8493473760608924,-0.05629781409302446,0.28763380037857655,-0.5607701008215478,0.048720663762983694,0.3646641351779146,-0.6566359534519457,0.12738749957185486,0.70184514514944,0.727372725869373,-0.1141023174289686,0.651309796393255,0.8176479291098159,0.0,0.0,0.0,0.0
0.02829684852923656,0.550036551500612,0.844807720023028,-0.0006861032443853831,-0.5277937205525842,-0.00014694178092512845,0.8493722954133315,-0.049615251629331995,0.28282607021001027,-0.5603797751151479,0.037895652320960246,0.37356331892805034,-0.6637528122715867,0.1085405196285662,0.7111192412494256,0.7309418780378724,-0.10211636328068995,0.6503259382666081,0.8322899219847992,0.0,0.0,0.0,0.0
0.030889332115106072,0.5550253775213784,0.8461577215766822,-0.0010316959888880272,-0.527798045748965,0.00016534338949857966,0.8493692548994951,-0.043658640752572565,0.2798763679211577,-0.5625243239074347,0.027342450738766736,0.38082843346893447,-0.6676308219358792,0.08974300753500936,0.7208461712688027,0.7328221551675684,-0.09355346297760216,0.6499418291077572,0.8449536870419874,0.0,0.0,0.0,0.0
0.033227651486145086,0.5597877532384916,0.8474974229985728,-0.001346066354826409,-0.5277986021333858,0.0004556283463043164,0.849368363017026,-0.03821647025807906,0.277789010722187,-0.5661408660056172,0.01722529964728297,0.3864223600339412,-0.66879485064429,0.07104179162335114,0.730518565096387,0.733396462534659,-0.0867479976395297,0.6499110407741187,0.8563981286311749,0.0,0.0,0.0,0.0
0.03528378662119494,0.5642883707044485,0.8487721300507662,-0.0016193048317223282,-0.5277752945464884,0.0007120810332878442,0.849382192689976,-0.03299344530542635,0.2759799298991746,-0.5705560669126849,0.007649406781038669,0.3904174901899132,-0.6677688726588188,0.05259797166783681,0.7396849651931428,0.733213396389751,-0.08054007533226726,0.6501169610239256,0.8670331763933988,0.0,0.0,0.0,0.0
0.03705025084485816,0.5685029249830402,0.8499387665670142,-0.001848708997120873,-0.5277228459821348,0.0009319518851074133,0.8494140989936791,-0.027724149337228048,0.2742189951331038,-0.5752600391805683,-0.0013191724027699428,0.39294533716767377,-0.6650214348653667,0.03462179911344632,0.7480085619154399,0.7327771050061304,-0.07420865012279736,0.6505105780746516,0.8770158252778039,0.0,0.0,0.0,0.0
0.038529427862328255,0.5724179529416782,0.8509628739532356,-0.0020353619092135385,-0.5276419766577624,0.001116836702073297,0.8494636863612056,-0.02223021530361146,0.27257400236008006,-0.5797499281657438,-0.009645774304730985,0.39415255124321064,-0.6609593535517676,0.01731452362951461,0.7552284572562205,0.7325463699578377,-0.06729378558633346,0.6511201569125948,0.8862378886193988,0.0,0.0,0.0,0.0
0.039725030385771465,0.5760309945690155,0.8518127341933848,-0.00218174497425414,-0.5275347479130138,0.0012697616238447737,0.8495297036823602,-0.016433676091087743,0.27134317074913705,-0.583399272907493,-0.017323078559344354,0.39416340093843943,-0.6559196247920344,0.0008295315945452339,0.7611091988266067,0.7329798464498548,-0.059428272743932996,0.6520996442177118,0.894230528423567,0.0,0.0,0.0,0.0
0.040635606425897565,0.5793502728413689,0.8524570110154697,-0.002290359242360204,-0.527402730280435,0.0013936976049734131,0.84961118869414,-0.010336222564939983,0.2709104052226883,-0.585337586915791,-0.0243679598544903,0.3930450001082474,-0.6501352822859744,-0.01474673547457662,0.7654150283881509,0.7345498366857357,-0.05024399897576742,0.6538195316665679,0.8999738469080921,0.0,0.0,0.0,0.0
0.04124975305068026,0.5823933585554544,0.8528729741877497,-0.002363571824616719,-0.5272476940563783,0.001492111465373456,0.8497070414230051,-0.0039672334324338445,0.27143683534250956,-0.5843835226931365,-0.03081851462971909,0.39076404414650145,-0.6436289921972512,-0.029386491338154117,0.767947263638692,0.7376423274962073,-0.03943649043511675,0.6569746111688066,0.9016949678895593,0.0,0.0,0.0,0.0
0.04154116839408312,0.5851825597741606,0.8530593347771189,-0.0023987313741418827,-0.5270625179670017,0.0015637640319895402,0.8498216888760436,0.0026690515123753977,0.27288764405858174,-0.5805370238445792,-0.036717556583018035,0.3871643230000517,-0.6361860649011569,-0.043144447081900524,0.7685990277764211,0.7423690481431562,-0.02711171316959429,0.6614336816379898,0.8993425151095565,0.0,0.0,0.0,0.0
0.04147038029607195,0.5877442553322281,0.8530358816694634,-0.0023866215694098437,-0.526830472069359,0.0016016082123757778,0.8499655243524851,0.009623997418741873,0.27503399457915134,-0.5749879588418232,-0.04210971426085896,0.3819756029057029,-0.6273763062864703,-0.0561553491848196,0.7673528831579757,0.7485648207010087,-0.013742072283576828,0.6662460259475723,0.894615738220817,0.0,0.0,0.0,0.0
0.040992963540151174,0.5901093532940894,0.8528287634476793,-0.0023135972484494747,-0.5265331974199817,0.0015962188727082752,0.8501499228770023,0.017006314229089863,0.2774184678238765,-0.5686185577601911,-0.047047096487778176,0.37485777813543497,-0.6166335516946094,-0.06860133373979385,0.7642219964027821,0.7559750729910517,0.00023556001777128195,0.6707838386502091,0.8885178853474204,0.0,0.0,0.0,0.0
0.040068175415804645,0.5923084972139733,0.8524592675931822,-0.0021609746329313223,-0.5261509090356897,0.0015345680260359794,0.850387086102868,0.02495791857029981,0.2796496846136035,-0.5620459928310007,-0.0515787709538396,0.3654737526320998,-0.603420131104921,-0.08069885389210532,0.7592112909150192,0.7643658935262637,0.014548823866930625,0.6746305365398141,0.8815779766244966,0.0,0.0,0.0,0.0
0.038672074353352695,0.594364983628133,0.8519425416552808,-0.0019076796179737748,-0.525666913807101,0.0014016263908455074,0.8506871880606017,0.033615960933486816,0.28152929144125144,-0.5556974722104503,-0.055737918072053916,0.35357426043077456,-0.5873453922486225,-0.09264488624936665,0.7523485766612106,0.773528867090555,0.02912430039188072,0.6775280006703285,0.8740841443458693,0.0,0.0,0.0,0.0
0.03681864995671603,0.5962843281786786,0.8512883959369196,-0.0015377398630415403,-0.5250781132803723,0.001185499760769063,0.8510518226878756,0.04304035275638419,0.28309147874255924,-0.549845489509472,-0.05952457401341783,0.33913095887857775,-0.5683211501378204,-0.10451389615334115,0.7437504140055183,0.7832774233475004,0.04418239806142365,0.679463058406671,0.8662717599372018,0.0,0.0,0.0,0.0
0.03459354199369325,0.5980377589771616,0.8504954051821781,-0.0010552659324461302,-0.5244119626676612,0.0008866163688699946,0.8514635598405123,0.053102488553712836,0.28458583081973776,-0.5445424090395112,-0.06287812323091438,0.3225822355358837,-0.5468978540768166,-0.11609480319052233,0.7336848741798173,0.7935348727883107,0.060541401043132784,0.6809575510987764,0.8584860674051039,0.0,0.0,0.0,0.0
0.032206460741435405,0.5995343767134568,0.8495204980255358,-0.0004885023099859523,-0.523688702274629,0.00047912219420797247,0.8519094288228831,0.06354192655827999,0.2861236563280515,-0.5391153981004252,-0.0655515859205788,0.3055295487386411,-0.5258577818752802,-0.12698651774876188,0.7225026902451518,0.8045215247499393,0.07995127777089289,0.6833342915987919,0.8511516946665012,0.0,0.0,0.0,0.0
0.030021334855309067,0.600669519706087,0.848339483037354,7.376369206493664e-05,-0.5229552664315952,5.990443658484402e-05,0.8523601235873459,0.07438979434815193,0.28764551554856155,-0.5327814627073868,-0.0674768886146648,0.2908417578293183,-0.5097679387985655,-0.13594895634626566,0.7108430154444078,0.8163360093477396,0.10556167009901063,0.6883452169819692,0.8449485931210279,0.0,0.0,0.0,0.0
0.028269022286552627,0.6014019614974982,0.8471750822614,0.000515954377083029,-0.5223473933223087,-0.0002866243580344877,0.8527325796091924,0.08442416686917556,0.2887391156934571,-0.5255999421675454,-0.06862994072432853,0.27973425276490516,-0.4989896000523696,-0.14209009054470317,0.7004750429914955,0.8271751836030514,0.13739116440592333,0.6959098368413512,0.840592933572271,0.0,0.0,0.0,0.0
0.027184118536729588,0.6017005912175257,0.8463546689885246,0.0006789134794440997,-0.5219390564935755,-0.0004429324845262815,0.8529823938358269,0.09138538812176993,0.2881523656974915,-0.5180953990029036,-0.06903051988846853,0.27328930772678783,-0.49343807376359977,-0.14412897508003764,0.6934079617341457,0.8341969942476002,0.16860707204111267,0.7034679532274613,0.8386562563561547,0.0,0.0,0.0,0.0
0.027157366724265858,0.6016731991027401,0.8463246402940678,0.000731730983442103,-0.5219221575994913,-0.00044520459301658456,0.8529926891652295,0.09145246202979611,0.28818996736411895,-0.5180914149351559,-0.06902138612649424,0.2731497443924572,-0.4934224032152058,-0.14415815951552094,0.6932700749184553,0.8341354875258031,0.16861786365488046,0.7035101796332099,0.8386707921101124,0.0,0.0,0.0,0.0
0.02715736672426581,0.6016731991027402,0.8463246402940678,0.0007317309834423448,-0.5219221575994913,-0.00044520459301682834,0.8529926891652295,0.09145246202979616,0.2881899673641191,-0.5180914149351561,-0.0690213861264942,0.2731497443924577,-0.49342240321520786,-0.14415815951552347,0.693270074918455,0.8341354875258032,0.1686178636548774,0.7035101796332088,0.8386707921101129,0.0,0.0,0.0,0.0
0.02715736672426581,0.6016731991027402,0.8463246402940678,0.0007317309834423448,-0.5219221575994913,-0.00044520459301682834,0.8529926891652295,0.09145246202979616,0.2881899673641191,-0.5180914149351561,-0.0690213861264942,0.2731497443924577,-0.49342240321520786,-0.14415815951552347,0.693270074918455,0.8341354875258032,0.1686178636548774,0.7035101796332088,0.8386707921101129,0.0,0.0,0.0,0.0
0.028372211061682716,0.6022855729848032,0.8470274388241539,0.000774975956638852,-0.5226172015121221,-0.00048105221569704273,0.8525669643404383,0.09028994871413405,0.29561125785193904,-0.5247076015370042,-0.07027157770391167,0.2773309266767271,-0.49390147119888056,-0.14888323946120274,0.7011030726108362,0.8308257232661947,0.16679754706494362,0.7113752577368111,0.8328674615747693,0.0,0.0,0.0,0.0
0.030483910898422027,0.603458145196142,0.8481505176286558,0.0007763244403898842,-0.5237508941124905,-0.00011776418905335589,0.8518711078375212,0.08726955787308147,0.30923935889509874,-0.5390226842120754,-0.07347868578965323,0.28465155161646766,-0.4948291175116206,-0.1552798271790983,0.7135160375091986,0.8257816480821529,0.16559246825716503,0.7251074224051628,0.823211453833011,0.0,0.0,0.0,0.0
0.03273968550734155,0.6046520143697901,0.8492805980041047,0.0011306835967262571,-0.5242726615220427,-0.0006043289572694622,0.85154948929684,0.08565519906917436,0.3249268088216744,-0.5580237343592397,-0.06512980230051064,0.28855646400063306,-0.5066404246259506,-0.1238405242278221,0.704392368043499,0.8335897573153411,0.156937823356858,0.7364246761974291,0.8107718764952797,0.0,0.0,0.0,0.0
0.035016639811571375,0.6060266119200454,0.8501098559528516,0.0016411788026924445,-0.5248083204356593,-0.0011392819809476955,0.851218089193485,0.08360132241211014,0.3410282754918232,-0.5784959179552213,-0.05280384750471752,0.28882988165141094,-0.517218571808085,-0.08757221647099461,0.6941143643990645,0.840834033930836,0.14605610935036462,0.7462131805934953,0.8006285024157708,0.0,0.0,0.0,0.0
0.037234380910468906,0.6077188906482706,0.8507329887301127,0.002025772277949866,-0.5252400176327651,-0.0014351596341530457,0.850950504107398,0.08054468337863321,0.35779392995470827,-0.6019793966717376,-0.03997345636644585,0.2875282552787019,-0.5263932346629496,-0.05748306206375031,0.6861800866509811,0.8480956099774063,0.13509842826125681,0.7550628043032231,0.7912956515448965,0.0,0.0,0.0,0.0
0.03920898449513849,0.6096841116070757,0.851217978027381,0.002286397688511078,-0.5256238906628761,-0.001557884984777618,0.8507125665842753,0.07666522732582554,0.3734635782382659,-0.6248033185868361,-0.028079640402687858,0.285627717449283,-0.5344993120633623,-0.03407776384844831,0.6804340766302329,0.855647811487016,0.12394114239074741,0.7629240603919936,0.7824215563954672,0.0,0.0,0.0,0.0
0.040757495085185946,0.6118328085850804,0.8516317757577446,0.0024690173548795064,-0.5260197432058799,-0.0015972159473981382,0.8504672730988176,0.07223910563193704,0.3864404270596101,-0.6435499256680438,-0.017548936001284765,0.28345369514889024,-0.5419377512432537,-0.015198430904334616,0.6756641044883491,0.8633352977231463,0.11230569743955106,0.7696659287795619,0.7737760797587323,0.0,0.0,0.0,0.0
0.04180252805930805,0.6141310285463263,0.851985818514498,0.002595439209519944,-0.5264094223801232,-0.0015922359422125448,0.8502257632590529,0.06739042673306331,0.3964058569645305,-0.6577361564378877,-0.008376732401663764,0.28093158249382866,-0.5489660296056047,0.0010440706645633777,0.6708776177589467,0.8709169430383092,0.1000378744250342,0.7750305705852802,0.7653235778395938,0.0,0.0,0.0,0.0
0.04233896036655719,0.6165816493853415,0.8522705331520961,0.0026767099367067102,-0.5267726649872788,-0.0015603523076796718,0.8500005646743953,0.0621499448989704,0.4035470991016333,-0.6678441233527247,-0.00034471388843873574,0.2779409279033079,-0.5557102921101836,0.015806372807138362,0.665579176277189,0.8782426750433212,0.08704073575759325,0.7788729368873442,0.7571314373455585,0.0,0.0,0.0,0.0
0.042403146857170976,0.6192085453284618,0.8524674800119565,0.002717747408101075,-0.5270961685039938,-0.001506939689794999,0.8497999600671952,0.05649199789217169,0.40825905080917735,-0.6746940077710538,0.006806624979090737,0.2744348867478071,-0.5621889958248759,0.029678833167903318,0.659630487828532,0.8852187659130163,0.07325233036755656,0.7811566309843192,0.7492969313617212,0.0,0.0,0.0,0.0
0.04205035412926415,0.6220447355498103,0.8525519087672194,0.0027203165761306037,-0.5273724901964021,-0.001432017424549621,0.8496286281593077,0.0503646339558495,0.4110014040808565,-0.679194090340859,0.013295133398499878,0.2705003866862703,-0.5683146870718213,0.04288535238695884,0.6531101902571622,0.8917253332851005,0.05862797192633158,0.7818943521267026,0.7419469027193154,0.0,0.0,0.0,0.0
0.0413400957144389,0.6251238269789141,0.8524925024580637,0.0026845608279365703,-0.5275978861415721,-0.0013339716667273185,0.8494889547202472,0.043711053113739975,0.41222224171365607,-0.6822273707365676,0.019275620672591576,0.2663941414820165,-0.5738642781948154,0.05540610884491516,0.6462403840761919,0.8975124638033642,0.043139548342055814,0.7810928397878829,0.7352643040090251,0.0,0.0,0.0,0.0
0.040327141484991134,0.6284733398487534,0.852251699514668,0.002609494490863923,-0.5277712084906119,-0.0012109662043748397,0.8493817019383647,0.03648462163947285,0.4123096170766291,-0.6845793651854721,0.02485172146555956,0.2625373674765862,-0.5784173115138258,0.06702732970136877,0.639389080771887,0.9020562905702348,0.02679120437003959,0.7787215601563221,0.7295094264619164,0.0,0.0,0.0,0.0
0.039055820781172416,0.6321087693346513,0.8517900197847786,0.0024934388095610885,-0.5278945821793415,-0.0010613590617875501,0.8493055789205339,0.028660742996053264,0.4115480274081734,-0.6868477020089121,0.030098059828929803,0.259411727348915,-0.5812694023021658,0.07737832757644729,0.6331483378391654,0.90434435578971,0.009639771074168815,0.7747183121334179,0.7249996386607164,0.0,0.0,0.0,0.0
0.037555865629235706,0.6360288323039213,0.851080207344563,0.002336597376113635,-0.52797664868732,-0.0008860679317497258,0.8492552111333957,0.020248203926753597,0.4100642163662962,-0.6892760280492765,0.035074810750104414,0.2572744861718663,-0.5813693900789245,0.08607598394632307,0.6284416874955246,0.9026626317678058,-0.008213840028985397,0.7690562256533557,0.7219805970336072,0.0,0.0,0.0,0.0
0.03583849405874702,0.6402173959595459,0.850121632096981,0.0021436475956083745,-0.5280244798242912,-0.0006891207941455371,0.8492261645720789,0.011285103489752434,0.4078103284207026,-0.6917100524455128,0.03984616655775039,0.256182634145319,-0.5787936835224855,0.09312518638313963,0.6253709699856699,0.8970328636169421,-0.02665421219551961,0.7617985262025732,0.7204337634503314,0.0,0.0,0.0,0.0
0.03389992850830668,0.6446427525753556,0.8489401372941154,0.001923791171393875,-0.528042080176305,-0.0004772791197192435,0.8492158929243206,0.0018427376168273345,0.404595408386007,-0.6936583195930928,0.04450155811728598,0.25600016098353773,-0.5747546259210038,0.09895591484193907,0.6232120444305456,0.8891732907266778,-0.04553376427115513,0.7531101650703157,0.7200728856893012,0.0,0.0,0.0,0.0
0.031730997070867815,0.6492510703252009,0.8475757922828295,0.0016887430839044957,-0.5280375589901812,-0.00025949930916363073,0.8492192985928876,-0.007956502685709606,0.4001438107395457,-0.6943993060917151,0.04917553296740092,0.2563999806676803,-0.5701394524325529,0.1040903510118099,0.6215618278607782,0.8800511897319182,-0.064622847588989,0.7432251378715636,0.7205326706113425,0.0,0.0,0.0,0.0
0.029326103443366055,0.6539644132511202,0.8460725658857818,0.0014515976036518453,-0.5280216324314989,-4.559171795080326e-05,0.8492296782791846,-0.017934811282304293,0.3941709942718802,-0.6931554460279132,0.05405619800826069,0.25718713939557886,-0.5655956681169783,0.10908702955340342,0.6202356460803248,0.8700952347511068,-0.08360167148638732,0.7323972312942489,0.7215059164877112,0.0,0.0,0.0,0.0
0.026693033457731663,0.6586795683012759,0.8444759009867818,0.0012289707318241133,-0.5280094480852116,0.00015127533263015812,0.8492375930677258,-0.027854358562052275,0.38644407049854224,-0.6891869751058957,0.059354877325509384,0.2584459179842786,-0.561662367543029,0.1146548429352307,0.6191748316620937,0.8593947893379111,-0.10210147352514665,0.7208910602432007,0.7227992932698085,0.0,0.0,0.0,0.0
0.023863884378372422,0.6632663982212511,0.8428257326068819,0.0010453642621359772,-0.5280213959494221,0.00030740196704162896,0.8492303681199899,-0.03740634428992451,0.37685181948297236,-0.6819185773790165,0.0652380503029445,0.2605692922343545,-0.5589204510266033,0.12183332408553749,0.6183854760528952,0.8478006409638781,-0.1197782462519769,0.7089353226570713,0.7244311932444318,0.0,0.0,0.0,0.0
0.020902815069536278,0.6675658610465203,0.8411298621998317,0.0009371938871921738,-0.5280539490256526,0.0003446072555538759,0.8492102388877979,-0.046126179383500665,0.3655447284244549,-0.6713788551865252,0.07182592693006763,0.2641595623845567,-0.5583697561862455,0.13195833589400358,0.6178315794164178,0.8349882339453476,-0.13651121983305634,0.6964535568926362,0.7267939466784668,0.0,0.0,0.0,0.0
0.01788242576737183,0.6714187257270056,0.8394585339334725,0.0009377920195528703,-0.5282058191411224,0.00027600589751247207,0.8491158089402931,-0.053736748141836245,0.3524628827451026,-0.656595807969695,0.07965687246623529,0.27014614104516516,-0.5613497025939279,0.14765128246864473,0.6174543421571744,0.8204772024630157,-0.15188668449735285,0.6840048774313975,0.7301190414362868,0.0,0.0,0.0,0.0
