zhuoxili-jackie/tripod-support-walk/examples/pcbA样数据/trajectory_trotting_stand_01.csv
root_pos_x,root_pos_y,root_pos_z,root_rot_x,root_rot_y,root_rot_z,root_rot_w,FL_hip_joint,FL_thigh_joint,FL_calf_joint,FR_hip_joint,FR_thigh_joint,FR_calf_joint,RL_hip_joint,RL_thigh_joint,RL_calf_joint,RR_hip_joint,RR_thigh_joint,RR_calf_joint,FL_foot_joint,FR_foot_joint,RL_foot_joint,RR_foot_joint
0.01,0.0,0.8259446621,0.0,-0.523845373591082,0.0,0.8518133742594206,0.0,0.27,-0.52,0.0,0.27,-0.52,0.0,0.6572093368,0.8119390607,0.0,0.6572093368,0.8119390607,0.0,0.0,0.0,0.0
0.011578827063515556,-0.0006445300560838754,0.8269107362312815,0.00010671426856616966,-0.5246356990774096,-1.4831306090705273e-05,0.8513268300985556,0.001225947476204901,0.27671521553050815,-0.5231562284342989,0.001225947476204901,0.27959895754943226,-0.5290052822586078,0.002268467755828774,0.6671584773137111,0.8037672415778719,0.0022684677558287795,0.6665058810955463,0.8073371986103273,0.0,0.0,0.0,0.0
0.014542674987691732,-0.002013343023071392,0.8291608220062582,0.00029729109365283346,-0.5262445664152556,-0.0003152178381802124,0.8503331515201202,0.004429057721203332,0.28772991474660137,-0.5235021175453534,0.004432281306521791,0.29651205614149256,-0.5419261747908541,0.006174589080426892,0.6889180728007153,0.783849414313529,0.006190002070633445,0.686224393037625,0.794651082574117,0.0,0.0,0.0,0.0
0.01735272884618684,-0.003482512371051197,0.830423796638994,0.0005975007547502158,-0.526294865860137,-0.00034684619600190215,0.8503018504389044,0.007169502576930609,0.30360985932082935,-0.5444898249593794,0.005931525332214534,0.2925462522141427,-0.5384154258335309,0.009147639623147592,0.6797359586247228,0.8044594167331832,0.011400552143095242,0.6980867986360549,0.7862040781893518,0.0,0.0,0.0,0.0
0.020573699940319837,-0.004963192575180259,0.8314170289880575,0.0008812097751126195,-0.5263269197220357,-0.00045456258225369083,0.8502817123860213,0.010144941093787734,0.32239859114484354,-0.571258389274128,0.0076295574161812235,0.2878986401897648,-0.5388904934205004,0.012321891983017644,0.6729776041212313,0.8206191261733785,0.01655107375386781,0.709384845612656,0.780204474404297,0.0,0.0,0.0,0.0
0.024088146042821796,-0.006312416667582696,0.8321743471124743,0.001107115643186433,-0.5262692271882728,-0.0005669041851527534,0.8503170899313123,0.012967368167187791,0.3433085330535898,-0.6027848682475485,0.008929348691586092,0.2840741881579284,-0.5417714087315606,0.015318814324928308,0.6692400844037031,0.8339748156061788,0.021537007824736172,0.7201226482756469,0.7756786162805395,0.0,0.0,0.0,0.0
0.027374012520865493,-0.0076250133202607215,0.832952863470871,0.0013491747556190132,-0.5263835897793603,-0.0006990595806452429,0.8502458511831595,0.0157638918667191,0.36113355465288144,-0.6277001297041079,0.0104183269649105,0.2814571536622237,-0.5459459985820961,0.0186102326283808,0.6671762491019168,0.8458155029553736,0.026324067226816485,0.7309790479887933,0.771084104184127,0.0,0.0,0.0,0.0
0.030242150715135422,-0.00889654930947879,0.8337821140378,0.0015946873772500173,-0.5265973998801641,-0.0008417962381506443,0.8501128906155422,0.018501867788847624,0.37543203649905027,-0.645798465159726,0.011989017514548126,0.2795449229454662,-0.5509368497209215,0.022218114752862242,0.6655851732475588,0.8566130696426322,0.03095455582060755,0.7415573429882143,0.7659069590421199,0.0,0.0,0.0,0.0
0.032615429041355004,-0.010100190388286051,0.834622293547428,0.0018263384512338958,-0.5268398323593702,-0.0009818006826516372,0.8499620530322702,0.0211048415598023,0.38638596002578407,-0.6581222894676652,0.013492689691367547,0.2778219231003106,-0.5564553852844939,0.026026624558497413,0.6638680351247881,0.8666133968639728,0.03539899114427339,0.7513177068764151,0.7603593234169389,0.0,0.0,0.0,0.0
0.034486620987891806,-0.011195711122430244,0.8354288773731876,0.0020325707208291386,-0.5270696945108333,-0.0011095076255968836,0.8498189070486432,0.023474738058207486,0.3943760848710041,-0.6658286339804782,0.014811055692553124,0.27594500066289873,-0.5622785279477243,0.02985919235566915,0.6618250109544422,0.8759852766164526,0.03951532073733859,0.7598930225814251,0.754776169562133,0.0,0.0,0.0,0.0
0.035887413418232685,-0.012139252828440845,0.836166315645192,0.0022064120014112457,-0.5272669735443686,-0.001218242047209355,0.8496959375222154,0.025510456328373184,0.3998605754211001,-0.6700013416752275,0.015864328784448312,0.27376144719766404,-0.5682027678649685,0.03354507185274406,0.6594501821839301,0.8848304262762957,0.043109764960973476,0.7670943024129752,0.7494407620116057,0.0,0.0,0.0,0.0
0.03686723754887616,-0.012890415213343673,0.8368057177139488,0.002343750413332995,-0.5274236853774198,-0.0013033384147097939,0.84959817810885,0.02712205271990468,0.4033105823088514,-0.6716207256577014,0.016607937961776044,0.2713085284002617,-0.5739977100389622,0.03692011858027497,0.6568359775583306,0.8931405607598484,0.04598987764325426,0.7728400108230337,0.7445895340259759,0.0,0.0,0.0,0.0
0.03747953902503217,-0.013416502534140944,0.8373194476086414,0.002441963744031885,-0.5275378155817446,-0.0013614753403366616,0.8495269485597332,0.02823915862817125,0.4051685853276903,-0.6715611951271997,0.017029024585058165,0.26881674577716885,-0.5793426868936131,0.03979083366569146,0.6541528886078469,0.9007205726119479,0.04800045698799534,0.7770848183631598,0.7404646266561614,0.0,0.0,0.0,0.0
0.03777302644884318,-0.013694995190804467,0.8376772227353174,0.0024988725432735816,-0.5276100397972923,-0.0013900414855495126,0.8494818828708358,0.028815228738324906,0.40581747110498256,-0.6705817950730013,0.01714350821620657,0.26668795999085554,-0.5837434467529413,0.04188921877541012,0.6516844320205883,0.9070600540740812,0.04904657382269102,0.7797705233068346,0.7373588739846161,0.0,0.0,0.0,0.0
0.03778591474873173,-0.013715290819451222,0.8378471714227591,0.0025124140116433357,-0.5276430591105167,-0.0013868563686301957,0.8494613390718513,0.02882985594898299,0.40554805853804893,-0.669276831063484,0.0169886751541849,0.2653822944959759,-0.5864324566954784,0.042859202624789566,0.6499202100863747,0.9111251976808677,0.049104270930575816,0.7808151025470467,0.7356119023890686,0.0,0.0,0.0,0.0
0.037541942753412084,-0.013479587545524786,0.8378077902243882,0.0024824351974687977,-0.5276443192406184,-0.0013521705020685985,0.8494607003996877,0.028291083279307926,0.40451118140219305,-0.6679337332361169,0.01660295907384796,0.26512915337564175,-0.5863012076178801,0.04236236082230792,0.649676114477777,0.9111515697751317,0.048199724052270396,0.7801692790940299,0.7354894338433372,0.0,0.0,0.0,0.0
0.03704654306757353,-0.012999255450026226,0.837562159368674,0.002411367143027513,-0.5276189536079531,-0.0012880717928646266,0.8494767601136635,0.02722497881362052,0.4026943644377627,-0.6664770857193025,0.01601374426892993,0.26595970699686794,-0.5833844258354077,0.040422177619405905,0.6509583483413506,0.9071364170753625,0.04638000821557876,0.777872494200998,0.7369911507135574,0.0,0.0,0.0,0.0
0.0362897968035942,-0.012294211213652097,0.8371380126395569,0.0023039050344342716,-0.5275687737667457,-0.0011984316463548444,0.8495083547143215,0.02567492895317223,0.39994164571999224,-0.6645056852119183,0.015234919149752621,0.26771653297371195,-0.5788743082833057,0.03742138881809604,0.6529691367330699,0.9008360217088308,0.0437106574159543,0.7740590933941528,0.7398428412169362,0.0,0.0,0.0,0.0
0.03525520861660185,-0.011395698667408673,0.8365738671740398,0.0021657118592507112,-0.5274985033232314,-0.001089285428701633,0.8495525011093478,0.023710938472845083,0.3960078087547315,-0.661401879915155,0.014273028442570381,0.2700394797342404,-0.5736497588470355,0.033760558294216335,0.6552468848171342,0.8932845297313192,0.0403026319220856,0.768913837310602,0.7436804119190743,0.0,0.0,0.0,0.0
0.033927775020916026,-0.010345176430025088,0.835907469123443,0.0020016249458129818,-0.5274141995531301,-0.0009668447640610782,0.8496053912367256,0.02142671183334041,0.3906288077245921,-0.6565033830173364,0.013143789696070019,0.27267712875178096,-0.5683572178533015,0.029756551845229722,0.6575574973624138,0.8850124291299203,0.03632909880831102,0.762625218113973,0.7481756157447551,0.0,0.0,0.0,0.0
0.03230352293291239,-0.009192833033827914,0.8351746974557048,0.0018161275991193527,-0.5273255785902244,-0.0008378787259177693,0.8496609522652371,0.018937285700868056,0.3835768948823489,-0.6491836595838487,0.011878208748126371,0.2756279655429665,-0.563539013672944,0.02565861045287807,0.6598196090146448,0.8762688518806926,0.0320115719040362,0.7554028663703403,0.7530543751502287,0.0,0.0,0.0,0.0
0.030401866840168393,-0.007995988104391468,0.8344117872244101,0.0016142544304121517,-0.5272508226417466,-0.000710385760474131,0.8497078671863093,0.016375879680450487,0.37472279087381116,-0.6389181137826729,0.010525814098257568,0.27919378852929333,-0.5597707589022607,0.02169124850441469,0.6620960656890469,0.8671711695021816,0.02759917556134069,0.7475229732183527,0.7580862048008256,0.0,0.0,0.0,0.0
0.028282396813147696,-0.006817345497801429,0.8336543730220236,0.001402288712855285,-0.5272246539168092,-0.0005941628918358659,0.8497245699984934,0.013890023727428537,0.36412615399614784,-0.6253955689439332,0.009163812943047201,0.28400889760123604,-0.55782875653506,0.018082523758904765,0.6646508203394467,0.8578123273594963,0.023347969004809496,0.7393707474414499,0.7631215245113967,0.0,0.0,0.0,0.0
0.02606779285673138,-0.005725291255179674,0.8329212501945082,0.0011859919264248311,-0.5273167432795562,-0.0005018832167891727,0.8496678137916193,0.011645286191881576,0.3521710965817552,-0.6087176191584532,0.007932366100164073,0.2910976907117232,-0.5589717458250852,0.015086443097288226,0.6680789497910351,0.8484018517482568,0.01952330722383749,0.7314333970209934,0.7683347434229849,0.0,0.0,0.0,0.0
0.02418415262943352,-0.004691728902681554,0.8321279315467227,0.000961583212431937,-0.5274933928452209,-0.0004349586145875917,0.8495584774889641,0.00960314958955528,0.3419064903835966,-0.5944685169933628,0.006582714395752515,0.3013907020233171,-0.5644539205076402,0.01232065922189046,0.6738859142550373,0.8390981093161576,0.016010510794281924,0.7241151328710785,0.7743996944114647,0.0,0.0,0.0,0.0
0.022886191068164762,-0.0038258193871631243,0.8313932309390851,0.0007399940091015073,-0.5279567388992742,-0.0004064272480957908,0.8492708455355111,0.007995830773734725,0.3343505179606893,-0.5828267842858764,0.005654492949557464,0.31635670678450645,-0.5777172488440239,0.010412911786157861,0.682746685270915,0.8300624051499923,0.013214366045180748,0.7189258352649748,0.7810766610723772,0.0,0.0,0.0,0.0
0.022381237185161402,-0.0032975350980479928,0.8308803747846535,0.0005045541692012853,-0.5287837052056085,-0.0004114222715980451,0.8487563662593836,0.0071731971321977415,0.33035075215686494,-0.5741849908262084,0.005977366496336476,0.3364971667415091,-0.6035174112733996,0.010444560577355131,0.6939950773174947,0.8209688141859226,0.01202204847223239,0.7172673895146412,0.7874802691712736,0.0,0.0,0.0,0.0
0.022308486988613777,-0.003092722678336631,0.8308303282858782,0.0003295610370349958,-0.5288241183377894,-0.0004149761672662534,0.8487312713978218,0.006954786307924997,0.3302362628851823,-0.5742056942375927,0.005979387150133958,0.33653793251446107,-0.6035189341362357,0.010455175401946473,0.6940294459376152,0.8209788483540972,0.011971656766098907,0.7171843069235576,0.787450426971764,0.0,0.0,0.0,0.0
0.022308486988613777,-0.003092722678336631,0.8308303282858782,0.0003295610370349958,-0.5288241183377894,-0.0004149761672662534,0.8487312713978218,0.006954786307924997,0.3302362628851823,-0.5742056942375927,0.005979387150133958,0.33653793251446107,-0.6035189341362357,0.010455175401946473,0.6940294459376152,0.8209788483540972,0.011971656766098907,0.7171843069235576,0.787450426971764,0.0,0.0,0.0,0.0
0.02305006396230867,-0.0021542070269816426,0.8312940678051686,0.0002536323218807431,-0.5284911204266576,-0.00033436586140948,0.8489387254097271,0.004971473344509181,0.3375557520584196,-0.5871245671847343,0.003972232981050216,0.34017921854085753,-0.6089890699500358,0.006712070781768702,0.6968535481603861,0.8179412449607627,0.00823119672085439,0.7209109936696757,0.7790452591573329,0.0,0.0,0.0,0.0
0.024918834144304156,-0.00033508956296675156,0.8331488247128709,7.720222346090353e-05,-0.5290284420764638,1.789741712360156e-05,0.8486040897813589,0.00071212248119962,0.35001884705730335,-0.5995268501381258,-0.0003127349063349067,0.3458860345407752,-0.6070843634174868,0.0006330429553113442,0.7102857813862039,0.806084088666699,0.00219913296658812,0.7369856645745781,0.7566674598032923,0.0,0.0,0.0,0.0
0.026281640614122463,0.0015004743898605064,0.834124450370579,-0.00039018143463183397,-0.5281642631281579,0.00014849329008325974,0.8491421181772112,-0.0011801852168441748,0.3302955165248692,-0.5722292239698462,-0.00385759749331748,0.35228129491444393,-0.6169837671154447,-0.005224268852563455,0.7154418483674453,0.7983730697626922,-0.0015237362739795842,0.7154312370782248,0.787953501347415,0.0,0.0,0.0,0.0
0.028184876633457017,0.003349648247425433,0.8349856074860074,-0.0007863785444370101,-0.5275694905737949,0.0003317486616835194,0.8495114502861729,-0.003738315744886867,0.3149875761344035,-0.5576844156552637,-0.007640338791901314,0.36168908164300456,-0.6308796047252445,-0.011241463955336005,0.721781583739884,0.7924711648744333,-0.005596777400532338,0.7001140453507155,0.8097219481708902,0.0,0.0,0.0,0.0
0.0302525601370335,0.005135257927408303,0.8358066491029369,-0.0011084340694742997,-0.5272453892933416,0.0005032446009964554,0.8497121969159309,-0.006401583640225515,0.30419738442400285,-0.5516821226126971,-0.011373834710040394,0.37148384627615927,-0.6441582497195146,-0.017497931752803453,0.7290183547719061,0.7874960941562328,-0.009786029083921047,0.6899988772078715,0.8256687130247364,0.0,0.0,0.0,0.0
0.03226175860143907,0.006798078984768712,0.8366516752265812,-0.0013888965647885164,-0.5271430445060982,0.0006677259519418138,0.8497751677574646,-0.008835257879966127,0.2967968640792898,-0.5506374581397476,-0.0149000486415541,0.38037681526335143,-0.6546995678485994,-0.02354362330246752,0.736886884230631,0.7824854223530994,-0.013978449078033727,0.6832517694739344,0.8384647031989788,0.0,0.0,0.0,0.0
0.03407098644749147,0.008298336287178435,0.8375000224176694,-0.0016328185889089566,-0.5271602620190708,0.0008197791190536275,0.8497639201646751,-0.010881581761495307,0.2915733011087763,-0.5524906276642428,-0.018108560751588926,0.38788978750714215,-0.6623952969917546,-0.029159742304780596,0.7447584485525137,0.7772498971695547,-0.01816271893925004,0.6783891309392569,0.8494484929046647,0.0,0.0,0.0,0.0
0.03560032534812015,0.009605142543235962,0.8383171262648507,-0.0018412023342575044,-0.5272309906818977,0.0009545543888243329,0.8497194720991557,-0.012502752160600603,0.287573828439089,-0.5560367165541875,-0.02091556665022513,0.39383897340176344,-0.667482804782641,-0.03415860401969813,0.7521196362604883,0.77191172213348,-0.02225785820207919,0.674486509970682,0.8593339428415918,0.0,0.0,0.0,0.0
0.03681336360980371,0.01069114490974557,0.8390736748273224,-0.002013188048951223,-0.5273173004561714,0.0010676715657300527,0.8496653881328362,-0.013702679733902814,0.28412776383629995,-0.5605474844513804,-0.02325041601078688,0.39821798791483926,-0.6703139358129846,-0.038371769811205825,0.7586315164463417,0.7666487133752444,-0.026143400445884646,0.6710017037155411,0.868520022714204,0.0,0.0,0.0,0.0
0.03770101246499037,0.01153207941917199,0.8397464476315888,-0.0021473411151141314,-0.5273985512525793,0.0011554287282049185,0.8496145137927376,-0.014493420519158218,0.2808301519047502,-0.5655382608770888,-0.025053488784175296,0.40112244892496984,-0.671282237256725,-0.04165361861461295,0.7640855395219033,0.7616338865197385,-0.029690656987259048,0.6676449796077615,0.8772061804022171,0.0,0.0,0.0,0.0
0.038268712828747414,0.01210790268059081,0.8403139465474712,-0.002242254809880845,-0.5274636491742725,0.0012150203797895122,0.8495737724403951,-0.014889261747309514,0.2775310278999644,-0.5706159093585196,-0.0262780196455255,0.4026941198146738,-0.6707885438365139,-0.04388903422183958,0.7683397182464294,0.7570525277259059,-0.03276472184074098,0.6643019295308861,0.8854158867780483,0.0,0.0,0.0,0.0
0.038526948788454134,0.012404268724879564,0.8407517084230249,-0.002296645893127673,-0.5275062802612012,0.0012444879690729404,0.8495471152045232,-0.01491317772869487,0.27432728673688705,-0.5753594683233355,-0.02689254619149604,0.40307890492118387,-0.6692164178725922,-0.045002824544006406,0.7712630438410271,0.7531401631461607,-0.03519853835924409,0.6610016244165713,0.8929556887978779,0.0,0.0,0.0,0.0
0.038484417749605995,0.012414158350011415,0.841029508335975,-0.002309112925642724,-0.527522440486367,0.001242393158278324,0.849537049951351,-0.014604339206935872,0.27152681319445077,-0.5792083376993908,-0.026883333796058086,0.4023929681090132,-0.6669021074465512,-0.04497085600746687,0.7726993841976837,0.7502112584781034,-0.036753973496724865,0.6579320972904743,0.8993049863384007,0.0,0.0,0.0,0.0
0.03814312488292968,0.012139692395598835,0.8411133510656809,-0.0022780768814274176,-0.5275098757728742,0.0012076358082255677,0.8495449858268623,-0.014016465146469537,0.26952156220614454,-0.5813497039221913,-0.026257053519142395,0.400688725721316,-0.664074618331494,-0.04382845205896148,0.7724650389121737,0.74864211783574,-0.0371095596561258,0.6555151376218653,0.9034173340290208,0.0,0.0,0.0,0.0
0.03749485123977742,0.011593379489998914,0.8409781964580294,-0.0022033241043661876,-0.5274699151176203,0.0011413946120305907,0.8495700861182914,-0.013197756351723513,0.26848701057854935,-0.5806480358086897,-0.025044474761486413,0.3979087295826106,-0.6607164259194845,-0.041653155798742625,0.7704094383806345,0.7487388140343129,-0.03596431974345423,0.6545114342860721,0.9035160498982582,0.0,0.0,0.0,0.0
0.036517375980677245,0.010795199232808654,0.8406230169817682,-0.00208654074430217,-0.5273998828389858,0.0010466309887207338,0.8496139796947316,-0.012176719786345137,0.2684071132149809,-0.5771272214734318,-0.0232923246956547,0.3938609473785689,-0.6565031582115334,-0.038540956216253565,0.766474751261392,0.7505364516574509,-0.03337766019200907,0.6548820050671993,0.8995726693301841,0.0,0.0,0.0,0.0
0.03517741127761211,0.009773080257800697,0.8400710892114756,-0.0019311111450071895,-0.5272919050365925,0.0009279457931491609,0.8496815030405402,-0.010960933147911016,0.2690711176749081,-0.5719748213118842,-0.02106484619890975,0.3882342377263686,-0.6508316966731912,-0.034611272781317655,0.7607047676253683,0.753788768668798,-0.029764760921662463,0.6557835732297003,0.89330585623717,0.0,0.0,0.0,0.0
0.033440028585029924,0.008566943194647453,0.8393560868094962,-0.001741239264493489,-0.5271394961088648,0.0007918073232628495,0.8497766134514874,-0.009550425076008081,0.2700447515303089,-0.5660565734927715,-0.01845490623171096,0.38064853023529804,-0.6429183519263059,-0.03003868767664931,0.7532049952553753,0.7581520390222087,-0.025560840264540127,0.6566919190934334,0.8857183177795487,0.0,0.0,0.0,0.0
0.03127867239795244,0.007228278423032048,0.8385105269403836,-0.0015207190271907863,-0.5269365529414621,0.0006444430666236535,0.8499030187503418,-0.007963201307035012,0.2709717268397498,-0.5599741082795684,-0.01558120997156439,0.3707285192231771,-0.6319702756838856,-0.025068101705498558,0.7441023682657874,0.7633112385038053,-0.02112408023535237,0.6572904393831163,0.8773207060006376,0.0,0.0,0.0,0.0
0.028689210726472035,0.005817855502998597,0.8375634166924272,-0.0012737917149389457,-0.5266794920648967,0.0004918287552094146,0.8500628495572576,-0.0062482898099694775,0.27170746000231133,-0.5541521932739399,-0.012582433742727831,0.3581857692946139,-0.6173156240808251,-0.019991789012407807,0.7335646374713329,0.7690091049425682,-0.01674765654114608,0.6574065584349282,0.8683623404219608,0.0,0.0,0.0,0.0
0.025710918873892957,0.004401250770402499,0.8365372294888614,-0.0010066587945460486,-0.5263716623953603,0.0003398180633969728,0.8502539292404946,-0.004488241388083352,0.2723625446945512,-0.5488933826315506,-0.009605596502824125,0.342951793282809,-0.5986138749357757,-0.015107885474548976,0.721832655608288,0.7750860943581038,-0.012676395251839091,0.6570499279865084,0.8589955428341891,0.0,0.0,0.0,0.0
0.02245783827830366,0.0030412012669742165,0.8354308929961554,-0.0007296503175710576,-0.5260251864205279,0.0001941971681670259,0.8504686550068279,-0.0027790353344682986,0.27326901036596923,-0.5443569443987637,-0.006786604909045695,0.32544088192023773,-0.5763649560469295,-0.010659684523036004,0.7091892171876886,0.7816587203929783,-0.009050919567555297,0.6565723024972077,0.8493777271780589,0.0,0.0,0.0,0.0
0.019160680998142762,0.0017809797489827897,0.8341619240345228,-0.0004443753859315751,-0.5255664511948586,5.993403887266231e-05,0.8507524342115452,-0.0011016987057570593,0.274569192936184,-0.5404733922344456,-0.0042276798491795615,0.3073348328386544,-0.554019481315306,-0.006813531181123955,0.6955481627513932,0.7893853743167923,-0.005692639263360784,0.6565835249581485,0.839672760410987,0.0,0.0,0.0,0.0
0.01624377085548464,0.000623169708730826,0.8327681630865641,-0.00019071693829759626,-0.5250246686309344,-5.021630097860624e-05,0.851086986408763,0.0005706015453076007,0.2763378921878458,-0.5366409297735749,-0.0019136954369146425,0.2916273355607576,-0.5363376920367902,-0.0032927396689225413,0.6820057317300932,0.7979718293699244,-0.0022764501115577524,0.6580810881556091,0.8300920588456774,0.0,0.0,0.0,0.0
0.013918362965199335,-0.0003104862461057509,0.8314509367557129,-3.1655339000571e-06,-0.5244819133093072,-0.00010790800474025144,0.8514215823886839,0.0018162506248372893,0.2782163658968056,-0.5333439421007057,-0.0001040517099364013,0.27943068859318926,-0.5240088302861245,-0.000314890384035807,0.6700441907367465,0.8061022723847229,0.0008274240854273572,0.6606574635670425,0.8207893804309371,0.0,0.0,0.0,0.0
0.012482962419634666,-0.0009068775224436165,0.8305132839375083,6.48093765033027e-05,-0.5240293999196415,-8.931255072058631e-05,0.8517001678072357,0.00243891254043438,0.2791229297975381,-0.530906189317544,0.0009865241744892437,0.2722821939920384,-0.5179839941682636,0.002037982666648384,0.6617985484882167,0.8116117978705123,0.003372944288486649,0.663573119707465,0.8122539462678854,0.0,0.0,0.0,0.0
0.01241741497878099,-0.0010693997570022297,0.8304508690592501,0.00019941628311708853,-0.5240384079919875,-7.949943781733675e-05,0.8516946053969161,0.002452581840374019,0.27916220800170005,-0.5309079914642437,0.0011467885643184675,0.2720962120161229,-0.5179791271644292,0.0020621776516279865,0.6616372396981928,0.811535771221457,0.0033626235266797765,0.6636237067401547,0.8122693784122468,0.0,0.0,0.0,0.0
0.01241741497877956,-0.0010693997570025444,0.830450869059252,0.0001994162831146439,-0.5240384079919856,-7.949943781460444e-05,0.8516946053969172,0.0024525818403703594,0.27916220800169633,-0.5309079914642456,0.0011467885643138705,0.27209621201615125,-0.517979127164485,0.0020621776516277297,0.6616372396981884,0.8115357712214567,0.0033626235266629597,0.6636237067401412,0.812269378412251,0.0,0.0,0.0,0.0
0.01241741497877956,-0.0010693997570025444,0.830450869059252,0.0001994162831146439,-0.5240384079919856,-7.949943781460444e-05,0.8516946053969172,0.0024525818403703594,0.27916220800169633,-0.5309079914642456,0.0011467885643138705,0.27209621201615125,-0.517979127164485,0.0020621776516277297,0.6616372396981884,0.8115357712214567,0.0033626235266629597,0.6636237067401412,0.812269378412251,0.0,0.0,0.0,0.0
0.013889493632466053,-0.0018240511373534432,0.8313428851669956,0.0003088370933836359,-0.5247698443085497,-0.00011639583580181369,0.851244090479364,0.003948116658610943,0.2850526497365799,-0.5331339166948015,0.0026273217144075992,0.2812065420916942,-0.52676519601738,0.0047055023239557375,0.6710208725663459,0.8033944677072115,0.006076058948627551,0.6722180174925518,0.8083298403991827,0.0,0.0,0.0,0.0
0.01670630579299116,-0.0032372301569492503,0.8334433250339692,0.0005034494137125051,-0.5263387916007053,-0.00042113033574586007,0.8502746883473818,0.007248442620839051,0.29511158481283595,-0.5325624895147115,0.005919003598635631,0.29732150643584015,-0.5390948874098468,0.008817276782872332,0.691732148514505,0.7844630812459271,0.01027512095209441,0.6908894390692064,0.7968735682379677,0.0,0.0,0.0,0.0
0.019389893115271662,-0.004692946961919787,0.834686083374311,0.0007877649177395,-0.5263476711060231,-0.00045619971771575484,0.8502689577007487,0.009997570397856436,0.3099861214980916,-0.5520542856797712,0.007424004757290622,0.29332988784881986,-0.5359147920638068,0.011495327098195087,0.6821063959639662,0.8052328092811463,0.015589711911304089,0.7023846314867085,0.7883273132878422,0.0,0.0,0.0,0.0
0.022485212014536494,-0.006127324018430101,0.835688713409714,0.0010563941635613327,-0.5263561851978162,-0.0005580940910243218,0.8502633350123707,0.012895748537587666,0.32778191697288456,-0.5771767828464237,0.009091058073731147,0.2886518899855023,-0.5365560674412294,0.014383426483357782,0.6750057453193162,0.8214827676443681,0.020724026543537798,0.7135384143889687,0.7818881684526106,0.0,0.0,0.0,0.0
0.02587259678514524,-0.0074137189550653616,0.8364541801276347,0.0012679134123805282,-0.5262812554122552,-0.0006640900390660812,0.8503093505199736,0.0156051930465054,0.347785710995301,-0.6072085312966611,0.01033288638744043,0.28473933310672583,-0.5395417841773207,0.01716689098157264,0.6709479721414046,0.8348725052193708,0.025603709804440673,0.7241379217866161,0.7769112547964622,0.0,0.0,0.0,0.0
0.029038017344601316,-0.008655744438410403,0.8372329789229779,0.0014975456550991952,-0.5263824119936946,-0.0007913983600671873,0.8502462510292809,0.01826916795798986,0.3648830454252631,-0.6309822550209228,0.011739531702521105,0.2819945798415389,-0.5437702740185187,0.020291780023912742,0.6686003653323449,0.8467150749770976,0.03021654102174368,0.734820434195062,0.7719600983949066,0.0,0.0,0.0,0.0
0.031798809570849955,-0.009852943889907588,0.8380535789757346,0.00173148925631069,-0.5265834120116862,-0.0009296220665322384,0.8501211960314244,0.020862424981967036,0.37861926671612756,-0.6482754091592754,0.01320673473941662,0.2799402303478809,-0.5487711025688529,0.02374863879985792,0.6667773669061013,0.8575042395733792,0.0346302113714119,0.7451864431865927,0.7665398707869513,0.0,0.0,0.0,0.0
0.034080265333420054,-0.010982379201775921,0.8388799674270391,0.00195252081705495,-0.5268146336541949,-0.0010651626917500213,0.8499772907899925,0.02331686090587401,0.3891415024806939,-0.6600364693151841,0.014597744162990225,0.2780845698939115,-0.5542653574105072,0.027409825815105177,0.6648844221050179,0.8675009457737712,0.0388342564551871,0.7547242470637814,0.7608372887302569,0.0,0.0,0.0,0.0
0.03587538058828988,-0.012007351406496563,0.8396712359178333,0.0021492089375791355,-0.5270355144677569,-0.0011884509178576304,0.8498397113427127,0.02554252993206751,0.39680390718621533,-0.667351921974392,0.015805021821389452,0.2760948516626628,-0.560042167066774,0.031099710741920066,0.6627126233912208,0.876879117341693,0.04270507597097717,0.7630902749870953,0.7551562492294351,0.0,0.0,0.0,0.0
0.0372150097102655,-0.012886902792620416,0.8403942249581094,0.0023146839993380816,-0.5272260774611773,-0.0012929391159204576,0.8497209152370714,0.027445330444234164,0.40204441519924966,-0.6712570301913515,0.016756338609228462,0.2738202637033537,-0.5659093024723332,0.034652790295589146,0.6602442185272822,0.8857397194565748,0.0460652417069345,0.7701095208398948,0.7497569927015546,0.0,0.0,0.0,0.0
0.03814734588975989,-0.013582775833855686,0.8410213768232421,0.0024449351985351272,-0.5273781230155047,-0.001374147556273661,0.8496260644395343,0.028940688243064432,0.4053183466912849,-0.6726983055250227,0.017411739091491275,0.2712964274655988,-0.571645180276054,0.03791007158527106,0.6575620666275968,0.8940713946544113,0.048735004903532886,0.775707052257271,0.7448616496617796,0.0,0.0,0.0,0.0
0.03872453302853627,-0.014063668525949582,0.8415256289606333,0.002537390270944208,-0.5274892704054744,-0.0014289123492394662,0.8495567017375658,0.029961868825829928,0.40705614617340263,-0.6725277856284319,0.01776069439679644,0.26875129524929414,-0.576936019589023,0.04068210789246926,0.6548299327653763,0.9016755273645024,0.05056817819861919,0.7798391313766125,0.7407046903888328,0.0,0.0,0.0,0.0
0.03899405443420743,-0.014307809513378346,0.8418768063856847,0.0025898871367241822,-0.5275597957470705,-0.0014547290650683046,0.8495127062965424,0.03046439406131326,0.4076317025286266,-0.6714901220736998,0.017820006697067372,0.26658418967232855,-0.5812926397739803,0.04270353312442864,0.652327087470893,0.9080382814898715,0.05147533241172053,0.7824461968914215,0.7375756560846637,0.0,0.0,0.0,0.0
0.038993027192355326,-0.014304834751659487,0.8420428841271639,0.0026003366041053564,-0.5275919684776889,-0.001449452967653171,0.849492702813554,0.03042863412237797,0.4073294137814448,-0.6701714203531359,0.017627011465807696,0.2652528215974397,-0.5839511078807136,0.043619533565436734,0.6505404506469734,0.9121223937402044,0.051435265121882255,0.7834432049941095,0.7358134137055184,0.0,0.0,0.0,0.0
0.03874424041492653,-0.014056806349249527,0.8420021314753489,0.002568557494306646,-0.5275928407160673,-0.001413313760353748,0.8494923186714307,0.029862374760600503,0.4062956238881644,-0.6688547582844858,0.017219844472635876,0.2649842365416091,-0.5838042648934811,0.04309140253794558,0.6502844676904546,0.9121599408768533,0.050474502130003734,0.7827773727533847,0.7356838910844425,0.0,0.0,0.0,0.0
0.038252344525150035,-0.013574666432227165,0.8417574898942016,0.002496971362565455,-0.5275674014638425,-0.001348369898051112,0.8495084366534104,0.028790639126606243,0.40451457443123856,-0.6674611543905146,0.016625362559027985,0.26580799935971944,-0.580884909306905,0.04114175774797309,0.6515643948986568,0.908147828048354,0.04863800378632192,0.7804853031075458,0.7371870723575439,0.0,0.0,0.0,0.0
0.03750679920440726,-0.012877641426507862,0.8413366114846532,0.0023902753844868936,-0.527517498908558,-0.0012584560160163246,0.8495398702929142,0.027255088159179135,0.40182833547610614,-0.665587238735768,0.01585662645248978,0.26756550507809435,-0.5763799349579216,0.03815192320382022,0.6535818205388634,0.9018452287262422,0.045987139378450434,0.7766989942532136,0.7400491101842942,0.0,0.0,0.0,0.0
0.03649059964143,-0.011996020209694463,0.8407778110091264,0.0022541669966618075,-0.5274478293244094,-0.0011495400989805754,0.8495836536973159,0.02532329847018399,0.39799153580716873,-0.662617352728655,0.01491900492751813,0.2698944313287512,-0.5711598742364552,0.03451966483240568,0.6558754390050563,0.8942892680940863,0.04262715213486716,0.7716001489761585,0.7439070629445818,0.0,0.0,0.0,0.0
0.03518827953786243,-0.010970003242509248,0.840118346827479,0.002093578226713349,-0.5273643059149828,-0.0010277601856543172,0.8496360688471375,0.023085828948759404,0.39274184060086326,-0.6578963092824143,0.013826387395856461,0.2725392555912638,-0.565859283091449,0.030557892130896127,0.658212436950816,0.8860135621522663,0.0387238138344288,0.7653725020701984,0.7484358301283643,0.0,0.0,0.0,0.0
0.033595364094112935,-0.00984816921289262,0.8393931608435389,0.0019131965023518188,-0.5272763226205911,-0.0008998353104132396,0.8496912436757623,0.020653778543849376,0.3858550013302345,-0.6508105500505812,0.012606699034754495,0.2754908244916843,-0.5610033728987034,0.026510884041517826,0.6605136060571329,0.877270877834275,0.034489194367932255,0.7582182091099017,0.7533674065398941,0.0,0.0,0.0,0.0
0.031730554321694096,-0.008685829959063106,0.8386369703961726,0.0017184565595313968,-0.5272014731498029,-0.0007737819294053127,0.8497382272660542,0.0181555657432677,0.3772064554713073,-0.6408542528488597,0.0113042597607569,0.27903675217732005,-0.5571419160964989,0.02259714271504871,0.6628440611919723,0.8681828189646479,0.030160423448282084,0.7504022829136701,0.7584805301852544,0.0,0.0,0.0,0.0
0.02965216425775733,-0.007543220774634761,0.83788334886931,0.0015163731125096896,-0.5271733449312509,-0.000659544016860966,0.8497561591470049,0.015732966131307584,0.36686036368185904,-0.6277395316271714,0.009987657036144668,0.28378474550576527,-0.5550101179822925,0.01903719001730878,0.6654672504063494,0.8588463605333992,0.02597827492423332,0.7422943924347467,0.7636354004959592,0.0,0.0,0.0,0.0
0.027480278268246772,-0.006485462050961078,0.8371492745019585,0.001314154571607072,-0.5272578364171701,-0.0005704035532838637,0.8497041376704205,0.013544561301149697,0.35520450675472676,-0.6116016718312915,0.008782343140291986,0.29070417018401146,-0.5557946234869099,0.01606881438017678,0.6689660512143218,0.8494646212289411,0.02218482185891736,0.7343605245862787,0.768998809654042,0.0,0.0,0.0,0.0
0.02560845789786976,-0.005492045267257032,0.8363572033397209,0.0011093630981252156,-0.5274275091029248,-0.0005074917351357487,0.8495991610207365,0.011566036593572004,0.34502079050110035,-0.5975095947611768,0.007481231374801427,0.3006770449437807,-0.5607434942183697,0.013379258956598663,0.6747268423675846,0.8402007725660786,0.018700710053377347,0.7269899120424759,0.7752032820228211,0.0,0.0,0.0,0.0
0.024312318562860223,-0.004656737645508077,0.8356153808369464,0.000916953272194262,-0.5278715848214182,-0.0004856032428359751,0.8493235622095453,0.00999886935618405,0.33751910624785403,-0.5860634615183091,0.006547987419696382,0.3150555002618263,-0.5730493273987799,0.011483781730265943,0.6834753581381464,0.8312271465242124,0.015836718202870092,0.7216634257232647,0.782014414943586,0.0,0.0,0.0,0.0
0.02379473380194616,-0.004143479286916347,0.8350913065267903,0.0007251656578404487,-0.5286701096717651,-0.000499756107601765,0.8488269196474894,0.009175389072877963,0.3335013299293916,-0.5775413578545742,0.006789791703482959,0.33426333992396706,-0.5972625993263889,0.011378787095688432,0.6945227866932895,0.8222630690613421,0.014435477607749544,0.7198060071586496,0.7884848626994745,0.0,0.0,0.0,0.0
0.023723412108008803,-0.003944128522080716,0.8350428086647309,0.0005548888286561317,-0.5287098617769581,-0.0005028364910977432,0.848802286350385,0.008961661511792242,0.33339040271869574,-0.57756233985982,0.006791923715964108,0.3343041044827155,-0.5972634985880354,0.011389284839066984,0.6945569337313953,0.8222731892065922,0.014386026189436268,0.7197252811301136,0.7884562863821288,0.0,0.0,0.0,0.0
0.023723412108008803,-0.003944128522080716,0.8350428086647309,0.0005548888286561317,-0.5287098617769581,-0.0005028364910977432,0.848802286350385,0.008961661511792242,0.33339040271869574,-0.57756233985982,0.006791923715964108,0.3343041044827155,-0.5972634985880354,0.011389284839066984,0.6945569337313953,0.8222731892065922,0.014386026189436268,0.7197252811301136,0.7884562863821288,0.0,0.0,0.0,0.0
0.024478661839029178,-0.003009576343417557,0.8355152205282542,0.0004430735880415162,-0.5283937860011025,-0.0004097551675793836,0.8489992006485749,0.007001111702183962,0.3407476315350215,-0.590460951168521,0.0048083244625026856,0.33799215876063005,-0.6026515225404678,0.007912021381706682,0.697437605182205,0.8191893062867376,0.010899659647082059,0.7236043927584291,0.7800363592187305,0.0,0.0,0.0,0.0
0.0263680688369877,-0.0011856469030582394,0.8373854266603782,0.00025729878022789026,-0.5289207899906103,-6.334529604818672e-05,0.8486711540404915,0.002753551474279736,0.3533524359870016,-0.6030878064677018,0.0005400591568358931,0.3438096488790914,-0.6009302305504746,0.0018227238381206164,0.7109710076156976,0.8071665349027071,0.0048465142009792885,0.739781357918688,0.7574255973752261,0.0,0.0,0.0,0.0
0.027736066584574566,0.0006568349523510088,0.8383626954185359,-0.00024204646016461382,-0.5280612150631444,8.025976995053629e-05,0.8492062694763364,0.0008946941573058282,0.33298506435973246,-0.5745391050495284,-0.0030047132923521304,0.3502393116613841,-0.6108253744375752,-0.0038513786122083326,0.7161060398871834,0.7994750426961539,0.0008431076455855356,0.7181270286941127,0.7887446749726429,0.0,0.0,0.0,0.0
0.029650687061475223,0.0025193752897808425,0.8392260447344072,-0.0006649116624625308,-0.52747734709973,0.00027380633343481,0.8495687913401738,-0.0016715588762197522,0.3172382166135079,-0.559123183235876,-0.006799749647441669,0.35971870506552955,-0.6247535018600864,-0.009753570561230124,0.7224692891865805,0.793613928370273,-0.0034806817408705344,0.7027732390618746,0.8105297523148981,0.0,0.0,0.0,0.0
0.03172359617788472,0.004325503152283153,0.8400540288145002,-0.0010054668921516234,-0.5271679324120818,0.0004508666394666166,0.8497604114054578,-0.004375712555264855,0.3061860296261135,-0.5525923028291267,-0.01055947758275655,0.36951490776399326,-0.6379171257145902,-0.015995966370967923,0.729766698428859,0.7886586395688455,-0.007851660578056387,0.6926347953605327,0.8264896080407947,0.0,0.0,0.0,0.0
0.033738875393649656,0.0060094400444642,0.8409045723849256,-0.0012969575422887361,-0.5270749585340047,0.000617505812159608,0.8498175831754028,-0.006843847894608136,0.29862885749206086,-0.5512386329098148,-0.01411494437046365,0.37842028884256584,-0.6484032281306781,-0.02208827695578323,0.7376933797157664,0.7836634544807326,-0.012152022614165509,0.685878126350961,0.8392949612696551,0.0,0.0,0.0,0.0
0.035555366768852424,0.0075289929823729295,0.8417557436244171,-0.0015471016552212045,-0.5270970868942679,0.0007700204404470292,0.8498033152045044,-0.008911338513789438,0.2933166429149661,-0.552920300521836,-0.017351795387075698,0.3859581242926652,-0.6561018171334412,-0.027778397839457437,0.7456097242974945,0.7784511662013011,-0.016398096795637442,0.6810210474038978,0.8502879788240861,0.0,0.0,0.0,0.0
0.03709316462459013,0.008851862873655757,0.8425732744401953,-0.001758839229428146,-0.5271695622976664,0.0009046570456556868,0.8497578129485374,-0.010540310382701553,0.2892726795487186,-0.5563793807728211,-0.020183624716659507,0.39194350298619507,-0.661237643591765,-0.03285531537222313,0.7530017687184156,0.773143670213713,-0.020529529588175305,0.6771376221577752,0.8601844252351818,0.0,0.0,0.0,0.0
0.03831552378797977,0.009950113519509383,0.8433285873437555,-0.0019324808227540195,-0.527255598776493,0.0010175428939781547,0.8497039270729366,-0.011737218316915031,0.2858100000723774,-0.5608543603152222,-0.022538349935815175,0.39636710692440347,-0.6641476618501307,-0.037137314637126294,0.7595332313105836,0.7679149029862589,-0.024437477741162277,0.6736818656811869,0.8693843135278146,0.0,0.0,0.0,0.0
0.039212786800107445,0.010799449765710747,0.8439992049716011,-0.002067252476553828,-0.527335445853851,0.0011051477579476772,0.8496539487707637,-0.012517282158264255,0.28251197233242714,-0.5658395490517215,-0.0243558359557038,0.39932050696286114,-0.665210952935232,-0.040472451783528075,0.7649985775881917,0.7629337872262507,-0.027998123412361867,0.6703593429179919,0.878087384848693,0.0,0.0,0.0,0.0
0.039789722512325806,0.011380097873191549,0.8445642894642471,-0.002162146601137965,-0.5273987429134797,0.0011646981648981618,0.8496143446138026,-0.012897942395646554,0.2792202607325117,-0.570927868751607,-0.025589375122505482,0.4009407877532462,-0.6648143957593433,-0.04274318515376274,0.7692586708692456,0.7583820242917482,-0.031077691680464307,0.6670508648762341,0.8863168487666094,0.0,0.0,0.0,0.0
0.04005617679716274,0.011678075460157391,0.8449999388801759,-0.0022161596405465547,-0.5274398232607899,0.0011942274806073328,0.8495886624101094,-0.012905276082700735,0.27602602670628423,-0.5756885094702558,-0.02620778404159514,0.4013692971294706,-0.6633287371308862,-0.04387370210492716,0.7721852527311164,0.754492037902557,-0.03350894122356869,0.6637808747626432,0.893878521216813,0.0,0.0,0.0,0.0
0.04002038790287919,0.011686648498035712,0.8452763619403361,-0.0022281263865277785,-0.527455285897175,0.0011922894102199804,0.849579034156268,-0.012581551689130147,0.2732335961837865,-0.5795532916586583,-0.026197497971945004,0.40071873782517137,-0.6610798952913752,-0.043839644355724856,0.773624941742629,0.7515757778389279,-0.035053569049111354,0.660733344216274,0.9002504704731608,0.0,0.0,0.0,0.0
0.03968425226821816,0.011407983933187388,0.845359762711579,-0.0021966585451933265,-0.5274433570479943,0.0011577647368755568,0.8495865696784477,-0.011983135514091733,0.27123304640630985,-0.5817033602978781,-0.02556493316935797,0.3990406316868753,-0.6582922729627249,-0.04267577488806915,0.7733963566888926,0.7500082872686208,-0.035390423427743525,0.65832737682818,0.904384013843872,0.0,0.0,0.0,0.0
0.03903998806352022,0.010854230067691912,0.8452248892468377,-0.0021215639676401793,-0.527405391846394,0.0010917576936931754,0.8496104164161484,-0.011159092655930583,0.2701991063243576,-0.5809998442905864,-0.024339927402679824,0.3962812119949422,-0.6549553110347768,-0.04045865929070394,0.7713494938627934,0.7500964177067755,-0.034219155253567154,0.6573230797439449,0.9044994990551689,0.0,0.0,0.0,0.0
0.03806645925521925,0.010044509940002696,0.8448700858233591,-0.002004368506488048,-0.5273383064902355,0.0009972280341378893,0.8496524575090385,-0.010135895903465763,0.27011734751148314,-0.5774689327572469,-0.022567700277742103,0.39225728703900825,-0.6507639564494904,-0.037281858310041084,0.7674250081875325,0.7518784977091811,-0.031599094687332796,0.6576844365738883,0.9005699812622584,0.0,0.0,0.0,0.0
0.0367319336097283,0.009005537452791515,0.8443176303691708,-0.0018481292350491032,-0.5272333891307861,0.000878860880310467,0.8497180505364993,-0.008916085730581643,0.2707807042882296,-0.5723059057268267,-0.02031066546960957,0.3866705623856917,-0.6451447365943158,-0.03326155441968856,0.7616629298932749,0.7551138324626361,-0.02794451641759964,0.6585746120854746,0.8943199957746155,0.0,0.0,0.0,0.0
0.03500303923876046,0.007776038800461248,0.8435999171171462,-0.0016565642330004355,-0.527082822049994,0.0007431685993874822,0.8498119804963855,-0.007492586090662492,0.2717587179144893,-0.566386781591667,-0.017659980242085718,0.3791550501470231,-0.6373496606755937,-0.028570899750114585,0.7541626294690803,0.7594659581164719,-0.023689846047353975,0.6594771419586477,0.8867566352494965,0.0,0.0,0.0,0.0
0.03285414949949751,0.006406824011236491,0.8427482202407582,-0.0014329017978921322,-0.5268789091987071,0.0005963778601842961,0.849938942611448,-0.005875710874555326,0.27269852409280276,-0.5603255958572056,-0.014733609678667004,0.3693463689797269,-0.6266181193472004,-0.02345731407133926,0.7450435354513593,0.764627133882372,-0.019192608013397217,0.6600815570656033,0.8783924253977295,0.0,0.0,0.0,0.0
0.030280705807042323,0.004959042905153092,0.8417908512106345,-0.0011807293532152627,-0.5266163067646671,0.00044435124234678067,0.8501021549671015,-0.004107843921597472,0.27345792229242827,-0.5545630914821147,-0.011671419600955454,0.35695868930260605,-0.6122962570850002,-0.018222267716329437,0.7344660590776921,0.7703435127776427,-0.014744741133938118,0.6602147612214765,0.8694754406994979,0.0,0.0,0.0,0.0
0.027319399998596387,0.003500292357812278,0.840751137363984,-0.000905574430126971,-0.5262968846873128,0.00029261505291893153,0.8503003489825296,-0.0022689435494415502,0.27414948305754655,-0.5494227309440994,-0.00862442293041065,0.3419101003502198,-0.5940280679094702,-0.013181806738293392,0.7226686213127437,0.7764471024166739,-0.01058823296688525,0.6598730308801601,0.8601537405202877,0.0,0.0,0.0,0.0
0.02407891894691214,0.002097447995309515,0.8396322897796167,-0.0006174859180977537,-0.5259335735523815,0.00014644590224694332,0.8505254102466078,-0.00046216625427290695,0.2751138509429596,-0.5450900596840608,-0.005735834183739985,0.32457180243006617,-0.5722223300452954,-0.008604129227318362,0.7099491528529546,0.7830212882823453,-0.006857926004312702,0.6593797681574771,0.8505819804846445,0.0,0.0,0.0,0.0
0.020782407748753378,0.0008003962115062969,0.8383621137681893,-0.0003209742983179799,-0.5254669812492504,1.2127836257393112e-05,0.850813932916719,0.0013000102515239973,0.27654154848717616,-0.541518255677683,-0.0031200064922668963,0.3065165163864783,-0.5500249598591112,-0.004664464280480465,0.6962861024195255,0.7906769028332854,-0.0033550496609931787,0.6593466014084389,0.8409402239990533,0.0,0.0,0.0,0.0
0.017865978477226433,-0.0003907887150772025,0.8369708778949482,-5.779698292963146e-05,-0.5249254627986225,-0.00010130694348140609,0.8511481920923429,0.003044430567410008,0.2785128170391766,-0.5380273246491282,-0.0007465159072770657,0.29083769106951984,-0.5324001215825342,-0.0010747545747098772,0.6827653639181409,0.7991846793901783,0.0003349350087017552,0.6608628068587922,0.8314532348903338,0.0,0.0,0.0,0.0
0.01554297732994414,-0.001350641973981657,0.8356607478119349,0.0001381742015609673,-0.5243964609251276,-0.00016740476786963827,0.8514741949423569,0.004335866852723972,0.2807325319466628,-0.5352009522352702,0.0011213613088586222,0.2786345141452351,-0.5199832040711891,0.0019232348753593508,0.6708885878899624,0.8072520925809357,0.0038347495691722347,0.6635299539400621,0.8223154202426647,0.0,0.0,0.0,0.0
0.014114005316944038,-0.0019619489451131677,0.8347311091708269,0.00021356748985305448,-0.5239683399418026,-0.00016273598109681182,0.851737698264295,0.0049746615858777,0.28214790920652777,-0.5335026116050058,0.002261754628842868,0.2714658745388195,-0.5137903525360834,0.00423314790455305,0.6627675831162646,0.812754062922695,0.006767203048883921,0.6665647245146428,0.8140321879291047,0.0,0.0,0.0,0.0
0.01404781666347912,-0.0021268086164991902,0.8346683553477837,0.000350060765637305,-0.5239777430947714,-0.00015320898983785445,0.851731870206684,0.004988130719736302,0.28218767209783907,-0.5335046823820264,0.0024248193546182214,0.2712793932145605,-0.5137861336364177,0.004257720377484557,0.6626056685392765,0.8126779310420856,0.00675725390232565,0.666615320319969,0.8140475276496244,0.0,0.0,0.0,0.0
0.014047816663478378,-0.002126808616498964,0.8346683553477844,0.0003500607656334218,-0.5239777430947733,-0.00015320898983880532,0.8517318702066828,0.004988130719740061,0.2821876720978414,-0.5335046823820242,0.002424819354622309,0.27127939321459404,-0.5137861336364706,0.0042577203774972275,0.6626056685392797,0.8126779310420886,0.006757253902336986,0.6666153203199761,0.8140475276496221,0.0,0.0,0.0,0.0
0.014047816663478378,-0.002126808616498964,0.8346683553477844,0.0003500607656334218,-0.5239777430947733,-0.00015320898983880532,0.8517318702066828,0.004988130719740061,0.2821876720978414,-0.5335046823820242,0.002424819354622309,0.27127939321459404,-0.5137861336364706,0.0042577203774972275,0.6626056685392797,0.8126779310420886,0.006757253902336986,0.6666153203199761,0.8140475276496221,0.0,0.0,0.0,0.0
0.015502010174265588,-0.002858481654525077,0.8355495723763117,0.0004563472270999615,-0.5247029648967869,-0.0001914587266930031,0.8512852364039244,0.006444484663084104,0.2879858631662311,-0.5356469491728707,0.003863800221533071,0.280246616753443,-0.5223879817716038,0.006835874009728519,0.6718851281594113,0.8046452135905137,0.009429425301465209,0.6751574263610188,0.8100561349608505,0.0,0.0,0.0,0.0
0.01828073529663413,-0.004222123903064001,0.8376013185907276,0.0006489561297358935,-0.5262659252219719,-0.0004972278217721452,0.8503196502320153,0.009648757554327553,0.2978847364156179,-0.5350262041501381,0.0070554827909525995,0.2960671959783769,-0.5344075481613083,0.01077766610722607,0.6922515163116788,0.7862491076548168,0.01349775836786226,0.6935793073871932,0.7987974522537812,0.0,0.0,0.0,0.0
0.020945619391784916,-0.005611887698206453,0.8388464645073855,0.0009157067272360407,-0.5262854196550806,-0.0005286769847147895,0.850307320349714,0.012283264313605413,0.31263491848985,-0.5542551002754228,0.008501430724095071,0.29272631866171217,-0.532458313631472,0.013163522678629795,0.6828560835175737,0.8067209372160107,0.018678313203926687,0.7051563874123662,0.7899988583958638,0.0,0.0,0.0,0.0
0.024013363270001732,-0.006970993995500439,0.8398538215277754,0.0011697008187581664,-0.5263029492989332,-0.000624756532676407,0.8502960937452988,0.01504083520174539,0.33026272703259096,-0.5790431714244398,0.010072142440521958,0.2884632143060174,-0.5338463484726725,0.015762865385587507,0.6758851445714337,0.8228195915640714,0.023629432412187207,0.71639773529472,0.7832347747077242,0.0,0.0,0.0,0.0
0.02736562926664946,-0.008180530484366498,0.8406159900281334,0.001367936768014,-0.5262284593110189,-0.0007247063029170455,0.8503418207761656,0.017604776965696137,0.3501016267909205,-0.6088257370243803,0.011195695341636138,0.2847674978691837,-0.5372742751500525,0.018311286256247554,0.6718589727133522,0.8361319454884636,0.02830366818108667,0.727011512570542,0.7779767709223115,0.0,0.0,0.0,0.0
0.030487507434716087,-0.009352415059536994,0.8413910130135903,0.0015885936192967243,-0.5263338724891179,-0.0008484727714799386,0.8502760793618022,0.020133656989030718,0.3669800223301727,-0.6322432194891299,0.012495339220883878,0.2821254963484978,-0.5417530830569519,0.0212564131429439,0.66948610243893,0.8479381031563429,0.032697608037686156,0.737678819722382,0.772790800873848,0.0,0.0,0.0,0.0
0.03320314577045278,-0.010486669490352957,0.8422050183851163,0.0018150881180869962,-0.5265365607123398,-0.0009839227534171103,0.8501499794650115,0.022603342966000674,0.3805088215328947,-0.64923059045977,0.013862440351496214,0.2800992075391231,-0.5468885851393639,0.024567477096546674,0.6676072595000075,0.8587117384699626,0.036901552907245845,0.7479893176921486,0.7671946990597877,0.0,0.0,0.0,0.0
0.035441946225112715,-0.011560769772857367,0.8430230366881724,0.002029684100775063,-0.5267676654139762,-0.0011169917953940138,0.8500061525577854,0.02494713929478845,0.3908478556834133,-0.6607463328752182,0.015162672486866693,0.2782336945771615,-0.5524452927715179,0.028104018207389697,0.6656557157969962,0.8687069359624205,0.040913195112188286,0.7574476529688482,0.7613700814909894,0.0,0.0,0.0,0.0
0.03719921060471803,-0.012538338075634316,0.843805703694025,0.0022208333710471324,-0.5269876107099862,-0.0012380094109735336,0.8498691625126872,0.027076483920023996,0.3983547136563038,-0.6678683206748123,0.01629105738683531,0.2762190930318492,-0.558240860718683,0.03168641281096975,0.663434255269196,0.8780934381418212,0.04461391600918371,0.7657272407577896,0.7556069928172493,0.0,0.0,0.0,0.0
0.03850698001724716,-0.013378640851015951,0.8445210002555366,0.0023816491466845738,-0.5271770192953337,-0.0013404558728690903,0.8497510937046696,0.02889843283634822,0.403467972725921,-0.6716229052113684,0.017176895107695895,0.2739169168288507,-0.5641021871247974,0.03514914812007466,0.6609277827154542,0.8869684276911847,0.04782971106909204,0.7726651821057573,0.7501527781510056,0.0,0.0,0.0,0.0
0.03941396292893461,-0.014043515937500903,0.8451420166862395,0.002508125845532698,-0.5273280051116425,-0.0014199180756927056,0.8496569120311898,0.030329198546227728,0.4066424473012954,-0.6729499309138288,0.01778076663564287,0.27136882188512884,-0.5698206063775686,0.03833407916478723,0.6582182638990716,0.8953172249453466,0.05038297813988758,0.7781939083074393,0.7452202781996505,0.0,0.0,0.0,0.0
0.03997241655263573,-0.014501618416382504,0.8456419792535321,0.002597701018613483,-0.5274383404655985,-0.0014732980841681267,0.8495880639163126,0.03130240884781399,0.4083075765786683,-0.6726968003113059,0.01809202160152575,0.26880535769930036,-0.5750910078700672,0.04105225993547599,0.655467719637954,0.9029383684974637,0.052128506816961045,0.7822735976314907,0.7410380520867617,0.0,0.0,0.0,0.0
0.04022969898041641,-0.01473100966389612,0.8459907640773164,0.0026482016098046094,-0.5275083239739582,-0.0014981251068452773,0.8495444136639259,0.031773544197228214,0.40883622098905215,-0.6716056335879255,0.018126965838718638,0.26662658332988637,-0.5794301743237668,0.04303839505200402,0.6529536673856341,0.9093153839134721,0.05297705287906971,0.784846185897684,0.7378923116728109,0.0,0.0,0.0,0.0
0.0402226617762591,-0.014721061417262727,0.8461562732608318,0.0026575247148780618,-0.527540169345915,-0.0014922548435846996,0.8495246202814577,0.03172258017555308,0.4085118144668954,-0.6702614089066924,0.01792233637256905,0.2652898569751319,-0.5820779193597693,0.04393716552612527,0.6511617723192791,0.9134080695545432,0.052906927031314215,0.7858266112040062,0.7361203058236412,0.0,0.0,0.0,0.0
0.03997378336522691,-0.014473492501013175,0.8461166663979314,0.00262546710302283,-0.527540796955571,-0.0014558769175831805,0.8495243933474615,0.031156571687832414,0.40748002701371255,-0.6689474380316078,0.017515624955751978,0.26502121309656296,-0.5819287072496259,0.043408694466946,0.6509058937447976,0.9134452066606186,0.05194361771667658,0.7851612225890936,0.7359871416106281,0.0,0.0,0.0,0.0
0.03948744720406764,-0.013998804621299257,0.8458748351133994,0.002554432655370929,-0.527515183147723,-0.0013910147889087598,0.8495406238081205,0.030099506230747333,0.4057246202937462,-0.6675846900133637,0.016932883566985888,0.2658495731268282,-0.5790145961377761,0.04147420913523551,0.6521908722417733,0.9094240072279922,0.05012998484408965,0.7828857840536414,0.7374923994699906,0.0,0.0,0.0,0.0
0.0387529102008894,-0.013315665848517455,0.8454584262734169,0.0024491123464560295,-0.5274652750959111,-0.0013014788255656363,0.8495720637883379,0.028591679849811733,0.40308753611700876,-0.6657697801954242,0.016186169296165447,0.2676160291472621,-0.5745193158216562,0.03851335746699044,0.6542180887486971,0.9031075673241497,0.04752416428646888,0.7791315087642162,0.740362163567778,0.0,0.0,0.0,0.0
0.03775298173914312,-0.012453667691143906,0.8449056689186064,0.0023152196256186145,-0.5273957734480318,-0.0011931908880534155,0.8496157450299177,0.026698890399051486,0.39932403671613775,-0.6628893182036343,0.015279689626714808,0.2699571575837983,-0.569307866236972,0.034921412084569954,0.6565267849559947,0.8955366479855179,0.04422735546535556,0.774078533760092,0.7442339979430985,0.0,0.0,0.0,0.0
0.03647197682779415,-0.011452120140574822,0.8442535345390774,0.002157743550540256,-0.5273124657619465,-0.001072233552418719,0.8496680280615689,0.024509435570561736,0.3941733406384399,-0.6582935797093016,0.01422581303260585,0.2726149123993684,-0.5640066892150455,0.031008096300882006,0.658885201218987,0.8872483777833328,0.04040029653110023,0.7679076020018254,0.7487846346973908,0.0,0.0,0.0,0.0
0.03490511229255584,-0.010358456811371713,0.8435363693542492,0.0019815058522715686,-0.5272244634572275,-0.0009452836142542947,0.8497232168216217,0.022131568709107947,0.38741369558346894,-0.6513782396271975,0.013050151332064091,0.2755750907594703,-0.5591290609336049,0.027013724063820674,0.6612154158443445,0.8784995895110729,0.03624860426298535,0.7608158699743137,0.7537496854336476,0.0,0.0,0.0,0.0
0.033070580445163845,-0.009226526000480292,0.8427879026338977,0.0017922052288241932,-0.5271488495126871,-0.000820351682281558,0.8497706781720499,0.0196901646534409,0.3789237461530856,-0.641650752894814,0.01179322135227785,0.2791156151086215,-0.5552066005560797,0.023151758106042017,0.6635832583786825,0.8694171839811163,0.03200109463428632,0.7530607887036836,0.7589131216883032,0.0,0.0,0.0,0.0
0.031025754814071112,-0.008114693646622605,0.8420403892996537,0.0015973403767320174,-0.5271182528495901,-0.0007074475970463803,0.8497901479391331,0.01732260561707771,0.3687707870996692,-0.6288400349026583,0.010517280053962234,0.28382564776592056,-0.5529453828565288,0.019635748859776442,0.6662499831988802,0.8601049651969966,0.02788767058615254,0.7450017325928795,0.7641394300791923,0.0,0.0,0.0,0.0
0.028888826683386614,-0.007085474118145443,0.8413098091953852,0.0014051124998551718,-0.5271954201763341,-0.0006202283324396218,0.8497426845350167,0.015181848981721133,0.35734606560380033,-0.6131082792470246,0.009336570980200859,0.2906347337135238,-0.55347976790913,0.016687993123473965,0.6697863636057368,0.8507671869079251,0.024132932719122323,0.737090794817129,0.7695837517692377,0.0,0.0,0.0,0.0
0.02702623369024594,-0.006125089888620433,0.840524805181009,0.0012140229048922294,-0.5273583280620338,-0.0005595688017359067,0.8496419286115527,0.013256221918668707,0.34721137954065234,-0.5990979077381401,0.008080573299179553,0.300392862810517,-0.5580639770331378,0.01405070925370995,0.6754765535121006,0.8415831252909881,0.020689519410786228,0.7297072734761084,0.7758417075406023,0.0,0.0,0.0,0.0
0.02573213994003318,-0.005314253909835607,0.8397845484381911,0.00104184798579571,-0.5277851257636436,-0.0005415572524646672,0.8493771142968073,0.011721544739085658,0.33974641354072116,-0.587780535128531,0.007149870399219788,0.31436766259847415,-0.5697060386258747,0.012142456702998128,0.68408508082502,0.8327542132946804,0.017791140538400665,0.724309342692914,0.7826835965501014,0.0,0.0,0.0,0.0
0.02520587940832425,-0.004812509207869295,0.8392580846886772,0.0008805907541252086,-0.5285582834708311,-0.0005612181276724867,0.8488963721023347,0.010897325293906635,0.33572016458032294,-0.5793570288368717,0.007336145102047466,0.3329269142729669,-0.592817619675555,0.01190259248099967,0.6948943520842612,0.8240582676136429,0.016247897161273648,0.7223304053153713,0.7891326405757193,0.0,0.0,0.0,0.0
0.02513568007783155,-0.004617534811218493,0.8392109137531576,0.000714081293703361,-0.5285973808074244,-0.000563894560254136,0.8488721818473979,0.010687408380341218,0.3356118897809209,-0.579378124575127,0.007338308751573887,0.33296763439648996,-0.5928180697411014,0.011912995418663195,0.6949283172068764,0.8240684852506073,0.016199435196089827,0.7222512861337599,0.7891048648926833,0.0,0.0,0.0,0.0
0.02513568007783155,-0.004617534811218493,0.8392109137531576,0.000714081293703361,-0.5285973808074244,-0.000563894560254136,0.8488721818473979,0.010687408380341218,0.3356118897809209,-0.579378124575127,0.007338308751573887,0.33296763439648996,-0.5928180697411014,0.011912995418663195,0.6949283172068764,0.8240684852506073,0.016199435196089827,0.7222512861337599,0.7891048648926833,0.0,0.0,0.0,0.0
0.02589986537732802,-0.003687318778752975,0.8396898082767441,0.0005771354106670514,-0.5282963519501036,-0.0004619944533481158,0.8490597258097071,0.008746497328820376,0.3429848266705316,-0.5922265353636618,0.005374311602980794,0.3366756453994804,-0.598108312184154,0.008627308365991381,0.6978568960464824,0.8209532692920175,0.012896887384651706,0.7262452074961475,0.7806796198403203,0.0,0.0,0.0,0.0
0.02780311231881676,-0.0018619180046296428,0.8415734087073241,0.00038426480178295567,-0.528819301423904,-0.0001193906541181744,0.8487343427292006,0.0045120394783574455,0.3556726311403911,-0.604957569324873,0.0011218534361343343,0.34255243808349556,-0.5964567218177552,0.0025365298002076285,0.7114796479640858,0.8087950465165118,0.006835174511385946,0.7425169892086021,0.7578766455514028,0.0,0.0,0.0,0.0
0.029175156354729812,-1.7627546605441342e-05,0.8425582036213386,-0.00013656893794533988,-0.5279651603853771,3.3512516225801317e-05,0.8492660181857505,0.0026671226700019004,0.33495519842580157,-0.5756966685646964,-0.002417545494793574,0.348998415343181,-0.6063000920646389,-0.003004654101376485,0.7166387601439546,0.8010544207737483,0.0026100813774513343,0.7207443108300017,0.7893159435556281,0.0,0.0,0.0,0.0
0.031096624941170086,0.001850798886541484,0.8434284671095398,-0.0005775778513656263,-0.5273909742962613,0.00023415016802729672,0.8496224878193636,8.960234801174078e-05,0.31896791502201377,-0.5597707269983363,-0.006213836706377408,0.35851393437404455,-0.6201966647489077,-0.008819732138300422,0.723052801057441,0.7951608814838762,-0.0019053341419315011,0.7053309510851918,0.8111692110851866,0.0,0.0,0.0,0.0
0.0331737875198717,0.0036669859215011508,0.8442654467899758,-0.0009308535627740208,-0.5270937881668147,0.0004151863325844244,0.8498065071579006,-0.0026399836534712856,0.30777481150041475,-0.5529247088469555,-0.009982896429227534,0.368312509933247,-0.633256838716722,-0.015039761986646739,0.7304255844299008,0.7901651885763726,-0.00640522267304579,0.6951600442366509,0.8271698834992631,0.0,0.0,0.0,0.0
0.03519224296482644,0.0053620900710691375,0.8451230758148668,-0.0012298649106489586,-0.5270090762730277,0.0005833526821732743,0.8498585650905683,-0.0051278429547778805,0.3001333410103365,-0.551388180658801,-0.013551011859764605,0.37721743191078455,-0.6436686405668863,-0.021155723810096547,0.7384172354642262,0.7851367343708986,-0.010779108118552642,0.688384645945585,0.8399977701439028,0.0,0.0,0.0,0.0
0.037012001452844785,0.006891945152707508,0.8459786376941563,-0.0014841603741336169,-0.527035758052608,0.0007362069938680438,0.8498414940453066,-0.007204283429937123,0.2947734909032349,-0.5529686675214116,-0.01680070113860485,0.3847607159432169,-0.6513353523544559,-0.026890057880356543,0.7463814355966362,0.7799050449793318,-0.015062538514216852,0.6835248003830074,0.8510040145017121,0.0,0.0,0.0,0.0
0.038553726118891296,0.008223179256586234,0.8467983081403613,-0.0016980236302194718,-0.5271101207533032,0.0008707599819792268,0.8497948452963475,-0.008832082327130024,0.29070694655138984,-0.5563766526608644,-0.01964361811571495,0.39075966132211387,-0.6564762170671966,-0.03201467710151171,0.7538061881435824,0.7745900961467628,-0.01921172695769291,0.6796529629242153,0.8609104982870831,0.0,0.0,0.0,0.0
0.039780775758641924,0.009327442431136038,0.8475542326846001,-0.0018725888376873682,-0.5271963194749285,0.0009834904814489992,0.8497408822044559,-0.010020204383334105,0.2872383209690128,-0.5608310799055571,-0.0220066963216004,0.3952043006962811,-0.6594184230771448,-0.03633832044156465,0.7603590699896113,0.7693614879403674,-0.023127555407879814,0.6762192374576569,0.870120486541353,0.0,0.0,0.0,0.0
0.040683308694512636,0.010180441160509705,0.848224606658915,-0.0020075586534466458,-0.5272753461373069,0.0010709879127585161,0.8496914334327061,-0.010786605560054492,0.28394442319272944,-0.5658139599945435,-0.023829504347554962,0.39818411481705923,-0.6605308008661113,-0.03970457253999422,0.7658381938317798,0.7643840222614431,-0.02669041569581088,0.6729247081068048,0.8788352089003193,0.0,0.0,0.0,0.0
0.04126576304428774,0.01076262170513473,0.8487891336704648,-0.002102214182649464,-0.5273374344526814,0.0011304994127592815,0.8496525954126615,-0.011151233876041347,0.2806618665897857,-0.5709100893723504,-0.02506544912284303,0.3998334285423448,-0.6601904786260356,-0.04199430461877366,0.7701074123469002,0.7598361892818273,-0.029767685998182022,0.6696458367321523,0.8870783822652067,0.0,0.0,0.0,0.0
0.0415376181631848,0.011060293716207974,0.8492243074850025,-0.002155758326035038,-0.5273774255016023,0.0011600519205223752,0.8496275996322644,-0.0111425372099939,0.2774780987900513,-0.5756828478866051,-0.02568362228443839,0.4002907572781109,-0.6587594529536139,-0.04313144964179203,0.7730408277221246,0.7559482473424488,-0.03219221104934522,0.6664029774636827,0.8946556914314141,0.0,0.0,0.0,0.0
0.041506813680250956,0.011066971976449416,0.8495005671737683,-0.0021672048837768987,-0.5273923730017711,0.0011581915273995273,0.8496182947153023,-0.010805168867525746,0.27469489058496294,-0.5795594577469788,-0.025670668556379245,0.39966657004752376,-0.6565567946160388,-0.04309175166199761,0.7744868468251274,0.7530311845735984,-0.03372586679447463,0.6633764116717206,0.9010444374973693,0.0,0.0,0.0,0.0
0.04117513971003699,0.010784915657334932,0.8495841356593424,-0.0021353139490176165,-0.527380853341564,0.0011237818375728179,0.8496255722831347,-0.010197644863276232,0.2727006741575226,-0.5817171895352119,-0.025032925874849656,0.398011755698976,-0.6538040571920887,-0.04190991315945831,0.7742651482879456,0.7514605011986519,-0.034048125073798244,0.6609824848964707,0.905194282637892,0.0,0.0,0.0,0.0
0.040535059028762664,0.010226070829622793,0.8494495225399077,-0.0020599261907933114,-0.5273442361021626,0.0010578707165890542,0.8496485710359678,-0.009369929846863618,0.2716692177737145,-0.5810147471984091,-0.023799644977409995,0.3952749369999756,-0.6504956394044807,-0.039662057274824934,0.7722255502556018,0.7515446408673518,-0.03285927804562807,0.6599802336314495,0.9053230548704405,0.0,0.0,0.0,0.0
0.03956613319302016,0.009408972836152349,0.8490946589359022,-0.0019424667428526443,-0.5272791658120118,0.0009634265800336589,0.8496893431912435,-0.008347194571714041,0.27158719116721425,-0.5774797403288797,-0.022014999937512283,0.3912787492394712,-0.6463392919177532,-0.03643999496358521,0.7683075845165162,0.753324132566869,-0.03021854264037789,0.660335615998679,0.9014048269702329,0.0,0.0,0.0,0.0
0.03823766419590062,0.008359453555732387,0.8485412675547587,-0.0017857676748477245,-0.5271763756974861,0.0008452187006429946,0.8497535910754496,-0.007128380327441184,0.27225049508729454,-0.5723125645059374,-0.019740073109524057,0.3857334223352089,-0.6407808825336607,-0.03235730270905169,0.7625491298924242,0.7565609782704981,-0.02653920304781795,0.6612167967521194,0.8951686138027878,0.0,0.0,0.0,0.0
0.03651730624443464,0.007115345973819753,0.8478210238239865,-0.0015932124446108322,-0.5270271316560672,0.0007098163220522561,0.8498466687192895,-0.005701288080933524,0.2732316714878469,-0.5663957260897267,-0.017064717206671295,0.3782823527085533,-0.6330959737468363,-0.027585710282345736,0.7550458331325522,0.7609222065445105,-0.022254473299597847,0.6621135426501775,0.8876246076655844,0.0,0.0,0.0,0.0
0.034380001922162146,0.005726915024585786,0.8469644592378396,-0.0013676392577961027,-0.5268226268280363,0.0005634682857586455,0.8499739595589733,-0.004070625845625358,0.2741803826527865,-0.5603509514926638,-0.014106239855486574,0.368568374774365,-0.6225454322235937,-0.02237407574687895,0.7459121483274108,0.7661040652830122,-0.017720689752639227,0.6627206311316093,0.8792863902601135,0.0,0.0,0.0,0.0
0.0318207992740181,0.0042554954495686685,0.8459994253473919,-0.0011121768156562534,-0.5265562678108264,0.00041197383450146093,0.8501394533659896,-0.002273664312768919,0.2749558703827988,-0.5546290423227339,-0.011005170223780843,0.35630715822967735,-0.6084875894088475,-0.01703016384276565,0.7353031127659495,0.7718549027391138,-0.013228104783838089,0.6628657704867902,0.8704005699624605,0.0,0.0,0.0,0.0
0.028874462267348477,0.0027700091677069468,0.8449497315035793,-0.0008318535250898476,-0.5262288085049186,0.0002606260462796489,0.8503425669653794,-0.0003875941270118906,0.27567120482518154,-0.5495671650667897,-0.007915125146591536,0.3414071879327904,-0.5905562823037979,-0.011882778289694848,0.7234544823095381,0.7780016930888666,-0.009015856027958019,0.6625371268077019,0.8611110663733097,0.0,0.0,0.0,0.0
0.025645725190980802,0.001340157561166208,0.8438213459031066,-0.0005364217241510043,-0.5258535333876868,0.00011428542666194814,0.8505749588450509,0.0014809673830211206,0.2766712892498435,-0.5453694393238617,-0.004984257604237618,0.3242091044093103,-0.5690980689761928,-0.007218575300253327,0.7106731928309727,0.7846059030326438,-0.005214413725451356,0.6620386157917786,0.8515687661586372,0.0,0.0,0.0,0.0
0.022352027387024853,2.0466818281524154e-05,0.8425493125758444,-0.00023215331714638367,-0.5253810862900254,-1.9975190929667653e-05,0.8508670048101183,0.0032987108743712645,0.27818051936822347,-0.542009116246377,-0.0023354621209122394,0.3062060174222852,-0.5470396829727777,-0.0032212651642107805,0.6969837362406859,0.7922435556628539,-0.0016124264622710662,0.6619820662162058,0.8419638942553972,0.0,0.0,0.0,0.0
0.019438135489658136,-0.0011912933685956902,0.8411583000253496,3.765205119164104e-05,-0.5248394889572737,-0.00013592586968536562,0.8512012047322001,0.005094154975547035,0.28028042074553633,-0.5387395530518091,7.420464970477048e-05,0.2905662274917633,-0.529496296582278,0.00040854874102694934,0.6834665092022089,0.8007301787667586,0.0022750550156116745,0.6635321133639553,0.8325246916964829,0.0,0.0,0.0,0.0
0.017118755035845,-0.00216734571372398,0.839851840937162,0.0002396513005417245,-0.5243202481279434,-0.0002085554337046794,0.8515210957310083,0.006422941232846151,0.28272081156241935,-0.5362087425172617,0.0019794806646627754,0.2783758412626569,-0.5170542294978226,0.003412142730195192,0.6716419685040296,0.8087811797116169,0.006068421235351354,0.6663013513690155,0.8234651274168449,0.0,0.0,0.0,0.0
0.01569563370401915,-0.002787886525421466,0.8389275967352662,0.00032039437004311133,-0.5239097350439553,-0.00021449779912234473,0.8517737028485408,0.007081387420373148,0.2844671631015524,-0.5349701364049104,0.0031537904366094756,0.2712034172496524,-0.5107616099451149,0.005685739772909395,0.6636090307666215,0.814290051745448,0.009295172630840197,0.6694751327749034,0.8152887935421385,0.0,0.0,0.0,0.0
0.01562906956223683,-0.0029540835190999194,0.8388647306663015,0.00045801074208392525,-0.5239194295691235,-0.0002052482382703754,0.8517676792525559,0.007094709603191563,0.2845072417681083,-0.5349723396830453,0.00331854654279701,0.27101698001397373,-0.5107579383012736,0.005710430631487642,0.6634469481491095,0.8142140140309915,0.009285532701446835,0.6695257083040197,0.8153040480910407,0.0,0.0,0.0,0.0
0.015629069562236777,-0.0029540835190999004,0.8388647306663015,0.00045801074208353266,-0.5239194295691235,-0.00020524823827046233,0.8517676792525559,0.007094709603191972,0.28450724176810854,-0.534972339683045,0.0033185465427974306,0.271016980013977,-0.5107579383012788,0.005710430631489189,0.6634469481491099,0.8142140140309916,0.00928553270144822,0.6695257083040205,0.8153040480910403,0.0,0.0,0.0,0.0
0.015629069562236777,-0.0029540835190999004,0.8388647306663015,0.00045801074208353266,-0.5239194295691235,-0.00020524823827046233,0.8517676792525559,0.007094709603191972,0.28450724176810854,-0.534972339683045,0.0033185465427974306,0.271016980013977,-0.5107579383012788,0.005710430631489189,0.6634469481491099,0.8142140140309916,0.00928553270144822,0.6695257083040205,0.8153040480910403,0.0,0.0,0.0,0.0
0.017068762646145364,-0.0036680996032891675,0.8397369032333895,0.000562079686721457,-0.524639368047609,-0.0002445829599048113,0.8513243551903158,0.008520816676336276,0.2902294374952346,-0.5370468863860277,0.004725525505441504,0.2798675790613364,-0.519211186248306,0.008237178084470952,0.6726406502527403,0.8062698516744926,0.0119258760213062,0.6780257469893604,0.8112687985507069,0.0,0.0,0.0,0.0
0.019816137184111866,-0.004993371447744225,0.841747523537484,0.0007530708826682483,-0.5261951468387223,-0.00055179963698782,0.8503633316675772,0.011651944790269162,0.2999977598789882,-0.5364025328170479,0.007841267233095186,0.295453014706211,-0.5310035968037621,0.012042499728048037,0.6927147514646312,0.7883148140346057,0.01589000841140386,0.6962357731022315,0.8001687961178061,0.0,0.0,0.0,0.0
0.022464022315404095,-0.006331961028864593,0.8429896238016744,0.0010078404829864706,-0.5262242335026392,-0.0005808788222189948,0.8503450493252221,0.014196731934059272,0.31464154002856587,-0.5554215761871661,0.009245291817211752,0.2925520874732039,-0.5299064897860959,0.014248120748322327,0.6835615683510196,0.8083920211386698,0.020958520507733933,0.7078524895084113,0.7912159798924565,0.0,0.0,0.0,0.0
0.025507882511314528,-0.007632624034357001,0.8439951373638747,0.00125178218767355,-0.5262493398645406,-0.0006734611056512653,0.8503291196846249,0.01684594669121354,0.33213634811763915,-0.5799634697594759,0.01074173359885283,0.2885631839003585,-0.5318111550520997,0.01665682413514113,0.6767290151724695,0.8242766538416045,0.025756896440906535,0.7191327619956196,0.7842443527924987,0.0,0.0,0.0,0.0
0.02883061003950595,-0.00878233395805244,0.8447494897569632,0.0014400951323827879,-0.5261747468129446,-0.0007690597724979486,0.8503748999643684,0.019297254739403434,0.3518512526455363,-0.6095835277000197,0.011769890196069001,0.28500365080898005,-0.5355481441807135,0.019045213582162532,0.6727468504031276,0.8374771998749856,0.03026727382465636,0.7297302117831238,0.7788069059039935,0.0,0.0,0.0,0.0
0.03191573399430585,-0.009900011565266252,0.8455182377282328,0.0016543440992069537,-0.5262840861443855,-0.0008905038441650681,0.8503067274928935,0.02172215650267914,0.3685482585693897,-0.6327152813510557,0.012984828341514442,0.282421270835843,-0.540198974333115,0.021861807425055134,0.6703655421435514,0.8492280088845034,0.03448713785576579,0.740368116683674,0.7734636047636201,0.0,0.0,0.0,0.0
0.03459314293729715,-0.010985875981776088,0.8463249221748811,0.0018753654713477114,-0.5264884747206553,-0.0010240931852347952,0.8501795811614242,0.024097138713431502,0.3819001183396855,-0.6494456489980536,0.014273387471908988,0.28040356297125446,-0.5454265688880393,0.025064933046445196,0.6684467066231614,0.8599758648865176,0.03852720590141371,0.7506222591125066,0.7677461665589456,0.0,0.0,0.0,0.0
0.036795742550229084,-0.012017621626320831,0.8471350101463746,0.002085221077002216,-0.5267198671554079,-0.0011554954503401882,0.8500355864474815,0.02635639798920692,0.39207915435391893,-0.6607453342344932,0.015503142543963766,0.2785216575775992,-0.5510237392374937,0.028506306687897637,0.6664502216648819,0.8699633785223392,0.04238989242261983,0.760008737275749,0.7618368124604081,0.0,0.0,0.0,0.0
0.03852090924087978,-0.01295900845602994,0.8479099820920124,0.0022722197143701327,-0.5269392925991464,-0.0012749362639955517,0.8498989313266627,0.02841226960336042,0.3994487201077983,-0.6676929239335767,0.016570543949368865,0.2764820369130594,-0.5568293960195491,0.03200561123419663,0.6641894823620744,0.8793539740199698,0.045960343585338806,0.7682127468686001,0.756017528341234,0.0,0.0,0.0,0.0
0.03980178048529926,-0.01376940473075605,0.8486185283658939,0.0024294782501187995,-0.5271278336282473,-0.00137592803566575,0.8497814139364684,0.030172606928433317,0.40444945380930497,-0.6713110360185212,0.017405749478527417,0.2741548430870109,-0.5626842110861406,0.03539831545858825,0.6616526447012935,0.8882401418237305,0.04906657052246096,0.775080348505996,0.7505269014528966,0.0,0.0,0.0,0.0
0.040687531066810306,-0.014410703211026348,0.8492341838639532,0.0025530329340988285,-0.5272779121983523,-0.0014541306934477969,0.8496878078650478,0.03155423109447728,0.40753634768969993,-0.6725350719952187,0.017969688346968923,0.27158582015652216,-0.568388597837691,0.03852724313846212,0.6589216095949034,0.8966035901086185,0.05153201369727646,0.7805497611637849,0.7455708950973727,0.0,0.0,0.0,0.0
0.04123049248781183,-0.014851549859220945,0.8497303734353927,0.002640334325648588,-0.5273874415622483,-0.0015064972797474096,0.8496194710474926,0.03249112358735746,0.4091382251591346,-0.6722090951689219,0.018251657871838693,0.26900712633417856,-0.5736438166397185,0.041204129112645024,0.6561568935843753,0.9042399665387628,0.053212101822883225,0.7845842388119079,0.7413734860188456,0.0,0.0,0.0,0.0
0.04147784435756301,-0.015069933935324777,0.8500770467004332,0.002689258555814714,-0.5274568544164544,-0.0015306107099323555,0.8495761836635805,0.0329388565734406,0.4096265623023791,-0.6710715088583524,0.018267875626563002,0.26681908629791623,-0.5779703932541491,0.04316367127247409,0.6536346863501565,0.9106300605850144,0.05401741422381049,0.7871271850271451,0.7382181291911495,0.0,0.0,0.0,0.0
0.04146613757926617,-0.015055082264665674,0.8502420543282206,0.0026976973709966364,-0.5274883315004428,-0.0015243236218962905,0.849556624950491,0.032877220388517855,0.4092836313251152,-0.6697057040337399,0.018054821941797684,0.26547852295427415,-0.5806107752840971,0.04405038778640072,0.6518392779044493,0.9147305993882696,0.05392608380701565,0.7880934954286316,0.736440718351847,0.0,0.0,0.0,0.0
0.0412175220086996,-0.014808496901833317,0.8502034678300968,0.0026654321070129178,-0.5274886717843669,-0.0014877859231980377,0.8495565802840293,0.03231278710425288,0.4082541593574908,-0.6683946253224734,0.0176496216538235,0.26521041730919337,-0.5804604292738467,0.04352364866047579,0.6515838436786802,0.9147668480096477,0.052963033748197726,0.787428690604812,0.7363057019515591,0.0,0.0,0.0,0.0
0.04073612001419278,-0.014340363200553324,0.8499641393705158,0.0025948534605094034,-0.5274628383307629,-0.0014229944152003556,0.8495729491941632,0.03126878404787275,0.4065211387105669,-0.6670585694004086,0.017077725500058892,0.2660431274325047,-0.5775507998724977,0.0416036310390091,0.6528728207851915,0.9107362241734853,0.05116961318472439,0.7851677443540994,0.7378124420044816,0.0,0.0,0.0,0.0
0.04001101379658547,-0.013668914730107718,0.8495517072363039,0.0024906391576606742,-0.5274128537532885,-0.0013337458546532797,0.8496044370966961,0.029784447974009896,0.4039261207070166,-0.6652936669767958,0.016350303235236435,0.2678176470371199,-0.5730634379341039,0.03866861618831555,0.6549074169136359,0.9044057671175906,0.04860149338204932,0.781441101506403,0.7406871822178434,0.0,0.0,0.0,0.0
0.03902486286842125,-0.012823185064879216,0.8490043212893874,0.0023584951744000287,-0.5273433880555495,-0.0012259217492582102,0.8496480952079344,0.02792415209357724,0.40022465017966596,-0.6624881602756546,0.015470469383822428,0.2701698510210274,-0.5678594238373054,0.03511182448198883,0.6572273388714746,0.8968198373705071,0.045356847121709,0.7764274360707921,0.744568101014796,0.0,0.0,0.0,0.0
0.03776179916165538,-0.011841768358326381,0.8483587188757552,0.002203432129670206,-0.5272600874102871,-0.0011055542732238991,0.8497003724023517,0.02577437293575009,0.39515691943700004,-0.6579964571330038,0.014449225072891703,0.2728399469306996,-0.562559275682135,0.031240318132634896,0.6596016317925424,0.8885189770872506,0.0415926500426531,0.7703049176859771,0.7491335135173132,0.0,0.0,0.0,0.0
0.03621677145638835,-0.010771178839335415,0.8476487765355041,0.0020303457938597395,-0.5271717898480521,-0.0009792739345104945,0.8497557429678954,0.02344107164412527,0.3885028418733371,-0.6512212897841858,0.013310210702050728,0.27581013788998326,-0.5576674651517527,0.02729100389250721,0.6619531289476855,0.8797639979028138,0.03750971282082558,0.7632666052767226,0.7541218450663076,0.0,0.0,0.0,0.0
0.034407534312247,-0.00966408827479543,0.8469074607881251,0.0018450964903962736,-0.5270951177460199,-0.000855063015608209,0.8498038605081115,0.021046263492969293,0.3801432621284434,-0.641680329467384,0.01209080528336455,0.2793513143649767,-0.5537021228848895,0.023472735305861456,0.6643476377623808,0.8706871855891476,0.03333065181781271,0.755563983967772,0.7593208113445489,0.0,0.0,0.0,0.0
0.032390686235907046,-0.008577345871889738,0.8461660336823608,0.001655493022984705,-0.5270618674246677,-0.0007429430309773581,0.8498249792076752,0.018723758217109247,0.37014775690101326,-0.6291157617031833,0.01084809583673027,0.28403891474431797,-0.5513474963587569,0.019992184439496373,0.667043696269915,0.8613998289939093,0.029277182445800038,0.7475486014718067,0.7645972322214984,0.0,0.0,0.0,0.0
0.030282920895027647,-0.007571297736773467,0.8454397949246796,0.0014704166954889128,-0.5271320244928985,-0.0006568575553319629,0.8497818750520111,0.016621939988387152,0.35891100584513946,-0.613713316130556,0.009687162241742181,0.29077179401220765,-0.551698194935461,0.017056123489811236,0.670600852238217,0.852110147984221,0.025559895371204358,0.7396619693679524,0.7700941968910572,0.0,0.0,0.0,0.0
0.028427215020753793,-0.006638238019816462,0.8446630140223772,0.0012890222079244723,-0.527288515157966,-0.0005973184470003006,0.8496851201562423,0.014740295158107677,0.3488056749435115,-0.5997474197184638,0.008471250503704876,0.3003776385821878,-0.5560210239441411,0.014453362883918604,0.6762139220387022,0.8430169336272164,0.022161513142599697,0.7322769577711828,0.7763742604067853,0.0,0.0,0.0,0.0
0.02713458027516421,-0.0058474600202488205,0.8439268662702158,0.0011311238803224735,-0.5276997863521712,-0.0005814529624065434,0.8494299959120191,0.013232604911149163,0.34136552691909866,-0.5885247582996423,0.007546628275456063,0.31405914632312476,-0.5671795121839237,0.012516986872964488,0.684680629201272,0.8343560229703112,0.019249657077574995,0.7268336489346572,0.7832114764998711,0.0,0.0,0.0,0.0
0.02660157419123598,-0.0053550708995111895,0.8434009687727335,0.0009916701579530086,-0.5284503743635484,-0.0006043711813809689,0.8489633991879736,0.0124084863594422,0.33733471768048523,-0.5801891015114328,0.007693622079979407,0.33214206159252296,-0.5894863571831549,0.012148520374045667,0.6952535580603231,0.8259653290741892,0.017609408890824088,0.7247693420404075,0.7896125049505143,0.0,0.0,0.0,0.0
0.02653226156674448,-0.005163688645313189,0.8433549197669196,0.000828244954913859,-0.528488867381685,-0.0006066925370461909,0.8489396109194599,0.012201724485396288,0.337228478345117,-0.5802102475430437,0.0076957840226055015,0.3321827281142912,-0.5894864613928159,0.012158840009277309,0.6952873766319967,0.8259756403899678,0.017561921141537238,0.7246913570011452,0.7895852600519685,0.0,0.0,0.0,0.0
0.02653226156674448,-0.005163688645313189,0.8433549197669196,0.000828244954913859,-0.528488867381685,-0.0006066925370461909,0.8489396109194599,0.012201724485396288,0.337228478345117,-0.5802102475430437,0.0076957840226055015,0.3321827281142912,-0.5894864613928159,0.012158840009277309,0.6952873766319967,0.8259756403899678,0.017561921141537238,0.7246913570011452,0.7895852600519685,0.0,0.0,0.0,0.0
0.027302798880362175,-0.004237892845339224,0.8438391460255745,0.0006734035249152396,-0.5282015084711009,-0.0004984983167386693,0.8491186398118782,0.010278083594055423,0.34460608003364784,-0.5929938204943499,0.005748534760730712,0.33589676684448444,-0.5946747459979411,0.00901389810391235,0.6982610405821944,0.8228354654678205,0.014394582004483542,0.7287772030731241,0.7811574823622217,0.0,0.0,0.0,0.0
0.029216245176345197,-0.002413293703250362,0.8457344785133754,0.00047508376215656806,-0.5287243832781502,-0.00015834448258187386,0.8487934234839378,0.006057472775798518,0.3573444856666749,-0.6057621159638039,0.0015112763219521036,0.3418047042709049,-0.5930295098416374,0.0029275547547398476,0.7119664254916064,0.8105612446847519,0.00833222591316661,0.7451378049568828,0.7581938580453133,0.0,0.0,0.0,0.0
0.030592426855522988,-0.000570485805875617,0.8467298577703688,-6.03801762252054e-05,-0.5278759872171109,1.323422528411063e-06,0.8493214576778592,0.004215144452104599,0.33645661597150606,-0.5761196091472217,-0.0020192497429599634,0.3482623454056668,-0.6028064523095698,-0.002513797835539471,0.7171772513161759,0.8027320143199198,0.003928038228475526,0.7232466441837869,0.7897870627913822,0.0,0.0,0.0,0.0
0.032519012657632435,0.00129883947982156,0.8476095950847657,-0.0005140336357243821,-0.5273103966876109,0.0002070914313537848,0.8496725477663232,0.0016260977667838846,0.3203498009793167,-0.5599053016715472,-0.005809674577861626,0.35780026046090097,-0.6166488213721026,-0.008257982707208738,0.7236592700294815,0.7967609687135284,-0.0007348063793524619,0.7077676951467478,0.8117283020218208,0.0,0.0,0.0,0.0
0.03459803032390228,0.003119189210690686,0.8484567723080776,-0.0008762512983073189,-0.5270237318940797,0.00039109094559962423,0.849850025152657,-0.0011224334745813082,0.30908824276854235,-0.5528802965804301,-0.009579088500010748,0.36758813174595434,-0.6295906697533596,-0.014454213999096483,0.7311120800058977,0.7916885479236927,-0.005330818861190519,0.6975565959130946,0.827778862772418,0.0,0.0,0.0,0.0
0.03661699809131287,0.004819406945787687,0.8493220999688025,-0.0011805004268913273,-0.5269460991678412,0.0005604637812183086,0.8498977002386155,-0.0036218541907485414,0.3014047517897532,-0.5512397820019774,-0.013150167596612396,0.37647975345668244,-0.6399120078937255,-0.020579929523195033,0.7391680758704829,0.7865982111169888,-0.009755244210304131,0.6907569718443503,0.840632506252591,0.0,0.0,0.0,0.0
0.038437228585692124,0.006353908478451214,0.8501825668543881,-0.001437611323389568,-0.5269767516388874,0.0007136605975129765,0.8498781837383289,-0.0056999680162425105,0.29602125097146587,-0.5527624959892142,-0.016403242841168106,0.3840153785629005,-0.647527020822188,-0.0263389891842474,0.7471781261083137,0.7813231865542084,-0.014059949517196402,0.6858901090434135,0.8516523101917921,0.0,0.0,0.0,0.0
0.039980044258069954,0.007688603449454286,0.8510049771320379,-0.001652824426805059,-0.5270528711426181,0.0008482331210059893,0.8498304652648723,-0.007321206769421635,0.2919449333022356,-0.556141268920117,-0.01924871800002698,0.39001443776780675,-0.6526497900796085,-0.03149107204667893,0.7546337928600303,0.7759799857835472,-0.018215188870966202,0.6820258690709675,0.8615675751284076,0.0,0.0,0.0,0.0
0.0412090289080879,0.008794910035863326,0.8517622322452011,-0.001827867778568466,-0.5271393952900505,0.0009609089229450994,0.8497763196786938,-0.008497212128328002,0.2884764893330687,-0.5605842400959291,-0.021612977624519643,0.3944666824614836,-0.6555991857520426,-0.0358382354230567,0.7612071034141887,0.770733292445868,-0.022130107184475258,0.6786100924651804,0.8707854145096078,0.0,0.0,0.0,0.0
0.042114311398014845,0.00964859261562669,0.8524331715920455,-0.001962793835473885,-0.5272179281859722,0.001048364031472816,0.849727194205592,-0.009248440715528359,0.28518915290734387,-0.5655666211073772,-0.023435512515727362,0.3974602306258334,-0.6567357568037366,-0.03922103508754387,0.7667000258999136,0.7657436122597414,-0.025688713010912488,0.6753395391593254,0.8795088780312597,0.0,0.0,0.0,0.0
0.04270016513750865,0.010230299640626862,0.8529979787708776,-0.0020571009074985274,-0.5272791868651338,0.0011078627610145416,0.8496888842834195,-0.00959693457062338,0.2819164858797538,-0.5706686598215033,-0.024669914364820952,0.3991275929791811,-0.6564291751328524,-0.04151935909465888,0.7709793764359103,0.7611863189743191,-0.028759451142744006,0.672086750573465,0.8877624402975308,0.0,0.0,0.0,0.0
0.04297584931680056,0.01052658814225816,0.8534334556034744,-0.00211015122055467,-0.5273184162682092,0.0011374310012543748,0.849664369840781,-0.00957303621810952,0.2787434937003727,-0.5754503830059506,-0.025285555675126282,0.3996054193325491,-0.6550350787481873,-0.04265710126202334,0.7739213364115239,0.7572899178406584,-0.031175377552588004,0.6688685026135486,0.8953518965983045,0.0,0.0,0.0,0.0
0.04294909791060514,0.010531190388947717,0.8537101666635383,-0.002121099796994703,-0.5273330207329171,0.0011356119865745576,0.8496552810203465,-0.009223316034346589,0.2759700736606291,-0.579336221205578,-0.025269307646440253,0.39900269003248723,-0.6528678105731127,-0.04261024473215999,0.775375536997638,0.7543651693612237,-0.03269871317413709,0.6658617887334095,0.9017540471992698,0.0,0.0,0.0,0.0
0.04262159988185814,0.01024647275267711,0.8537942638374955,-0.0020888285109348886,-0.5273218356228018,0.0011012551747065006,0.8496623480582689,-0.008608088911866102,0.27398322727339436,-0.5815009020993486,-0.024627515063719407,0.39736986593931894,-0.6501472073326597,-0.04141364585168579,0.7751619967635603,0.752788861805041,-0.03300965502669195,0.6634803049694203,0.9059172088142544,0.0,0.0,0.0,0.0
0.04198595193166634,0.009684264395117244,0.853660009322607,-0.0020132159046966245,-0.5272862296609924,0.0010353636867625965,0.8496847103447563,-0.007778199142164961,0.2729556823757032,-0.580801299676737,-0.02338903266520559,0.39465723455414115,-0.6468715223192486,-0.03914324077101842,0.7731299046289246,0.75287145655108,-0.03180906711948137,0.6624818279785273,0.9060569694634457,0.0,0.0,0.0,0.0
0.041022181304894594,0.008862672779403108,0.8533050350925664,-0.0018956201143328186,-0.5272226555056204,0.0009409164904809372,0.8497245393785812,-0.006757936468198629,0.27287487917675585,-0.5772659184180536,-0.021597256826974727,0.39069146818386635,-0.6427575041773251,-0.03588949642983895,0.7692178169157267,0.7546552424283709,-0.02915604673426939,0.6628336977444094,0.9021481595396587,0.0,0.0,0.0,0.0
0.039700305057966026,0.007806854846314727,0.8527507359640648,-0.00173870819148582,-0.5271214644734395,0.0008227570593413614,0.8497877744802067,-0.005543513958310345,0.27353917315557885,-0.5720986641332791,-0.019312233895353786,0.38518869814598466,-0.6372642681531272,-0.031763820689863984,0.7634622405646391,0.7579036190519506,-0.02546294831868295,0.663708109381214,0.8959235053479959,0.0,0.0,0.0,0.0
0.03798867255989859,0.0065539446711265804,0.8520283490948918,-0.0015456188827724733,-0.5269732618460876,0.0006875086438366285,0.8498801796097074,-0.004118836040685371,0.27452351176121553,-0.5661862088077324,-0.016622761940785814,0.3777988146462734,-0.6296837091968837,-0.026936596936028987,0.755956268597103,0.7622854561113399,-0.021161651691700284,0.6645999811805956,0.8883956372230111,0.0,0.0,0.0,0.0
0.035862562159167555,0.0051537583389232155,0.8511678998719813,-0.0013189059489682002,-0.5267684268170018,0.0005414467921746447,0.8500076422192979,-0.0024843240708482036,0.2754794259761091,-0.5601550577665126,-0.013645551998011563,0.36816954328565576,-0.6192917521032896,-0.02165751398427098,0.7468105651818929,0.7674996996364024,-0.01660710460154615,0.6652085912862369,0.8800788467534275,0.0,0.0,0.0,0.0
0.033316627989946154,0.0036677104341047467,0.8501968560208137,-0.0010613611578840876,-0.5264994366608403,0.00039033282479747713,0.8501747257761761,-0.0006731681317518061,0.2762669166697199,-0.5544623216574718,-0.010521491213246808,0.35601727837064695,-0.6054554226164078,-0.016238844829008132,0.7361756223276712,0.7732968529389949,-0.012087733399872432,0.6653629963773952,0.8712183404898213,0.0,0.0,0.0,0.0
0.030384083832255625,0.002165631276447284,0.8491392241236363,-0.0007776348155040389,-0.5261661774281169,0.00023929199203916033,0.8503813801783995,0.0012401449047802068,0.2769985582637319,-0.5494540947038115,-0.007405968280688149,0.3412431175767574,-0.5878015259747603,-0.011018823241288327,0.724284067903585,0.7795015543745009,-0.007839977229169313,0.6650461996408935,0.8619542481488072,0.0,0.0,0.0,0.0
0.027166558123175547,0.0007192345628996056,0.8480027470223199,-0.0004772136814436849,-0.5257820674815554,9.286356976515425e-05,0.8506191751649387,0.0031475873469529016,0.2780207235219737,-0.5453475280864443,-0.004450636897153764,0.32416476120263915,-0.5666318421830373,-0.006298103200995077,0.7114478171201918,0.786160790309533,-0.00399091944519397,0.6645479885074977,0.8524333966796176,0.0,0.0,0.0,0.0
0.02387694662487779,-0.0006135672445841238,0.8467277215402554,-0.00016751371333157634,-0.5253052482499987,-4.133692948297105e-05,0.8509138419319675,0.0050014518000816195,0.27958222719471315,-0.542132771846532,-0.001784715990491949,0.30621423000497966,-0.5447073114251132,-0.0022676994462861623,0.6977252764030427,0.7938247669959257,-0.00032135140011621413,0.6644796509548094,0.8428525923833374,0.0,0.0,0.0,0.0
0.020966601599685206,-0.001837179678433268,0.8453342299954986,0.00010691918805023078,-0.5247634249054864,-0.00015926110952775167,0.8512480902096933,0.006833042857587384,0.2817624044737106,-0.539005905866215,0.0006452929980756555,0.29061922203455975,-0.5272636685343361,0.0013826369307179992,0.6841924094313605,0.8023422928750228,0.0037102849634763446,0.666068222624296,0.8334382635664234,0.0,0.0,0.0,0.0
0.018651094167753124,-0.0028224220989384744,0.8440273987910387,0.0003131642500248866,-0.5242513179050313,-0.00023697618041564528,0.8515635040590221,0.008191683644101305,0.28434274996174397,-0.5366562522129236,0.0025732603566256595,0.27845282610115096,-0.5148417084851147,0.004382322289713165,0.6723875333874499,0.8104273547153203,0.00772450960548988,0.6689371223803233,0.8244126160054619,0.0,0.0,0.0,0.0
0.01723280489484246,-0.0034480114888854833,0.8431048014007969,0.0003976576855630245,-0.5238538348214403,-0.0002510251900878004,0.8518080409326917,0.008869790510805827,0.2862998133108947,-0.5356946825210135,0.003769775173353688,0.2712858578273066,-0.5084994631213424,0.006624431628517644,0.6644058784308149,0.8159735664880403,0.01117812632618315,0.6722473422803183,0.8162697900640875,0.0,0.0,0.0,0.0
0.017166027744834018,-0.0036148854857176588,0.8430419440806798,0.0005358960660538756,-0.5238637620371385,-0.0002420409916575704,0.8518018625571683,0.008883000113448414,0.2863401086720282,-0.5356969230525813,0.003935485602446968,0.2710997857688608,-0.5084962843415806,0.006649077333172717,0.6642438844727862,0.815897745252647,0.01116874855373678,0.6722978802202701,0.8162849690141678,0.0,0.0,0.0,0.0
0.017166027744831946,-0.003614885485716999,0.8430419440806817,0.0005358960660448497,-0.523863762037143,-0.00024204099165815295,0.8518018625571656,0.008883000113451377,0.2863401086720368,-0.5356969230525829,0.003935485602452162,0.27109978576895216,-0.5084962843417214,0.006649077333177562,0.6642438844727977,0.8158977452526673,0.0111687485537342,0.6722978802202775,0.8162849690141771,0.0,0.0,0.0,0.0
0.017166027744831946,-0.003614885485716999,0.8430419440806817,0.0005358960660448495,-0.5238637620371427,-0.0002420409916581528,0.8518018625571657,0.008883000113451377,0.2863401086720368,-0.5356969230525829,0.003935485602452162,0.27109978576895216,-0.5084962843417214,0.006649077333177562,0.6642438844727977,0.8158977452526673,0.0111687485537342,0.6722978802202775,0.8162849690141771,0.0,0.0,0.0,0.0
0.018593688392209224,-0.0043148159433166414,0.8439063795545996,0.0006382974683533612,-0.5245790052468783,-0.00028226967223873433,0.8513614861822031,0.010284911932288608,0.29199885306928336,-0.5377170325777315,0.005316906602951897,0.2798534995745523,-0.5168280689355551,0.0091337962802276,0.6733655063976537,0.8080264665463216,0.013783352913585685,0.6807631469753259,0.8122109667422213,0.0,0.0,0.0,0.0
0.021314845694174262,-0.005609454662603452,0.8458820463899589,0.0008279219988566674,-0.5261274948195341,-0.0005902702062998738,0.8504050948349077,0.013356855974108775,0.30165719169169686,-0.5370607916325078,0.008371380865273177,0.29524581670852135,-0.5284442835880748,0.012830024510135034,0.6931907012180049,0.7904371864021646,0.017665366704222217,0.6987947080144576,0.8012391316758851,0.0,0.0,0.0,0.0
0.02394710801462211,-0.006908029679208893,0.8471173656445493,0.0010740733111045072,-0.5261639692929715,-0.0006183702484999906,0.8503822325299507,0.01583271127637326,0.31621086312592256,-0.5559203068269728,0.009740735491298608,0.29264813317945937,-0.5279608663077465,0.014929651958434348,0.6842657994420154,0.8100907967846877,0.022641120874743476,0.7104183969733048,0.7921979416588254,0.0,0.0,0.0,0.0
0.026969929129039477,-0.00816283598687259,0.8481172819491579,0.0013106071851158281,-0.5261948170525406,-0.0007087821257714948,0.8503627428596268,0.018397846293491366,0.3335971477253245,-0.5802788349035926,0.011177912437450022,0.2888443035226795,-0.5302390407488208,0.017220287349020494,0.6775621509634419,0.8257402935368445,0.02731591608804676,0.7217071536139577,0.7850929739754015,0.0,0.0,0.0,0.0
0.03026748201055705,-0.009265130225205545,0.8488628312460138,0.0014921988306563889,-0.5261207858959818,-0.0008017328775956599,0.8504081662444437,0.020760638982010613,0.3532101705614992,-0.6097696914961407,0.01213162591051982,0.2853703090913415,-0.5341862956344839,0.019493214561313667,0.6736337446745098,0.8388151390065457,0.03168676784540193,0.7322793604409503,0.7795303048406137,0.0,0.0,0.0,0.0
0.03332081577067682,-0.010340406774107603,0.8496252445470256,0.001702124741947207,-0.5262344026592588,-0.0009218690857712357,0.8503373485779656,0.023104653370009023,0.3697477759312332,-0.6326472443420413,0.013282882178739446,0.2828220723579263,-0.5389547341994142,0.022216506675750154,0.6712528847635406,0.8505034706514284,0.03576456072066497,0.7428875008548467,0.7740706636290389,0.0,0.0,0.0,0.0
0.03596504993826606,-0.011388661697683516,0.8504251385484026,0.001919331517692976,-0.5264410734356412,-0.0010543403348210916,0.8502087983153982,0.025406228965074107,0.3829413985262735,-0.6491426189732389,0.014512286268435455,0.2808017132292014,-0.5442439423235236,0.02533854028745682,0.669304183859714,0.8612210786143737,0.039673697360773925,0.7530910035629286,0.7682632248668145,0.0,0.0,0.0,0.0
0.03813641892890352,-0.012387471712800597,0.8512278868209329,0.0021255361565138253,-0.5266728228165642,-0.0011845472149468628,0.8500645955751686,0.02759984544450263,0.3929792660641048,-0.6602510619380781,0.015687369262707865,0.2788999666454408,-0.5498689796006133,0.02870721939175556,0.6672707325930165,0.8711976776848598,0.04342046204918336,0.7624129070016636,0.7622929553318741,0.0,0.0,0.0,0.0
0.03983413387015271,-0.013300614562643406,0.851995754785837,0.0023091838432450777,-0.52689159189198,-0.0013027790382580853,0.8499283621754782,0.029598416383121537,0.40022911319507515,-0.6670480687799163,0.016706201407307393,0.2768358896936264,-0.555681608866195,0.03214185992744205,0.6649776660774271,0.8805896526724666,0.046890497741814134,0.7705492746462815,0.7564352819138018,0.0,0.0,0.0,0.0
0.04109221422998394,-0.014087567845970794,0.8526981135858235,0.002463519297736932,-0.5270791076631769,-0.001402640662090487,0.8498114955311159,0.0313105003020708,0.4051325744876021,-0.6705500464882277,0.017500370464041116,0.27448612855226345,-0.5615315502854312,0.03547937319712726,0.6624165102032744,0.8894847315043654,0.049912376413263994,0.7773544282550722,0.7509212162608165,0.0,0.0,0.0,0.0
0.041960143702091245,-0.01471034297054742,0.8533088994949142,0.0025846595853056876,-0.5272281641863522,-0.001479869346809012,0.8497185371699463,0.03265355604734877,0.4081442165939734,-0.6716870054537714,0.018031665347462613,0.27189918934564894,-0.5672256434250874,0.03856392452553573,0.659668868619881,0.8978610209193221,0.05231017284964314,0.7827716497117777,0.7459509485421462,0.0,0.0,0.0,0.0
0.042490230424397424,-0.015137658073106837,0.8538017207973361,0.002670118755908704,-0.5273368979152957,-0.0015314827004631135,0.8496507053628806,0.03356200921987674,0.40969174580133627,-0.6712985883187639,0.018289779808077417,0.26930802503888696,-0.5724694098229748,0.04120789971962858,0.6568939725923924,0.9055112241484189,0.053939624815877746,0.786766891038214,0.7417447272387866,0.0,0.0,0.0,0.0
0.04272945749453524,-0.015347499597880064,0.8541465247766112,0.002717760880722948,-0.5274057463246019,-0.0015550708185459632,0.8496077767266107,0.03399162239741449,0.41014573546099214,-0.6701214578224576,0.018290884863885717,0.26711277979988457,-0.5767868056561777,0.04314652933214239,0.6543661700611086,0.9119134246159922,0.054711760340688614,0.789284295570101,0.7385839871565042,0.0,0.0,0.0,0.0
0.04271407457949222,-0.015329026821301566,0.8543111002132598,0.002725483430856042,-0.52743686254582,-0.0015484836246426016,0.8495884474063629,0.033922135964773906,0.40978734739613526,-0.668737547906737,0.01807137561193147,0.2657695633946698,-0.5794220859498512,0.0440243397740545,0.652568522033493,0.9160212507380716,0.054604682735328244,0.7902385840590344,0.736803667811776,0.0,0.0,0.0,0.0
0.04246591537151872,-0.015083605304851111,0.854273436451174,0.00269306031811243,-0.527436935252446,-0.0015118355345476874,0.8495885716692207,0.03335980153141639,0.408760333543394,-0.6674292755543857,0.01766817232530264,0.2655023107172394,-0.5792712499128816,0.04350021224043603,0.6523136158866684,0.9160564469896229,0.05364300837378384,0.7895744848075791,0.7366677505480675,0.0,0.0,0.0,0.0
0.041988870457170466,-0.014621181596809934,0.8540363405213778,0.002622864520975499,-0.5274108948348983,-0.0014470981953094869,0.8496050697223796,0.0323272638489059,0.4070469461642283,-0.6661163692978451,0.017106211049425304,0.26633890663094817,-0.5763653231345297,0.04159356430571908,0.6536055341147897,0.9120165901230081,0.051867012664733134,0.7873261783648846,0.7381755546351564,0.0,0.0,0.0,0.0
0.04127188564269872,-0.01395963593826792,0.8536274342863882,0.002519552042460932,-0.5273608126981663,-0.0013580599129708326,0.8496366168904844,0.03086290618169025,0.40448832661457795,-0.6643944959671543,0.016395829539502305,0.2681204146476083,-0.5718844103274285,0.03868156658186296,0.6556453962338276,0.9056725596295225,0.04933045294596359,0.7836233535163516,0.7410536479310401,0.0,0.0,0.0,0.0
0.040297505898527576,-0.013127541817718327,0.8530847990640137,0.0023888121601104914,-0.527291318253861,-0.0012505707458876684,0.8496802900758489,0.029029929886711794,0.4008400888315576,-0.6616530267134959,0.01553912539015247,0.27048230523234984,-0.5666866945644357,0.03515567643412282,0.6579734349690463,0.8980721625930882,0.046129136831665155,0.7786433699821959,0.7449408719142466,0.0,0.0,0.0,0.0
0.03904971344827222,-0.012162903840661708,0.8524449756969936,0.002235654168651458,-0.5272079100223629,-0.0011306171700657477,0.8497326303991773,0.026913310526514897,0.395843042611505,-0.6572496197052444,0.014545857717552102,0.2731635797176313,-0.561388257357395,0.031320687354015234,0.6603593923563238,0.8897591489270693,0.042417181891177776,0.7725621488696438,0.7495169609717226,0.0,0.0,0.0,0.0
0.03752322587857084,-0.011111482745099698,0.8517414550281098,0.0020650073352775486,-0.5271191629963993,-0.0010047821049182992,0.8497882760779901,0.024617125991627197,0.38927823945032297,-0.6505926192367715,0.013437943421920595,0.2761438291576956,-0.5564868878159349,0.027410526922570115,0.6627265986715228,0.880998045412887,0.03839177777486026,0.7655692845300235,0.7545226637501664,0.0,0.0,0.0,0.0
0.035735418720336226,-0.010024988546881816,0.8510065860395175,0.0018828240377547652,-0.5270412806396202,-0.0008810064005586857,0.8498371416354513,0.022261046325681988,0.3810280748224371,-0.6412078666545318,0.012250086858529912,0.2796886921010424,-0.552490375822541,0.02362980364114,0.6651405317126676,0.871926248350735,0.03427087226876327,0.7579113694952748,0.759748586772684,0.0,0.0,0.0,0.0
