zhuoxili-jackie/tripod-support-walk/examples/pcbA样数据/trajectory_trotting_acc_f025.csv
root_pos_x,root_pos_y,root_pos_z,root_rot_x,root_rot_y,root_rot_z,root_rot_w,FL_hip_joint,FL_thigh_joint,FL_calf_joint,FR_hip_joint,FR_thigh_joint,FR_calf_joint,RL_hip_joint,RL_thigh_joint,RL_calf_joint,RR_hip_joint,RR_thigh_joint,RR_calf_joint,FL_foot_joint,FR_foot_joint,RL_foot_joint,RR_foot_joint
0.01,0.0,0.8259446621,0.0,-0.523845373591082,0.0,0.8518133742594206,0.0,0.27,-0.52,0.0,0.27,-0.52,0.0,0.6572093368,0.8119390607,0.0,0.6572093368,0.8119390607,0.0,0.0,0.0,0.0
0.011622779091526085,-0.0008923131546956576,0.8269137513217565,8.672614977776336e-05,-0.5246456697861045,2.1978333527296945e-05,0.8513206876202514,0.0016727365279321845,0.276530010242774,-0.5227221568665622,0.0016727365279321832,0.28039947204615023,-0.5303732605387353,0.0036365722516797216,0.6672927592396373,0.8030720719337171,0.0036365722516797276,0.6666143086707725,0.808069227433663,0.0,0.0,0.0,0.0
0.014757890456193766,-0.0028040948393016525,0.8295640401644655,0.00035988444945794773,-0.5262841170576007,-0.0005139418096631027,0.8503085525148508,0.006381801443502428,0.2868927926735844,-0.5195649835459516,0.006387626780073365,0.29899545111746895,-0.5450792425053984,0.008546704169597498,0.6921105587924534,0.7779200239174076,0.008577473797088737,0.6882504192349329,0.7928360483884818,0.0,0.0,0.0,0.0
0.01771449843453549,-0.004893259264715007,0.8310520998009892,0.000622008342415491,-0.5262622466523744,-0.0004060677000185857,0.8503219954599789,0.010133421867658195,0.3024284288944517,-0.5393711779619844,0.005010359279666322,0.2942135364392499,-0.5391947071498724,0.005825392859522737,0.6830115506268117,0.8018656257169687,0.017550082317135986,0.7015575316515581,0.7835686907900854,0.0,0.0,0.0,0.0
0.0211066310536311,-0.00714064029277656,0.8321174543713885,0.0008590935296834749,-0.5262298647821468,-0.0004390750803133628,0.8503418127922114,0.014581870358156244,0.3210486567219965,-0.5656791431697783,0.002376561577515299,0.28884653344392985,-0.5381453213376073,0.0011165633000079596,0.677134237186465,0.8205001287622791,0.027053095649121325,0.7134860042010807,0.7786044048278249,0.0,0.0,0.0,0.0
0.024829017614968685,-0.009382856857965924,0.8329201052767709,0.0010676518109390765,-0.5261262203115306,-0.0005542115205049959,0.8504056404269106,0.019290225545644576,0.3417468777451004,-0.5964718212135445,-0.0011403073527977625,0.28461829165162017,-0.539944815139448,-0.0038380881199071753,0.6745516078613819,0.8357027267037576,0.036663348516325155,0.7247109106069884,0.7756849719786185,0.0,0.0,0.0,0.0
0.028355579757639793,-0.011691278638436567,0.8337541095194413,0.0013122193544027442,-0.5261791800728799,-0.0007291691930257547,0.8503723989232516,0.02426863203699241,0.3593248400605646,-0.6204838246018209,-0.004309414298177886,0.28184890109714744,-0.543393071368172,-0.00773247534724662,0.6736076240381054,0.8490064946158082,0.0464675780178142,0.7361164501252433,0.7727104391828677,0.0,0.0,0.0,0.0
0.03149988007916532,-0.01404163397080438,0.834666967144795,0.001574985509214192,-0.5263248549588266,-0.0009332377340345563,0.8502815977901367,0.029397255547980217,0.37333545051357075,-0.6374234821394603,-0.006960225773802147,0.2799718830512056,-0.5478571972539314,-0.010482311667082245,0.673138619641939,0.8610323918541299,0.05653556600769079,0.7474641527438983,0.7689598703739022,0.0,0.0,0.0,0.0
0.03418483274712642,-0.016392407294723264,0.8356165703154574,0.0018312144637562904,-0.5264916619055937,-0.001139299638872161,0.850177557098402,0.03454179370873359,0.38399546192881256,-0.64843765329492,-0.00921057431075262,0.2784028092185142,-0.5529757480184307,-0.012377769910819101,0.6725886129823054,0.8721079617972037,0.06684862099634065,0.7582216477876397,0.7646294249222029,0.0,0.0,0.0,0.0
0.03640172283208351,-0.018693101644012566,0.8365518239069555,0.002065594262914625,-0.5266395396405937,-0.0013316187881576027,0.8500851459700302,0.03956890848014821,0.39170321748263803,-0.6547509589730097,-0.011253403882619783,0.27675665497963947,-0.5584827961387808,-0.01380055072142989,0.6717959413037693,0.8824475507837819,0.07723033224620099,0.7679883021277025,0.7601029404323008,0.0,0.0,0.0,0.0
0.03817989457986949,-0.020893659470763153,0.8374317071021773,0.002269931141610178,-0.5267506478889479,-0.001501989495488952,0.850015497734448,0.04435911104288104,0.3969233497153296,-0.6574779578338207,-0.013267789160423746,0.27486091796787826,-0.5641504662938921,-0.015076102701585003,0.6707684996032618,0.8921792578860386,0.08743076161006251,0.7765362602354176,0.7557212122542217,0.0,0.0,0.0,0.0
0.03956583252105352,-0.022951087791497647,0.838224305169776,0.002440307977217548,-0.5268192621674501,-0.00164642336037291,0.8499722343679458,0.04881591592478118,0.4001259436590166,-0.6576028179191598,-0.015380921840124085,0.2727444294705524,-0.5697332156556113,-0.016462663745507266,0.6695895720353144,0.9013068420305851,0.0971996614787945,0.7837515326641198,0.7517688431292237,0.0,0.0,0.0,0.0
0.0406094834668142,-0.024832859902858127,0.8389011040873894,0.002574957954419043,-0.5268450814133417,-0.001763002683967494,0.849955599783682,0.05287006087981485,0.4017471215239123,-0.6559876407638292,-0.01765621574437711,0.2706325425434391,-0.574899557933412,-0.018196684016708303,0.6684024901481885,0.9096337431034982,0.10633327104475736,0.7895642403857669,0.7485238022416157,0.0,0.0,0.0,0.0
0.041355531408314626,-0.026518150516155897,0.8394322118618501,0.0026728699007145503,-0.5268296233535567,-0.0018505694555573844,0.8499646928645528,0.056479982975361866,0.4021606955210815,-0.6533736652152355,-0.020096688991014654,0.268920392836986,-0.5791456671199171,-0.0205454887854808,0.6674487860842984,0.9166331419083635,0.11469840976840884,0.7938966431665653,0.7463047628892929,0.0,0.0,0.0,0.0
0.041837877084933126,-0.02799811793564318,0.8397863918427669,0.0027332511403090776,-0.5267752937414155,-0.0019082156582922684,0.8499980458535482,0.05963055658864822,0.40165006849000734,-0.65034526314452,-0.022662751646930174,0.2680572250583766,-0.5816941335490515,-0.023824755766694128,0.6671643509963947,0.9212375686729412,0.12223847353558427,0.7966477318408901,0.745470990568415,0.0,0.0,0.0,0.0
0.0420762678819123,-0.02927570940988236,0.8399423840566396,0.0027568587980212034,-0.5266881690075884,-0.001937068975148482,0.8500518926046734,0.06233234231164406,0.40036384817009296,-0.6471963935896183,-0.0253089083297635,0.26825776571947196,-0.5814260613547447,-0.028310796563204732,0.6683110207637937,0.9216359764103907,0.12894960831355018,0.7977482517765436,0.746304699672647,0.0,0.0,0.0,0.0
0.04207269762455715,-0.030363460623652874,0.8399040271757604,0.0027451751672282923,-0.526571652771915,-0.0019383295606748086,0.8501241094033677,0.06461184625503227,0.39828637878903433,-0.6438596712450952,-0.02801443858039187,0.2695412624919508,-0.5783619932857718,-0.033965077556866896,0.6708604595360929,0.9178240674988742,0.13486520382795242,0.7972225237535652,0.7488163777748051,0.0,0.0,0.0,0.0
0.04181408468835921,-0.031282160379858225,0.8397000909603148,0.0026997139284552565,-0.5264255094164303,-0.0019129541850894537,0.8502148170825077,0.06650843075797536,0.39525485931255616,-0.6399404067422252,-0.030798892382650864,0.2717418593956947,-0.5736753333476928,-0.0404585367384435,0.6740047684290992,0.9116120021193809,0.14004679604267015,0.795190841328161,0.7527380065689401,0.0,0.0,0.0,0.0
0.04128033501003353,-0.03205942096159133,0.839368423064733,0.002621573338215332,-0.5262511715491366,-0.0018629844617277234,0.8503230921745504,0.06807587419009375,0.3910197779538584,-0.634848332006506,-0.03372236294633343,0.274485187062646,-0.5682190135728663,-0.04747596372759952,0.6772790836196508,0.9040929717734671,0.14458422890734102,0.7918113567689157,0.7577123976689205,0.0,0.0,0.0,0.0
0.040451448972187345,-0.032725955167929276,0.8389434340876701,0.002509454716110468,-0.5260494933029711,-0.0017892300582791946,0.8504483710893411,0.06937440474420394,0.38531859155353493,-0.6279844293646656,-0.036872169001164176,0.2774921185100218,-0.5625958881836249,-0.054844171169133975,0.6804431192496254,0.8958629503833921,0.14860711628836418,0.7872280470281511,0.7634180142431021,0.0,0.0,0.0,0.0
0.039317057007411955,-0.03331155298872456,0.8384544188290105,0.002359182670305735,-0.5258222630884474,-0.0016904742142139983,0.8505895156857994,0.07046277561833902,0.3779406291291854,-0.6188484088756915,-0.04035599867962803,0.28070926731336865,-0.5572712114524437,-0.06260142276799953,0.6834180807377145,0.8872567244815589,0.15227950916276098,0.7815901748387073,0.769581752336602,0.0,0.0,0.0,0.0
0.03789036088053615,-0.03384001685324639,0.8379279294234655,0.0021629397510215566,-0.5255756870480274,-0.0015619118303849086,0.85074266338715,0.07138693909966656,0.368814820823884,-0.6071616727764778,-0.04428933291922957,0.2843444614139459,-0.5526805554456019,-0.07111313862847354,0.6863147474247013,0.878522462425753,0.15579934558214698,0.775110525891473,0.7759504975212002,0.0,0.0,0.0,0.0
0.03622900831439018,-0.034321485849491275,0.8373893409831588,0.0019077270611933665,-0.5253257478696602,-0.0013922540826874523,0.8508979262116058,0.07216230367692324,0.3581566407797074,-0.5930912985668376,-0.04876395382380137,0.2888644697324911,-0.5493364687325141,-0.08129825536287501,0.6895563588770226,0.8699688273548781,0.15940458198550866,0.7681414564357232,0.782275008350784,0.0,0.0,0.0,0.0
0.034465229698399616,-0.0347405195798559,0.8368559128646959,0.0015736214836754097,-0.5251011219930621,-0.0011592257224761367,0.851037597050082,0.0727466294004003,0.34673439252577204,-0.5777347543652314,-0.05379549284923316,0.2949469131450027,-0.5479316788253695,-0.09496083476528541,0.6940884504483877,0.8620807171278196,0.16337594118811855,0.7612220673520047,0.7883740508311068,0.0,0.0,0.0,0.0
0.03284392194935073,-0.03503433305284368,0.8363010469787998,0.0011146860829433784,-0.5248573827783787,-0.0008088385148202918,0.8511890688902343,0.07299188995125558,0.33658057054096535,-0.5649910601985427,-0.05935699943552926,0.30312231086368574,-0.549465578033938,-0.11483356304488482,0.7012085523627329,0.8554853406487235,0.1680686010895147,0.7548121422628772,0.7942020805485631,0.0,0.0,0.0,0.0
0.03170828207309109,-0.03514235999885885,0.8358552764228592,0.0005533093956171897,-0.5247176153075043,-0.0003509567230215368,0.8512760979048437,0.07279381518175924,0.32983390096467924,-0.5573565079443387,-0.0648994703032064,0.31417517391933186,-0.5559309157763231,-0.14238961162937785,0.7118440295546298,0.851042765853974,0.17337858498494313,0.7506533061409911,0.7986492725898207,0.0,0.0,0.0,0.0
0.031233140974576665,-0.03512777717229796,0.8356913927057783,1.984113331169227e-06,-0.524821471036578,0.0001228440395750361,0.851212316901258,0.07234272703375304,0.32694343367955986,-0.5539395688662464,-0.068651156141694,0.32823583053249195,-0.5711885818340829,-0.17115182374479854,0.7237127043828289,0.8490669236260373,0.1788352537437387,0.7501182911677012,0.8005998292188732,0.0,0.0,0.0,0.0
0.03120017404998223,-0.035073311609522526,0.8356766043845189,-6.081739476707909e-05,-0.5248217916211096,0.0001230822647602592,0.8512121170375861,0.07229566611916527,0.32686421046744246,-0.5539416348088301,-0.06868142140858169,0.3282742853050323,-0.5711854844621115,-0.17116059072888054,0.7237468005546839,0.8490785598602035,0.17885132620312957,0.7500321914870843,0.8005653859801328,0.0,0.0,0.0,0.0
0.03120017404998223,-0.035073311609522526,0.8356766043845189,-6.081739476707909e-05,-0.5248217916211096,0.0001230822647602592,0.8512121170375861,0.07229566611916527,0.32686421046744246,-0.5539416348088301,-0.06868142140858169,0.3282742853050323,-0.5711854844621115,-0.17116059072888054,0.7237468005546839,0.8490785598602035,0.17885132620312957,0.7500321914870843,0.8005653859801328,0.0,0.0,0.0,0.0
0.031920332017527225,-0.03529049361884161,0.8359439126586063,-3.5221043785206947e-05,-0.5250544881843199,8.133162217998498e-05,0.8510686086222117,0.07285137726810681,0.33031445453945535,-0.5572712062303826,-0.06823149516445196,0.33286509321858415,-0.5769030998098112,-0.17123421250526064,0.7274349172625548,0.8466754145489197,0.18048309623275602,0.7535921753124516,0.7988854310839386,0.0,0.0,0.0,0.0
0.03345567383363556,-0.03576846902173972,0.8367218586274299,0.00020616393630889292,-0.5261282098470356,-0.000623711984717832,0.8504050066191668,0.07504238809933667,0.3353999459289277,-0.5555721512877076,-0.06611317970718239,0.3409433427497996,-0.583560731089294,-0.1766742862257766,0.7388735349678301,0.8413956115301333,0.18044317852729547,0.7626926285973981,0.7948587756659325,0.0,0.0,0.0,0.0
0.03470704872254837,-0.036500661003205565,0.8374843226895191,-0.0005843921804169466,-0.5256236896451771,0.0003046104419552912,0.8507169344629555,0.0672762201852092,0.323231997633889,-0.5440753385911418,-0.06580426557347954,0.35067422806882753,-0.597566321083537,-0.16283429255380974,0.742219805082374,0.8305028067340293,0.1465670297566148,0.740215370885345,0.8144415183539168,0.0,0.0,0.0,0.0
0.03613190431489125,-0.037326888865576675,0.8382008213774613,-0.0012932184617539498,-0.5254796017609213,0.0010069844703054734,0.8508046201693256,0.05568322664109854,0.3131585030331656,-0.5398559606134365,-0.06490449916688679,0.3607933029209951,-0.6109505700042802,-0.15099309533959265,0.7471554193240577,0.820752802690995,0.10976302741354158,0.7218714645839719,0.8284048682999953,0.0,0.0,0.0,0.0
0.03761892924336235,-0.03833529616530666,0.8388666324130354,-0.0017278938442906215,-0.5256451286314247,0.0013020251405746303,0.8507011918761189,0.04382249733953704,0.3058291506555399,-0.540069474831865,-0.06306674779277663,0.37112446909215896,-0.6242750196390635,-0.14246097970485408,0.7536548016975134,0.8119517070042815,0.08002823279147016,0.709524746059675,0.8395433202676834,0.0,0.0,0.0,0.0
0.0389680679369084,-0.039538949623559964,0.8394704925765801,-0.0019739388158237395,-0.5259601732253042,0.0013706155551556694,0.8505058031309131,0.03312818568116219,0.30042209541834114,-0.542865713273224,-0.06053482784655417,0.380709519143446,-0.6364521564949244,-0.1352411101577233,0.7604300544081641,0.8037265973041283,0.05734306377864582,0.701199869671456,0.8493402489553237,0.0,0.0,0.0,0.0
0.04003548186333958,-0.040945910609403426,0.8399992216840944,-0.0021163022569275296,-0.5263077142672135,0.0013477209605001017,0.8502904767288596,0.02396559812597812,0.29609450028904194,-0.5471424021241473,-0.05747154626264139,0.38889075847659615,-0.6467644940886214,-0.12781323138632833,0.7664914467998937,0.7958673435479234,0.039529855280819134,0.6949327287967275,0.8583310061029161,0.0,0.0,0.0,0.0
0.040744745840690474,-0.04256914887647558,0.8404459506089059,-0.0022027890743919936,-0.5266327058834563,0.0012999342459598753,0.8500890841465493,0.016214285266310437,0.2922267270435434,-0.5522552917187353,-0.05393255922780816,0.3953492345943603,-0.6548714310741862,-0.11936715406756103,0.7713259790201921,0.7882833241212106,0.024666474785188602,0.6894104302695077,0.866752710684866,0.0,0.0,0.0,0.0
0.04106922516002289,-0.044427222265747766,0.8408044395366694,-0.002251896581457114,-0.5269162215438792,0.0012467458390788824,0.8499133309111705,0.009599125171512294,0.28840260965953685,-0.5578029224878758,-0.04990150732371717,0.40002437478871194,-0.6607754150321988,-0.10959589056656516,0.7747396809567092,0.780960238574157,0.011521140495126557,0.6839095892633361,0.8747305123374559,0.0,0.0,0.0,0.0
0.041011356411332446,-0.04654285998094159,0.8410637556717322,-0.0022685234162681148,-0.527152455664206,0.0011886083182481159,0.8497668677343057,0.003844275197076452,0.284377738816031,-0.563495199816697,-0.045332977446026,0.4030106004696905,-0.6647203781539526,-0.09841817677233845,0.7766740001762428,0.7739364329399625,-0.0005332757857810441,0.6781056127494662,0.8823099263189045,0.0,0.0,0.0,0.0
0.04058741658249968,-0.0489392171165524,0.8412054817040127,-0.002251327250561271,-0.527341060923229,0.0011187286901361802,0.8496499781887198,-0.0012661337774858908,0.28009950949079815,-0.5690573353034464,-0.04017489986355935,0.404467034222841,-0.6670639716814202,-0.08586610456523963,0.777109621063351,0.7673192363302421,-0.011747060845610972,0.6719265918744588,0.8894301845477569,0.0,0.0,0.0,0.0
0.03981711744489477,-0.051636684985784435,0.8412025238636351,-0.0021975929316845285,-0.5274820198605243,0.0010306295263324044,0.8495627270025136,-0.005885235218851554,0.27572054810281,-0.574144634942189,-0.0343840607916327,0.4045594229947495,-0.668196729373409,-0.07201044746938966,0.776001355127872,0.7612955030130236,-0.02212553338944795,0.6654697123149832,0.8958535056643838,0.0,0.0,0.0,0.0
0.03871731236354218,-0.05464910506609679,0.8410196410272093,-0.002104478478403497,-0.5275750417856169,0.000919724904516082,0.8495053269764343,-0.010122355054143974,0.2715845419605003,-0.5782505886794078,-0.02793474368046596,0.4034182682575529,-0.6684715440745062,-0.05695413362859979,0.7732559046896614,0.7561400822448299,-0.03149458703584164,0.6589971458660014,0.9010388555707658,0.0,0.0,0.0,0.0
0.037298196496341064,-0.0579794127226736,0.8406180140732823,-0.00196880661180533,-0.5276215431996403,0.0007822725068720247,0.8494769090457259,-0.014060972291140547,0.26811761138214163,-0.5806066741788078,-0.02082498571830809,0.4011008440350257,-0.6681150311294812,-0.04085546277488806,0.7687499202362457,0.752189546516471,-0.03955245909087022,0.6530106140520838,0.9039360834848552,0.0,0.0,0.0,0.0
0.035560391685474674,-0.06161620302409245,0.8399697958080231,-0.0017892026262785383,-0.5276266269089319,0.0006177041242700577,0.8494742843501972,-0.017762093576079344,0.265532670098419,-0.5801187856864557,-0.013085583659860855,0.3975456197499023,-0.6670795531564863,-0.023911288326954484,0.7623980357371118,0.7497019873562284,-0.046003624612683744,0.648354508438373,0.9027796827342224,0.0,0.0,0.0,0.0
0.03349080852595016,-0.06553624815671125,0.8390738352969586,-0.0015718053266711102,-0.5275881106884444,0.00043444926083138107,0.8494987499355444,-0.021278891092435553,0.2638353585676614,-0.5768456977865167,-0.004781664784245897,0.39255374882748156,-0.6649949889113748,-0.006272113071594278,0.7541926913158219,0.7486403728129752,-0.05087642212969824,0.6450723197087832,0.8975572183390441,0.0,0.0,0.0,0.0
0.03106592145794026,-0.06970234458882474,0.8379556965825925,-0.0013299963876238913,-0.5274968317966469,0.00024845222021898365,0.849555920364047,-0.024673524320784488,0.2628226591834187,-0.5720000338869579,0.003983185951735999,0.3858078907047232,-0.6611998037186932,0.01191670979800543,0.7442243181544861,0.7486727386274196,-0.054558144313054044,0.6423981725214156,0.8899857458951836,0.0,0.0,0.0,0.0
0.02826171937638499,-0.07405451850717959,0.8366542679534142,-0.0010789415276684171,-0.5273479080149114,7.635288471371958e-05,0.8496487591750567,-0.02803616465666445,0.2620797135157542,-0.5664709639377027,0.013054515855873808,0.37691665156972537,-0.6548179191232084,0.03039314940941367,0.732671219829882,0.7493862418725654,-0.05752821606718482,0.6398797060297575,0.8810493299297663,0.0,0.0,0.0,0.0
0.025063058905168162,-0.07850644388865334,0.8352110531979521,-0.000833790279435251,-0.5271402331788161,-6.771189983482769e-05,0.8497778973196772,-0.031507641957055396,0.2612909845941098,-0.560888806444649,0.022223896111867807,0.36548059172929354,-0.6449124368293349,0.04875797632615031,0.719755946319593,0.7504333434822379,-0.06028387717472254,0.6372628727375818,0.8712194466189073,0.0,0.0,0.0,0.0
0.021475867345178118,-0.08294393688752053,0.8336671564218245,-0.0006101375595419417,-0.526877073068023,-0.00017215132732772086,0.8499412614830227,-0.03526878925949484,0.26037888983401364,-0.5557200802256681,0.031228980408806638,0.351162704368457,-0.6306059747395061,0.06650772290722756,0.7057393292857609,0.7515944930594164,-0.06339374752890706,0.6344019349625794,0.8606733960151621,0.0,0.0,0.0,0.0
0.017544632810780003,-0.08722464459414402,0.8320538685253784,-0.00042493801597500797,-0.5265666255415681,-0.00022623735984440436,0.8501337289568657,-0.039493828742919124,0.2595414020770462,-0.551341186881693,0.03975602816377691,0.3338041419713775,-0.6113031456718594,0.08309145709509005,0.6908811312969245,0.7529079649467532,-0.06759162074643098,0.6312394958948598,0.8494292121071401,0.0,0.0,0.0,0.0
0.013376963290180097,-0.0911792069767507,0.8303513400073863,-0.0002955340227478595,-0.5261975929761993,-0.0001754991445770655,0.8503622610427545,-0.044365760476956104,0.25920915833690295,-0.5483393934759812,0.047359759835576054,0.31372402393670573,-0.5874462278878205,0.09814104456985948,0.6751276271539004,0.7550079388252954,-0.07363038741041839,0.627807986791659,0.8375317522564111,0.0,0.0,0.0,0.0
0.009465466270605589,-0.09476521836041432,0.8284883499644993,-0.00021752145820721548,-0.52570858326014,-0.00010661686259161304,0.850664697048065,-0.04989630225098554,0.25950246681456635,-0.5456284945175319,0.0541827944326917,0.29443140811640073,-0.5656191917270327,0.1113263196914528,0.6590167134465295,0.7587751017983141,-0.0829448921614994,0.625122417410023,0.8248531255186639,0.0,0.0,0.0,0.0
0.006049907135298567,-0.09777494165341055,0.8265670579252176,-0.00018269681763490996,-0.5252031459074691,-2.3493465799649354e-05,0.8509768631395495,-0.05608316597128549,0.2607440504523079,-0.5437559077477638,0.059845283825274716,0.277254631249353,-0.5471950078890389,0.1220899557110183,0.6434941695300412,0.7644779673186235,-0.09694931251333383,0.6229929080153194,0.8112462199675119,0.0,0.0,0.0,0.0
0.003366167485651981,-0.09997486701586569,0.8247381799224595,-0.00015518332620575583,-0.5247641060443415,3.192641613981111e-05,0.8512476771811611,-0.06225521509840887,0.2626196701426347,-0.5433923686027283,0.06396839582156554,0.26357947758037664,-0.5336562713922626,0.12955595035936956,0.6296992872727323,0.7721087684992614,-0.11574179573204393,0.6211970155861413,0.7963622345666175,0.0,0.0,0.0,0.0
0.001756669060953139,-0.10118299810213961,0.8233312932342226,-8.915324238924471e-05,-0.5245150943329764,4.954361625918249e-06,0.8514011439057517,-0.06673575098279858,0.2644634863337862,-0.5448567198529576,0.066292004883659,0.25535146999676506,-0.5265842369464988,0.13304388314605511,0.6200140609251551,0.7799602073300616,-0.13442231423936415,0.6208328129935831,0.7808688568244251,0.0,0.0,0.0,0.0
0.0016795374784952268,-0.10146088985401551,0.8232108540566728,0.00010801974767533505,-0.5245447192595591,2.3007123191929153e-05,0.8513828899498255,-0.06677776195715705,0.264506716951567,-0.5448618282762568,0.0665899912775764,0.255100548400596,-0.5265929381642803,0.1331240281284226,0.6198105363841029,0.7798531598872042,-0.13445109501582722,0.6208857097745615,0.7808803600685452,0.0,0.0,0.0,0.0
0.0016795374784945767,-0.10146088985401545,0.8232108540566733,0.00010801974767104297,-0.5245447192595606,2.3007123191013592e-05,0.8513828899498246,-0.06677776195715146,0.2645067169515696,-0.5448618282762534,0.06658999127758147,0.25510054840062923,-0.5265929381643326,0.1331240281284353,0.619810536384101,0.7798531598872129,-0.13445109501580874,0.6208857097745665,0.7808803600685498,0.0,0.0,0.0,0.0
0.0016795374784945767,-0.10146088985401545,0.8232108540566733,0.00010801974767104297,-0.5245447192595606,2.3007123191013592e-05,0.8513828899498246,-0.06677776195715146,0.2645067169515696,-0.5448618282762534,0.06658999127758147,0.25510054840062923,-0.5265929381643326,0.1331240281284353,0.619810536384101,0.7798531598872129,-0.13445109501580874,0.6208857097745665,0.7808803600685498,0.0,0.0,0.0,0.0
0.0033248605197789115,-0.10314190464380575,0.8240999476017028,0.00025588072458334026,-0.5253727831322765,2.657405825878725e-05,0.8508721246830925,-0.06358415664213633,0.2707244895472729,-0.5469695905068573,0.06987956612312833,0.2664662823728091,-0.5390124163997533,0.14037667118100014,0.6299864839119633,0.7685932314115275,-0.12972326229492598,0.6286123237035016,0.7816535765806443,0.0,0.0,0.0,0.0
0.006660037723312324,-0.10648902322899248,0.8271478624638354,0.00045799373205322394,-0.5271590513116488,-0.0006622780513252004,0.8497662538896955,-0.05557898782440686,0.2813242851357836,-0.5416598766020739,0.07795217510622028,0.2868095875791495,-0.5545590909301618,0.15286955199504573,0.6584945092996193,0.7340297108416847,-0.1221129556320339,0.650654786516131,0.7695301388022572,0.0,0.0,0.0,0.0
0.009896381410697971,-0.10976210324006679,0.8296754155845036,0.000641936628445354,-0.5269961355956171,-0.0002613421513890979,0.8498673971184745,-0.05018807453509742,0.2969412553709475,-0.5585398652553827,0.07359490976651457,0.28268648211251823,-0.545178330167702,0.13458010495563985,0.6496588851778877,0.7696718521754942,-0.10836630482469277,0.6688285339876605,0.7554734208834774,0.0,0.0,0.0,0.0
0.013634419425957077,-0.11335122599728223,0.8315966363802418,0.0007240988215859064,-0.52691461236614,-5.149111380984366e-05,0.8499179162157968,-0.04364414319154375,0.3159482401074244,-0.5826830336449478,0.06653958662975809,0.2782352142293263,-0.54196004304223,0.11301943106612561,0.6460743480928403,0.7964368541576681,-0.09348369267478043,0.6847801065720969,0.7480837255857353,0.0,0.0,0.0,0.0
0.01768024239992987,-0.11719274519871263,0.83280496166065,0.0008182585115527732,-0.5268733864339717,-2.665003069911528e-05,0.8499433889444536,-0.03617041315985502,0.33669842925862137,-0.6116742777442977,0.05890793850586819,0.2746266883442592,-0.5430320723589095,0.09464721354153109,0.645712621401131,0.8163278670202372,-0.07800856560472864,0.6974164252319597,0.7483217570500723,0.0,0.0,0.0,0.0
0.021655221183911576,-0.12115164085094629,0.8338201192902195,0.000970282467527222,-0.5268608934336229,-0.00014612409288393917,0.8499509610383456,-0.0281085444070697,0.3557349528876459,-0.6376526030262815,0.05164037649116192,0.27240506815882004,-0.5463508566797562,0.0810206117719265,0.6464689202397679,0.8325070659857963,-0.06226484869842458,0.7090236940802455,0.7502191685827987,0.0,0.0,0.0,0.0
0.025330548648039342,-0.12515214309261752,0.8349130036969076,0.001196877677675797,-0.5269702413023684,-0.0003405553844873288,0.8498828250338858,-0.019765176206752923,0.37139905498361164,-0.6565096234038339,0.04537384914959496,0.27135093706308233,-0.5506995991028019,0.07145841167675823,0.6475964071744311,0.8465225367328273,-0.04636073009791995,0.7209115228788588,0.751062681973295,0.0,0.0,0.0,0.0
0.02858651151724629,-0.12913860489480428,0.8360884999816891,0.0014595252297612883,-0.5271272030115416,-0.0005667644686242789,0.8497849495074444,-0.01133683647915887,0.3836368672447604,-0.6688173402048241,0.04009919660214416,0.27076042988525756,-0.5557001252971324,0.06457198471461141,0.6485792923974024,0.859100243876611,-0.0301540448820088,0.7327842853298556,0.7504928757945241,0.0,0.0,0.0,0.0
0.03138398872479153,-0.13305535923292536,0.8372869181854468,0.0017275800055793558,-0.5272767198076277,-0.0007974359459307237,0.8496914971400766,-0.002995759644314845,0.3927379525296358,-0.675780741304369,0.03551847041002886,0.2701116936245343,-0.5610972885808226,0.05910928410028644,0.6493063142849832,0.8706339660426251,-0.013693713928621468,0.7441222507834854,0.7489341251288935,0.0,0.0,0.0,0.0
0.03373406029230677,-0.13684796082887,0.8384475333296337,0.001981234643725617,-0.5273900457462732,-0.0010171149101063453,0.8496203739519727,0.005108562005034361,0.399120048092165,-0.6786078396750862,0.031276610976486055,0.2691597408338795,-0.5666720372059456,0.054184836493797815,0.649824331570931,0.8813588926927659,0.0028192952992029813,0.7545227124836261,0.7469118517322075,0.0,0.0,0.0,0.0
0.03567394330405821,-0.14046920113076825,0.8395216243898814,0.002208929059151922,-0.5274552622381482,-0.0012177056578335675,0.8495790629262404,0.01285596338184776,0.4032428324181659,-0.6783895267097999,0.02707856740091754,0.2679108633411664,-0.5721810302446969,0.04923208711067575,0.65023405316028,0.8913555429585699,0.01912182734613445,0.7637257302347733,0.7448884666063154,0.0,0.0,0.0,0.0
0.037250083202456,-0.14388350827432606,0.8404697780483382,0.002404128500183042,-0.5274690917824426,-0.0013949721323727319,0.8495696742663956,0.020160130598066713,0.4055531810858309,-0.6760814993037579,0.02273298193770079,0.26659267189653874,-0.5772892903109147,0.04386375059563839,0.6506818617086284,0.9004866112371089,0.03496481838726355,0.7715600796306549,0.7432759479428108,0.0,0.0,0.0,0.0
0.038506810887768576,-0.14706887977704738,0.8412565331654799,0.002562812072352384,-0.5274319844082185,-0.0015462406091570863,0.8495919861659885,0.026969257438810696,0.4064450693799871,-0.6724980743899417,0.018152718060603742,0.26560967669474084,-0.5814851084746588,0.037738974157039605,0.6514069500055049,0.9082733319712356,0.050162085786374336,0.7778862037418434,0.7424833844794735,0.0,0.0,0.0,0.0
0.03947879313168097,-0.15001705184877573,0.8418489978533271,0.00268219109169535,-0.5273463406748727,-0.0016693527903074588,0.8496445469071346,0.03326384859576062,0.4062231187550046,-0.6682747507030935,0.01332855679722474,0.2654185475167605,-0.5839792136146562,0.03049540218875911,0.6528398742142337,0.9136894426279542,0.06461019135586063,0.782570704107534,0.7429258236599725,0.0,0.0,0.0,0.0
0.04018608204278473,-0.15273218894193685,0.8422266454453072,0.0027617491822517003,-0.5272187030184723,-0.0017642587885724672,0.8497233075065678,0.03905339084319185,0.40505445693671704,-0.66373960284423,0.008280864392696052,0.26623547602314046,-0.5836363122558977,0.021821283827544526,0.6557263829074075,0.9149566486073998,0.07826606283773499,0.7855297244271338,0.7449161130877401,0.0,0.0,0.0,0.0
0.040629790727499795,-0.1552259120237716,0.8423944101213962,0.002802103146558566,-0.5270529522443683,-0.0018311338252324338,0.8498258531589669,0.04436059377101006,0.4029421625149133,-0.6588592537066115,0.0030180431278304413,0.2680733629192064,-0.5804612917701704,0.011764775300768996,0.6599973489357788,0.9120599808779345,0.09112387683233954,0.7867784085495644,0.7484836234966553,0.0,0.0,0.0,0.0
0.040794505350779865,-0.15751544356986524,0.8423821563732873,0.002803961112488774,-0.5268494631858864,-0.0018699910634699306,0.8499519304503316,0.04921623013688822,0.39973962752982656,-0.6532698029293907,-0.002491164774874816,0.2707550067095259,-0.5756153940280142,0.000694345752519079,0.6647853374931164,0.9067703001116099,0.10319931665939741,0.7864277309215485,0.7533724876521631,0.0,0.0,0.0,0.0
0.04065660853875415,-0.15962277978631403,0.8422293348182315,0.002767303939640324,-0.5266106154560483,-0.0018816933451517824,0.8501000299659226,0.053660500444779206,0.39520689144933135,-0.6463986947414991,-0.008330215094552708,0.27389189306914663,-0.5699392797589022,-0.01106121080880867,0.669567704441065,0.9001553972143349,0.11452626309994272,0.7846268523111384,0.7592279774253881,0.0,0.0,0.0,0.0
0.04019223690655617,-0.16156947655068563,0.8419718637880956,0.0026890602354813615,-0.5263384527612266,-0.0018654111468013822,0.850268852976058,0.05773131818119601,0.3890902391593301,-0.6376646909651636,-0.01462488846345104,0.27718696454837494,-0.5640211350988666,-0.023351728155562985,0.6740592185647741,0.892802757632786,0.12516243693456877,0.7815103905173355,0.7657226989347835,0.0,0.0,0.0,0.0
0.039387753258598175,-0.16337063909248242,0.8416397858327972,0.002562630356505815,-0.5260359743302963,-0.001817579144467332,0.8504565144921199,0.06145210442600426,0.38119816558150066,-0.6266085477050499,-0.021525765866199448,0.2805630617635398,-0.5583028064721859,-0.03627398033634122,0.6781579837470479,0.8850554786367136,0.13517623575839877,0.7772172152224112,0.7725702443572817,0.0,0.0,0.0,0.0
0.03825498270716629,-0.1650277387674731,0.8412591015639919,0.0023773101309965236,-0.5257103170921896,-0.001729964430805151,0.8506585790565088,0.06481593215294666,0.3715052254883687,-0.6130482990433875,-0.029166788162414442,0.28419584661248176,-0.553175737508995,-0.0502897743818335,0.6819884756775678,0.877191754267421,0.14464018921928629,0.7719499516341313,0.7794967661253812,0.0,0.0,0.0,0.0
0.036854100021390494,-0.16651862161868022,0.8408526022793988,0.0021169855219453386,-0.525377302118005,-0.0015860021794155302,0.8508652615946859,0.06776249838515308,0.36032593720874717,-0.5973590687871349,-0.037585092785202,0.2885061544248938,-0.549064495333566,-0.06646375273139993,0.6860485631261848,0.869583050683569,0.15363576980633564,0.7660530270389112,0.7862257670186645,0.0,0.0,0.0,0.0
0.03532666408856499,-0.1677825777209651,0.8404312952363727,0.0017572497407383758,-0.5250574927312125,-0.0013508567605496687,0.851063873387993,0.07013745841559042,0.34864205036618573,-0.5811165969998728,-0.04661765662679649,0.29407880695802924,-0.5464648973060174,-0.08679156454390015,0.6914278830777716,0.8628043914701937,0.1622822725474639,0.7600531966169531,0.792533989478175,0.0,0.0,0.0,0.0
0.03392482529419923,-0.16870703819028537,0.8399681210620601,0.0012458412061440325,-0.524682974147803,-0.0009164623854324001,0.8512962966064171,0.0715924161621877,0.3387629449468638,-0.5689391353101407,-0.05598466333334352,0.3012137008062029,-0.5458686650625496,-0.11393821490930978,0.6994637188571055,0.8575228671185499,0.17099813118024793,0.7544524274184148,0.7982341377893903,0.0,0.0,0.0,0.0
0.0329566665967834,-0.16926068087245497,0.8396176281285624,0.0006225278006478751,-0.524393104287114,-0.0003713000866329023,0.8514759813239049,0.07222057284362018,0.33245683065967874,-0.5623797862459051,-0.06511361576377636,0.31069528045417577,-0.5493769959296182,-0.14929930648712664,0.7106147074103832,0.8549016058635952,0.17930306591851047,0.750942963864782,0.8020743586151198,0.0,0.0,0.0,0.0
0.032570382591801804,-0.16948414292858682,0.839544294871071,3.183938599618572e-05,-0.5243299878871562,0.00019738290069795235,0.8515151342333844,0.07212263805025934,0.33000227814924993,-0.5602559646259593,-0.07153334825530587,0.3224614326420946,-0.5603877124031518,-0.18460039480298895,0.7220839949317042,0.8553906156321109,0.1864920326249915,0.7507929235935961,0.8030155284465187,0.0,0.0,0.0,0.0
0.032566270916994954,-0.1694979289779403,0.8395372498616361,2.0505510429397877e-05,-0.524313789688826,0.00019681627074260262,0.8515251087225914,0.07216112610050829,0.3299446276153244,-0.560248255127061,-0.07158230256530845,0.32249988350938796,-0.5603831409569164,-0.1846141202990635,0.7221132867494157,0.855401707441918,0.1865299171103963,0.7507121454135882,0.8029816615237645,0.0,0.0,0.0,0.0
0.032566270916994954,-0.1694979289779403,0.8395372498616361,2.0505510429397877e-05,-0.524313789688826,0.00019681627074260262,0.8515251087225914,0.07216112610050829,0.3299446276153244,-0.560248255127061,-0.07158230256530845,0.32249988350938796,-0.5603831409569164,-0.1846141202990635,0.7221132867494157,0.855401707441918,0.1865299171103963,0.7507121454135882,0.8029816615237645,0.0,0.0,0.0,0.0
0.03332327400070607,-0.1698636523226583,0.8398093222930094,4.3873443263707753e-05,-0.5246224314273491,0.00010804979256676942,0.8513350050618262,0.07311028563969217,0.3330712113724825,-0.5624576122971557,-0.07073035154918576,0.32755031788615036,-0.5666452516274872,-0.18437824469443354,0.7261810048895212,0.8529353065141722,0.18886924061214494,0.7545182146076043,0.8017326932104327,0.0,0.0,0.0,0.0
0.03487130404302915,-0.1705407611917148,0.840512225290924,0.0002587151400744226,-0.5257190866837737,-0.0005862407836115086,0.8506579990128811,0.07571722795761876,0.33785690770515037,-0.5603528002260924,-0.06820765639686022,0.33628473781997864,-0.5746892548605104,-0.18885422662647397,0.7373337281877633,0.8480935285008283,0.19029814035506784,0.763410519662441,0.7988986659242697,0.0,0.0,0.0,0.0
0.03615449446157587,-0.17146527187309746,0.8412501567534066,-0.0005289824652478,-0.5252832377051615,0.0003143674216947687,0.850927224583077,0.06847518162708324,0.3251881812211903,-0.5472744062478205,-0.06745382193692674,0.34664040754325653,-0.5896687947376155,-0.17424471008804396,0.7408369148970836,0.8374052580629211,0.1554370977046079,0.7415470241499179,0.8177000096445742,0.0,0.0,0.0,0.0
0.037601081533812586,-0.17247813630128073,0.8419174741252288,-0.0012493010184499557,-0.5251917204241929,0.001014494612495452,0.8509824127709825,0.05729430738604963,0.31477844148766526,-0.5420836852986611,-0.06615700413535884,0.35733334589973575,-0.6040582289973274,-0.1614455942334811,0.7456953394519062,0.828037053655847,0.11753330892692818,0.7235962715886197,0.8312749177225317,0.0,0.0,0.0,0.0
0.039106598676641985,-0.17366580762253717,0.8425400782266581,-0.0016961792630293248,-0.5253942198343382,0.0013171026181989696,0.8508562169845548,0.04576160839952013,0.30722248017249437,-0.5416790323312494,-0.06395657637289319,0.3682061144207059,-0.6183665761637025,-0.15193601801302017,0.7520795531793253,0.8195009099216468,0.08722384595433677,0.7115588171631926,0.8422810322362263,0.0,0.0,0.0,0.0
0.04046748774884417,-0.175031915312743,0.84311350068395,-0.0019501594818736616,-0.5257375532328888,0.0013929019912561624,0.8506434516427747,0.035331396681509704,0.30166763992813433,-0.5440786262043353,-0.06109844168135216,0.37822967251680784,-0.631337430278045,-0.14382947387832043,0.7587630465905816,0.8114093058579945,0.06437789966444638,0.7034774339071882,0.8520923510647306,0.0,0.0,0.0,0.0
0.04154070130106354,-0.17657991792430902,0.8436226633881094,-0.00209512304579482,-0.5261075653462802,0.001373189101298967,0.8504143428332595,0.026390024343050877,0.29724800288785874,-0.5481033138107895,-0.05774883271722815,0.3867449043357779,-0.642248931179649,-0.13564508340318038,0.7647611355246503,0.8035977357144253,0.046639656173247404,0.6974016716917679,0.8611729281132001,0.0,0.0,0.0,0.0
0.04225258014148175,-0.17832151868931861,0.8440574822202274,-0.0021798095800334705,-0.5264506670375062,0.0013245578269391112,0.8502018520048769,0.018830564110158397,0.2933289893406164,-0.5530604761116179,-0.053966072554890436,0.39345536573558465,-0.6508033318593655,-0.12657643312625766,0.7695542537999266,0.7960191204102182,0.03195323842394137,0.6920346620571604,0.8697209672766902,0.0,0.0,0.0,0.0
0.04257918775440658,-0.18027583256215396,0.8444093425882873,-0.0022249577968190457,-0.5267478768396064,0.001268963943658198,0.8500177136614735,0.012382021362165114,0.28948063588525286,-0.5585169222551302,-0.04973628679653758,0.3983255213663227,-0.6570498632866313,-0.11629216661906376,0.7729377096373413,0.7886832098444908,0.019015264880607965,0.6866651922155471,0.8778409066335155,0.0,0.0,0.0,0.0
0.0425251401081038,-0.18246617962343245,0.8446660462110687,-0.0022363367136484322,-0.5269953226626752,0.0012071178252095892,0.8498643842145182,0.0067690475850506965,0.2854558964937236,-0.5641602439611606,-0.04501297852620481,0.40146521268766805,-0.6612532654498569,-0.10470969964106494,0.7748564435569164,0.781647013668732,0.007147126747861802,0.6809814279606611,0.8855670664479279,0.0,0.0,0.0,0.0
0.04210780186584505,-0.1849166400910622,0.8448086941464086,-0.0022137224626178624,-0.5271936771811654,0.0011331756919635636,0.8497415148654976,0.0017723753441426264,0.28119766787833805,-0.5697007579896834,-0.03974314344645566,0.40304288729676224,-0.6637820781189441,-0.09184851309507941,0.7752921014526319,0.7750247512769948,-0.003921629533935782,0.6749166200218343,0.8928309780061174,0.0,0.0,0.0,0.0
0.04134715186621041,-0.18764864812864845,0.844810236991251,-0.002155330558108892,-0.5273436846275417,0.0010415097414692167,0.8496486968689422,-0.0027655539733187065,0.2768541591381186,-0.5747830240542097,-0.03388214774474378,0.40322852688457733,-0.6650289402179234,-0.07776488281341798,0.7742005952294989,0.7690035844274646,-0.014203304162005747,0.6685675782761683,0.8993878890882272,0.0,0.0,0.0,0.0
0.040259897068804146,-0.19067723339114387,0.8446357788046027,-0.0020589137290856377,-0.5274458334755583,0.0009279874057101753,0.8495856592851039,-0.006957809043314269,0.2727659548843766,-0.5788921581905292,-0.027401992421484472,0.40215442093461684,-0.6653445820977948,-0.06254911622822498,0.7714912182333129,0.7638549679384218,-0.023527285356475507,0.66219298903377,0.9046888926437296,0.0,0.0,0.0,0.0
0.03885609801047164,-0.19400687044266812,0.8442469643988053,-0.001921623046639527,-0.527502118381679,0.000789070053687699,0.8495511755251464,-0.010889859511787489,0.2693570511055003,-0.5812527245833138,-0.02029749442124571,0.39988086542545964,-0.6649568183779939,-0.04634718578938405,0.7670440380878212,0.759908978498244,-0.031594413607283045,0.6562902921716515,0.9076736360014181,0.0,0.0,0.0,0.0
0.03713668453816648,-0.19762825695339803,0.8436163343102918,-0.0017421119425360713,-0.5275176618422379,0.0006242482716891996,0.8495420482851765,-0.01462164838783232,0.2668388494272409,-0.5807659463957833,-0.012595170078264618,0.39635436707475213,-0.6638312756862083,-0.02934279429150352,0.7607764302817303,0.7574154533274015,-0.038109606144151105,0.6517017937498425,0.9065643270153143,0.0,0.0,0.0,0.0
0.03508953001820619,-0.20152073918814403,0.8427427380906438,-0.0015259843875272182,-0.5274900328214563,0.0004416295632716336,0.8495597339851959,-0.018201388548130283,0.26521778770170734,-0.5774904633014327,-0.004354726721403326,0.39138985274263083,-0.661624651860427,-0.011675352533828464,0.7526816905532647,0.7563340536307854,-0.0430953161960037,0.6484731562978662,0.9013481436410324,0.0,0.0,0.0,0.0
0.032692674446315496,-0.20565011728416838,0.8416514307399333,-0.0012855360050026212,-0.5274096578830106,0.00025645357023796125,0.8496101072847896,-0.02168255937518877,0.26429415863603745,-0.5726435769117886,0.004326901161484757,0.38468842814426346,-0.6577131400116871,0.006518373696078845,0.7428497524616298,0.7563341741527595,-0.04692856826842151,0.6458450759916692,0.8937543124443591,0.0,0.0,0.0,0.0
0.029923947654831657,-0.20995993563171708,0.8403811463296744,-0.0010346798916579486,-0.5272707070663927,8.466915626592495e-05,0.8496967245661019,-0.025144091229813134,0.2636563653338624,-0.5671219171262248,0.013303082168836473,0.3758798894303106,-0.6512654563921834,0.024985580890178334,0.7314587515715044,0.7569998745346157,-0.050079058886433755,0.6433741708623314,0.8847774284244397,0.0,0.0,0.0,0.0
0.026769748759254842,-0.21436775988378134,0.8389738014072528,-0.0007874513468489328,-0.5270705549168985,-5.996356079015633e-05,0.8498211614594805,-0.028714722832474913,0.2629904787774998,-0.5615657654640954,0.022373855776387674,0.36458495952300946,-0.6413886059464184,0.04333786246712061,0.7187329668755983,0.7579696835587357,-0.05303398256559945,0.6408139553616043,0.8748972752888818,0.0,0.0,0.0,0.0
0.023236664052254108,-0.2187634244021672,0.8374721100693344,-0.0005585236750398631,-0.5268106079565393,-0.00016601889993950197,0.8499824961924162,-0.03256369075502096,0.2622191127112311,-0.5564556278536451,0.03128560170684841,0.35048157842270106,-0.6272381606081092,0.06108096149779776,0.7049408047977936,0.758992705568051,-0.056349185098932913,0.6380216999953271,0.8642995524649675,0.0,0.0,0.0,0.0
0.019368404140199212,-0.22300850761847055,0.8359115640335981,-0.00036397468397951575,-0.5264977668279376,-0.0002233904818967974,0.8501764047209948,-0.03685520020416376,0.2615428316985798,-0.5521850759633309,0.0397339560771007,0.33341457134599134,-0.6082216739256017,0.07766563401766285,0.6903664229858817,0.7600459852889037,-0.06074038670072296,0.6349365049692232,0.8530156002830388,0.0,0.0,0.0,0.0
0.015269848018973319,-0.2269381965464514,0.834282301004998,-0.0002217903379161599,-0.5261202099340654,-0.0001790313292662672,0.8504101618958725,-0.04176153395525417,0.26139425128482197,-0.5493370539728634,0.04728687877236427,0.31368857064966177,-0.5847279779949723,0.09272971915704545,0.6750151626842552,0.761635850440803,-0.06691245206309782,0.6315839383443329,0.8411060863394546,0.0,0.0,0.0,0.0
0.011388868450892032,-0.23049969821133345,0.8325348496422977,-0.00013103592917408806,-0.5256354071741326,-0.00011614609040217755,0.8507099318008193,-0.04735115210117096,0.26195208282289056,-0.5469319907153047,0.05405545829996204,0.294413270519496,-0.562469862886588,0.10590509621762623,0.6594919994226349,0.7644884113425123,-0.07623869195752321,0.6288912962089775,0.828491499290704,0.0,0.0,0.0,0.0
0.008009763209039011,-0.23350557472648736,0.8307657950098062,-8.62215584122944e-05,-0.5251359567031156,-4.0403129880716824e-05,0.8510183417006554,-0.0535407756674006,0.2635701870550654,-0.54537405322104,0.059709752403874675,0.27725826563889244,-0.5434710645398465,0.11671955790667685,0.6448010500310841,0.7688250928096596,-0.08999762026031814,0.6268072234329056,0.8151199041976968,0.0,0.0,0.0,0.0
0.005367880614087798,-0.2357249648029843,0.829122431014376,-5.277789244991046e-05,-0.5247056414377245,6.993219457066311e-06,0.851283728852499,-0.059660722344845166,0.2660246388493406,-0.5454416887144473,0.06387549189373758,0.26361551608655154,-0.5292337023675034,0.12430012115190718,0.6320653773978254,0.7746678682740472,-0.1082652596193178,0.6250823773410319,0.8007763970939182,0.0,0.0,0.0,0.0
0.003797940141296193,-0.23696688189462986,0.8278901477184686,1.3318829537859634e-05,-0.5244621011644356,-2.6394575569970426e-05,0.8514337928272054,-0.0640626125479546,0.2686425980683234,-0.5476417676148523,0.06627323558810186,0.2554522487887542,-0.5215771774230402,0.12793364547145225,0.6233917763011679,0.7807666337505299,-0.12630035509440882,0.6247044729800008,0.7861802912150077,0.0,0.0,0.0,0.0
0.003721268783671032,-0.23724444745417372,0.8277737072053236,0.00020976801695800682,-0.5244902746303249,-8.708945621119321e-06,0.85141641265584,-0.06410390582463626,0.2686852002872948,-0.5476475559063365,0.06657057146034029,0.2552049513536915,-0.5215843028217,0.12801211875575644,0.623191287602344,0.780661188332302,-0.12632826732906763,0.6247570243774377,0.786191986426908,0.0,0.0,0.0,0.0
0.0037212687836710046,-0.2372444474541737,0.8277737072053237,0.00020976801695802216,-0.5244902746303249,-8.708945621104644e-06,0.85141641265584,-0.06410390582463632,0.2686852002872948,-0.5476475559063365,0.06657057146034025,0.25520495135369153,-0.5215843028217001,0.12801211875575644,0.623191287602344,0.780661188332302,-0.12632826732906766,0.6247570243774377,0.786191986426908,0.0,0.0,0.0,0.0
0.0037212687836710046,-0.2372444474541737,0.8277737072053237,0.00020976801695802216,-0.5244902746303249,-8.708945621104644e-06,0.85141641265584,-0.06410390582463632,0.2686852002872948,-0.5476475559063365,0.06657057146034025,0.25520495135369153,-0.5215843028217001,0.12801211875575644,0.623191287602344,0.780661188332302,-0.12632826732906766,0.6247570243774377,0.786191986426908,0.0,0.0,0.0,0.0
0.005348799398890691,-0.23889303314478913,0.8286612498083924,0.0003509523194369826,-0.5253135918546811,-3.794081969944351e-06,0.8509086361242363,-0.06096759261759743,0.2747622093613326,-0.5495405195366806,0.06979359392694909,0.26641704339385824,-0.533749789786609,0.1351594013717904,0.6332978736731705,0.7695176243210547,-0.12153733502146327,0.6325853264034256,0.7866594984164698,0.0,0.0,0.0,0.0
0.008648324332566449,-0.2421688774829844,0.8316830047833712,0.00056664013049647,-0.5270933510409617,-0.0007071969904520863,0.849806906349783,-0.05308891243230682,0.2850937688726673,-0.5438596829552929,0.0777256757787079,0.286433417018984,-0.5488652957580346,0.14720728027603805,0.6615891379806222,0.7354545661233937,-0.11408610439761152,0.6546049508932543,0.7742052761443958,0.0,0.0,0.0,0.0
0.01185896990561661,-0.2453751738305677,0.834182907461833,0.0007316871441229055,-0.5269377238839171,-0.00030661796534379884,0.8499035273296511,-0.04779930497604439,0.30049290570093884,-0.5604193149747018,0.07333483831467348,0.2829715187357928,-0.5409682093946574,0.1290494293991863,0.6526826795442785,0.7710019494144396,-0.1002940213338466,0.6727684101327933,0.7599769051898922,0.0,0.0,0.0,0.0
0.015556692777314696,-0.24889013499908244,0.8360695996469167,0.000803741972976564,-0.5268600475576751,-9.948767386177444e-05,0.8499516659131671,-0.04137337679975468,0.3192107340475649,-0.5841557645261174,0.06620848815888555,0.27889435985282224,-0.5386745386543789,0.10758025425700461,0.6489763334496461,0.797688283461154,-0.08540929058541279,0.6886756824812428,0.7523933275923557,0.0,0.0,0.0,0.0
0.019559527333956807,-0.25264163574824494,0.8372680201558195,0.0008919132093140143,-0.5268123495923922,-7.779751260159099e-05,0.8499811449410611,-0.03405322942304944,0.33969969643390324,-0.6127531383533746,0.05844234119282145,0.2754946014984661,-0.5402434460274236,0.08925432784632363,0.6484750077697504,0.8175774187812771,-0.06999504500404366,0.7014162789994471,0.7520584037913313,0.0,0.0,0.0,0.0
0.02348054042296743,-0.25651444410576163,0.83828198337322,0.0010427580704864016,-0.5268039350700028,-0.0002010010229533068,0.8499861682691993,-0.026143370945955015,0.358389997954322,-0.6381105434364843,0.051056244181467085,0.27337236908374335,-0.5438186216423158,0.07559286180206166,0.649114092909744,0.8337684482745179,-0.054339330085728915,0.7131520251678091,0.7533641988115568,0.0,0.0,0.0,0.0
0.027098502445276403,-0.26043636873817205,0.8393679987907832,0.0012676325701200036,-0.5269125011272977,-0.00039905408289557786,0.8499184961037627,-0.017942509992958593,0.37373481332229463,-0.6564564018238924,0.04468093144267509,0.2723257584007203,-0.5483077705040955,0.06591560911541339,0.6501270572555332,0.8477888600754494,-0.03850309128320341,0.7250932245245015,0.7537263340256734,0.0,0.0,0.0,0.0
0.030298807937747318,-0.26435231546941146,0.840530511672375,0.0015277486700322732,-0.5270645993825862,-0.0006282992856547827,0.8498236165826899,-0.009645407990386356,0.38569148406262826,-0.6683735672690235,0.03930442024768258,0.27169174675336427,-0.5533767894377836,0.05886181521318563,0.65101142137758,0.8603673774513981,-0.02234431307009417,0.7369509923906072,0.7527972622442141,0.0,0.0,0.0,0.0
0.0330453596778402,-0.2682068142035339,0.8417124768630564,0.0017928135247865678,-0.5272070013241594,-0.0008613625474943329,0.8497345595119778,-0.0014227340089161856,0.3945504395877956,-0.6750433154357173,0.034629700307409514,0.2709781846816098,-0.5587982803944849,0.05321054031244279,0.6516576052544525,0.8719018021649997,-0.005915252811576458,0.7482316876167338,0.7509758318116398,0.0,0.0,0.0,0.0
0.035350821741520926,-0.2719458462698142,0.8428557205964539,0.0020434689808342854,-0.5273122494005726,-0.0010829584755488776,0.8496684312527875,0.006578091740190934,0.4007279073890415,-0.6776502689955837,0.030304518310694067,0.2699565937463948,-0.5643717876023752,0.04810051613340494,0.6521082690345679,0.8826274781921044,0.010581711409220061,0.7585553941002464,0.7487597260566682,0.0,0.0,0.0,0.0
0.03725309460654383,-0.2755228074999561,0.843913306127684,0.0022685451902541075,-0.5273691783905201,-0.001285235091535546,0.8496322448902155,0.014239195654726896,0.40468057247293504,-0.6772661729738747,0.026037080829531666,0.2686411656205991,-0.5698666891248189,0.04298016824628546,0.6524590020439176,0.8926226181608817,0.026884493175207618,0.767678160175567,0.74658995834641,0.0,0.0,0.0,0.0
0.03879876398344569,-0.27890274919313773,0.8448468466674239,0.002461809834345231,-0.5273748711214857,-0.001464200507751124,0.8496278837931396,0.021476398107434687,0.4068514945494196,-0.6748319819273978,0.021638949520777943,0.2672625819410821,-0.574956910985434,0.03747040254881437,0.6528516595700129,0.901746599414891,0.04274690734942123,0.7754387090246498,0.7448640385952886,0.0,0.0,0.0,0.0
0.04003197646079784,-0.2820641805049293,0.8456213142362237,0.0026194792437025235,-0.5273298549439385,-0.0016174079638484717,0.8496550749597009,0.02823961654809215,0.407630638589873,-0.6711513403465199,0.017025187652124355,0.26622582445884957,-0.5791371064390459,0.03123551999830598,0.6535213879634018,0.9095168203473456,0.057986333854785424,0.7817027300046887,0.7439821838372351,0.0,0.0,0.0,0.0
0.04098703070817941,-0.2849991594139497,0.8462038335534848,0.0027389586960674967,-0.5272363933811309,-0.0017429052893216247,0.849712448938387,0.0345105342256337,0.4073189047746974,-0.6668527772703754,0.012187778022269505,0.26598660578178546,-0.5816225010611836,0.02391812253117335,0.6548949219918879,0.9149025734117083,0.07250253363950762,0.7863385518654841,0.7443545937627108,0.0,0.0,0.0,0.0
0.04168354174478467,-0.28771196778065083,0.8465736686553545,0.002819873423492483,-0.5271007552327198,-0.0018408140381920147,0.8497961246973585,0.04029924054917711,0.406080089582132,-0.6622600637138084,0.0071469961293066046,0.2667595378038401,-0.5812805015766903,0.015211189491188966,0.6577151434041939,0.9161209204987487,0.08625458621349358,0.7892617317393383,0.7462917499564939,0.0,0.0,0.0,0.0
0.042122157302008204,-0.2902142647451903,0.8467356117435352,0.0028628400507229104,-0.5269266317729441,-0.0019113707039893327,0.849903803696216,0.04562868988477643,0.4039134140937199,-0.6573344893754713,0.0019097279170879845,0.2685570760761254,-0.5781167323463329,0.00516181203516528,0.6619126292663015,0.9131581800840245,0.09923820998042698,0.7904862612967546,0.7498214531112578,0.0,0.0,0.0,0.0
0.04228695579201916,-0.2925232021559566,0.8467194427773681,0.0028684095211758084,-0.5267142761606215,-0.001954506474317836,0.8500353071607398,0.05052944413888343,0.4006678774752114,-0.6517059378856032,-0.0035581419249872412,0.27120246236351037,-0.5732909799703336,-0.0058689414420617005,0.6666221595453531,0.90779175801404,0.11146994394932704,0.7901214562194488,0.7546867825393886,0.0,0.0,0.0,0.0
0.04215370517056079,-0.29466038426988195,0.8465643151310287,0.0028363442429884624,-0.5264657865432869,-0.001970912680957706,0.8501893002466554,0.05504063876456447,0.3960996276651455,-0.6447985881359903,-0.009343866779644603,0.2743065376207295,-0.5676401810365467,-0.01756047299727164,0.6713237431184816,0.901094916342196,0.12298250002924711,0.7883127221933393,0.7605335061638148,0.0,0.0,0.0,0.0
0.04169772109258859,-0.2966465287246639,0.84630552269805,0.002763336096783197,-0.5261826957661827,-0.0019595141047320176,0.850364801102634,0.05919804241305025,0.38995191930573686,-0.6360322989399424,-0.015577111539814333,0.27756962502544685,-0.5617461416144743,-0.029771532938537692,0.6757343608372651,0.8936593662625426,0.13382956507450403,0.7851880376091638,0.7670367788149339,0.0,0.0,0.0,0.0
0.040904301322095465,-0.29849531151308845,0.8459720646399753,0.002642550062844371,-0.5258671860273502,-0.0019164249071788382,0.85056043107143,0.06302157296045105,0.38203176139370687,-0.6249552577704772,-0.022411132576781137,0.2809086642787581,-0.5560403099757002,-0.042612699638413215,0.6797546121942691,0.8858318803045169,0.14407203912009273,0.7808762641086522,0.7739149640304631,0.0,0.0,0.0,0.0
0.03978401823961001,-0.30020595079125456,0.8455883551916559,0.002463046730844213,-0.5255251024408479,-0.0018329860434872487,0.8507725549566714,0.06649899980695899,0.37231574571442566,-0.611404159332078,-0.029979642596092676,0.2844875931405879,-0.5508969762306467,-0.05657334460403166,0.6835137381069318,0.8778945995926346,0.15377125689305365,0.7755662585702028,0.7809010464240499,0.0,0.0,0.0,0.0
0.038395809894197164,-0.30175279022039064,0.8451749442669063,0.002208424017271044,-0.5251700417181093,-0.0016919332128499903,0.8509927658371501,0.06956197911289595,0.36112887850372793,-0.5957958218642924,-0.03831537200075108,0.2887043145616381,-0.5467106504970226,-0.07277536663407476,0.6875197883625487,0.8702230870902227,0.16299421022769994,0.7695847895676031,0.7877256303713396,0.0,0.0,0.0,0.0
0.03688043569183633,-0.3030694499448795,0.8447400100451602,0.0018531648663520004,-0.5248158623676361,-0.001455161208587033,0.8512125227539533,0.07204039190946916,0.3494898007000524,-0.5798241603094099,-0.047254556287992674,0.2940912391302447,-0.5439150756564207,-0.09331264846128921,0.6928681054847761,0.8633879172832518,0.17185234590073928,0.7634343700974594,0.7941590486784412,0.0,0.0,0.0,0.0
0.035481616073475115,-0.30404276360825183,0.8442629841476725,0.0013465083660539644,-0.5243973750129648,-0.0010142636925761243,0.8514719908863086,0.07358200477971046,0.3396473709422359,-0.5679692243107478,-0.05651730175642892,0.3009034570681771,-0.5429483273695594,-0.1209395858663741,0.7008591201913958,0.8580651074958389,0.18075645184972025,0.7576381524662144,0.7999513050942103,0.0,0.0,0.0,0.0
0.03450865758830404,-0.30463572791989074,0.8438957687856753,0.0007295019023383027,-0.5240429974399726,-0.00046184233661234495,0.8516913709570852,0.07427672924585071,0.33341995496637294,-0.561928482778655,-0.06560441073957446,0.30983466386952935,-0.5457981054539227,-0.15718953803100533,0.7119151653312126,0.8554277984754105,0.18916410528562214,0.7538515853424576,0.8038242687323831,0.0,0.0,0.0,0.0
0.03410934447332992,-0.3048811868676012,0.8438094299659679,0.00015533293618292428,-0.5239022492569396,0.0001101245202225859,0.8517783731510142,0.07420714628474012,0.3310520772463287,-0.5603829597797807,-0.07207429599950048,0.32078548041799504,-0.5557274798149262,-0.19358092228139637,0.7231697960121957,0.8559764192413915,0.1962719443063935,0.7533853717688046,0.8046808566606575,0.0,0.0,0.0,0.0
0.03410897299561307,-0.3049052792948606,0.8438032770525723,0.00015143523844959135,-0.5238833597773656,0.00011039191512776581,0.8517899918579538,0.07425709269336955,0.33099609024123655,-0.5603752399375516,-0.072124293810017,0.32082400492850294,-0.5557223527707226,-0.19359567319096987,0.72319865391722,0.8559874373264031,0.19631231348055103,0.7533043229876343,0.8046467625173684,0.0,0.0,0.0,0.0
0.03410897299561307,-0.3049052792948606,0.8438032770525723,0.00015143523844959135,-0.5238833597773656,0.00011039191512776581,0.8517899918579538,0.07425709269336955,0.33099609024123655,-0.5603752399375516,-0.072124293810017,0.32082400492850294,-0.5557223527707226,-0.19359567319096987,0.72319865391722,0.8559874373264031,0.19631231348055103,0.7533043229876343,0.8046467625173684,0.0,0.0,0.0,0.0
0.034874900952455774,-0.3052981451108263,0.8440780190893696,0.00016186695082418687,-0.5242379100095838,2.398609616120664e-05,0.8515718331019063,0.07526752928457925,0.3339872409078035,-0.5621066147793425,-0.07120550320408334,0.3258753322562478,-0.5617399378819342,-0.1932718851581446,0.7274178534496497,0.8535915315229144,0.1990368846089654,0.7573044518433426,0.803525125131152,0.0,0.0,0.0,0.0
0.03642412216825748,-0.3060182340675092,0.8447664539401422,0.00034195139300743156,-0.5253564957431648,-0.0006263715834108766,0.8508819207788741,0.07790806499719974,0.33864447637482725,-0.5598001570680594,-0.06865034523417925,0.33466736413706016,-0.5697485013146565,-0.19727741954627825,0.7384946908463426,0.8488646527887042,0.20135995988544386,0.7663483479366457,0.8009281948364776,0.0,0.0,0.0,0.0
0.037720574143223586,-0.3069729556185908,0.8455263130489918,-0.0004527666844561985,-0.5249847741735966,0.00026860294850170215,0.851111455533694,0.07071213179995109,0.32614650779935905,-0.5466269984778638,-0.0678076084614454,0.3450173981304194,-0.5843303552640515,-0.18257951735233408,0.7423176337881696,0.838144305823178,0.16498850522852032,0.7445881626239538,0.8193932413124555,0.0,0.0,0.0,0.0
0.039168265143120676,-0.3080177053793208,0.8461991242271111,-0.001191395397178558,-0.5249492640419047,0.0009816871192865554,0.8511321207951618,0.05955176068887325,0.3158378645462964,-0.5414272845629492,-0.06644426177889745,0.3556690765281779,-0.5983322306444409,-0.1695069083459456,0.747329349476766,0.8288669327343934,0.12568981050877126,0.7266222643162592,0.8328043624079083,0.0,0.0,0.0,0.0
0.040676668364449706,-0.30924530046828014,0.846823364827789,-0.00165738763826008,-0.5251860958028506,0.0013050309609039462,0.8509847911307032,0.04805507830980874,0.30830781838709,-0.5410027963081664,-0.06418007852638656,0.36660134671089956,-0.6125431904413685,-0.15962053373331078,0.7537803494052547,0.8203634807073007,0.09460755084178733,0.7145873129893775,0.8437541471112783,0.0,0.0,0.0,0.0
0.042041585978140214,-0.31065268730825896,0.8473981324932877,-0.0019262406117569783,-0.5255515597613636,0.001399422784647236,0.8507584200261396,0.03767276472817346,0.3027558040597368,-0.543375990933298,-0.06125817496886587,0.376723439829378,-0.6255524338963571,-0.15115177784518352,0.7605034423618205,0.8122611447011595,0.07142235989403653,0.7065469010091643,0.8535822284710087,0.0,0.0,0.0,0.0
0.043119845744244246,-0.3122386228453422,0.8479085926713053,-0.0020804750265610503,-0.5259377011891944,0.0013923144593925663,0.8505194104498355,0.028786435591735215,0.2983440826389847,-0.547378427297526,-0.05784696394112399,0.38534408554634775,-0.6365545265093241,-0.14266898805809333,0.7665363282828239,0.8044290789181261,0.053576814549025825,0.7005453369326166,0.8627227550490975,0.0,0.0,0.0,0.0
0.043838277194854045,-0.3140123706854235,0.8483444939137932,-0.0021696100382915012,-0.5262938207085237,0.0013504244609451996,0.850298937686083,0.021284310289247578,0.2944471158870625,-0.5523235758957588,-0.054008822077605025,0.39215658552660604,-0.6452178615871065,-0.13337206835425044,0.7713654189252377,0.7968404503065124,0.03888714190711594,0.6952749156691479,0.8713549086643271,0.0,0.0,0.0,0.0
0.04417351784065453,-0.3159919466442923,0.8486973957197228,-0.0022159025604825858,-0.5266020851034596,0.0012973777970780348,0.8501080228720246,0.014890523694680522,0.2906345677338417,-0.5577797138242512,-0.049733844964548565,0.39712423217179127,-0.6515787356328309,-0.12291742225641314,0.7747866995760169,0.7895117610307395,0.02598182949536246,0.6900146522345093,0.8795720296032411,0.0,0.0,0.0,0.0
0.044130552418662455,-0.3182001867883991,0.8489556188872093,-0.0022264926198003105,-0.5268592867159227,0.0012355169942081504,0.8499487091757714,0.009325349551671545,0.28665661385132263,-0.563433343826655,-0.044978363585223564,0.4003575341472255,-0.65589395549857,-0.11120843539416729,0.7767460217638649,0.7824996665970566,0.014148957059999008,0.6844456528669702,0.887401774736254,0.0,0.0,0.0,0.0
0.043726802240839184,-0.3206610085318749,0.8491009647843957,-0.002202184143362041,-0.5270666328808798,0.0011602092841405055,0.8498203155979666,0.004365742868893288,0.2824532393106838,-0.5689925272766488,-0.03969100323484795,0.40202508943120197,-0.658524545489964,-0.09825297979866449,0.7772267159714075,0.7759148776541142,0.003103260476475491,0.6784956821462429,0.8947709756282733,0.0,0.0,0.0,0.0
0.04298204327786044,-0.3233959172406828,0.849107114577187,-0.00214188035184776,-0.5272253956205118,0.001066571066890961,0.8497221057425259,-0.00014902906960437886,0.2781704106749344,-0.5740990457768153,-0.033827644833053824,0.4022962828465851,-0.6598555654028512,-0.08409877609743158,0.7761869109144915,0.7699402333563549,-0.007174307728011493,0.67225649842337,0.9014306038746436,0.0,0.0,0.0,0.0
0.04191265441883014,-0.32642028790336447,0.848939797567118,-0.002043788266730804,-0.5273365150297407,0.0009509007472617107,0.8496535285830206,-0.00433464909251703,0.27414695138248607,-0.5782349343115571,-0.027359847422928907,0.40130299089498794,-0.6602321126422611,-0.06882906142289356,0.7735378221105464,0.7648430930936396,-0.016517271564397085,0.6659814143617065,0.9068267189527804,0.0,0.0,0.0,0.0
0.04052843465301161,-0.3297393069877754,0.8485610149631588,-0.0019053836910150025,-0.5274021837631813,0.000809968070810136,0.8496132355528261,-0.008278397186463806,0.27080493307182707,-0.5806215589222368,-0.02028115960806723,0.3991068440446733,-0.6598820051201342,-0.05258237765766417,0.7691600009740904,0.7609503679485866,-0.02462991181710461,0.6601624654722835,0.9098921078430892,0.0,0.0,0.0,0.0
0.03883036060594209,-0.33334480060168903,0.8479432073821923,-0.001725451118886614,-0.5274273321586778,0.0006434552418847724,0.8495981509371167,-0.012040304471431517,0.2683536111987721,-0.5801578830642538,-0.01261597356915773,0.39565891969100947,-0.6587803849193357,-0.035534895763727065,0.7629691460290017,0.7585109793025282,-0.03121935191035891,0.6556384564926602,0.908840550473587,0.0,0.0,0.0,0.0
0.03680676341800424,-0.3372175056625111,0.8470847059357468,-0.0015092794554738068,-0.5274092713808373,0.0004593097902043514,0.8496098937580565,-0.01566603264329278,0.26679969568837697,-0.5769035218337344,-0.0044210254833717735,0.3907813028632305,-0.656600620639701,-0.017820990453368817,0.7549559876714484,0.7574874628654522,-0.03630569716451462,0.6524558415724223,0.9036597526572888,0.0,0.0,0.0,0.0
0.03443650140797275,-0.3413248331831116,0.8460099007222645,-0.001268452246271561,-0.5273380821846295,0.00027235443308761697,0.8496545556458805,-0.019203870376418485,0.2659463103019263,-0.5720802223012728,0.004210435575005124,0.38418436152410657,-0.6527415847117214,0.0004256650666350052,0.7452069586420572,0.7575551613827908,-0.04026004602638029,0.6498600666962349,0.8960890385462661,0.0,0.0,0.0,0.0
0.03169840402532003,-0.34561218782295366,0.8447563406268018,-0.0010160594700504245,-0.5272072388174391,9.812950781329912e-05,0.849736126884249,-0.02272565665257269,0.26538499461338827,-0.5665905732250734,0.01313607028067751,0.37550896990091526,-0.6464009634590907,0.018954939843994767,0.733894935233624,0.7583050465424862,-0.043546890971871914,0.6474143200944926,0.8871320462149289,0.0,0.0,0.0,0.0
0.028579688852103595,-0.34999909971052084,0.8433646499927224,-0.0007654269564244486,-0.5270129974361718,-4.97715691192834e-05,0.8498568774668513,-0.0263521217923698,0.26480437580730504,-0.5610817961751319,0.022160306831254632,0.3643870317254186,-0.6367175210812832,0.03738135746921954,0.7212373660518163,0.7593805426717541,-0.04664714255649805,0.6448780515113558,0.8772759321612531,0.0,0.0,0.0,0.0
0.025087242997947314,-0.3543772030144903,0.841876427113189,-0.0005305921198484459,-0.5267554819379946,-0.00016001755955081157,0.8500166793155615,-0.030243855025258295,0.26412957099275136,-0.5560427017995596,0.031033676354167046,0.3505056061010329,-0.6228759057050641,0.0552105088155513,0.7074965051499605,0.7605316049806085,-0.05010737355535867,0.6421127051822673,0.8667135432728773,0.0,0.0,0.0,0.0
0.021264207291864887,-0.35860950616869025,0.8403268743511219,-0.00032715852022852717,-0.5264405167775847,-0.00022266065926386552,0.8502118710559639,-0.03455616746194153,0.2635638228520083,-0.5518750917611015,0.03945546275338423,0.33371421059752265,-0.6043019587819966,0.07188850682365723,0.6929553895235052,0.7617263963522797,-0.0546249002218438,0.6390596918804814,0.8554853420948324,0.0,0.0,0.0,0.0
0.017213645187492067,-0.3625325937983426,0.8387081408965819,-0.00017371286175609502,-0.5260547464868026,-0.00018471363803762076,0.850450668412589,-0.03945046327041711,0.26353441062388516,-0.5491538929711659,0.046997950433701044,0.31431833289083716,-0.5813899046008137,0.08705342880034986,0.6776288266626546,0.7634336450425202,-0.060856544432997636,0.6357463378357185,0.8436578963147772,0.0,0.0,0.0,0.0
0.013345149372719332,-0.36608220764993804,0.8369826157886145,-7.134405128232864e-05,-0.5255690741189322,-0.00012722856812869284,0.8507509195132769,-0.04505393283919589,0.26425695816826666,-0.5470123637762209,0.05374109669238917,0.29510683867500864,-0.5591846486750212,0.10028341413396955,0.6621367680575273,0.7663156587022284,-0.07013931409155205,0.633018983875163,0.8311747343443336,0.0,0.0,0.0,0.0
0.009976938227426587,-0.3690833255100951,0.8352388967927898,-1.799431786636449e-05,-0.5250702078273577,-5.647647892467368e-05,0.8510589129659282,-0.05123442071428875,0.2660855797020043,-0.5457206940234719,0.05938687557324676,0.27800553838082664,-0.5401974146631916,0.11116976006719595,0.6475130976477464,0.7706012110322731,-0.083643479048464,0.6309460664148593,0.8180376605491615,0.0,0.0,0.0,0.0
0.00734453665196195,-0.3713046214255928,0.8336247918326657,1.8411271275399524e-05,-0.5246454320915821,-1.2367702930949335e-05,0.8513208385171258,-0.05733865498363223,0.26884059674859495,-0.5461212589271038,0.06355911470529947,0.26439280099430335,-0.5258822581004734,0.11884318591692138,0.6348942668564109,0.7763035528596826,-0.10145156829247416,0.6292567777242696,0.8041183834665467,0.0,0.0,0.0,0.0
0.0057824211626817,-0.3725527011000039,0.8324188541714354,7.896451272454121e-05,-0.5244106215881335,-4.610416721834908e-05,0.8514654964263432,-0.06173287350941499,0.2718480078871547,-0.5488163257699649,0.06597377896516186,0.25624026885245293,-0.5180967547619926,0.12258587515118373,0.6263489074650743,0.7822273807831518,-0.11897466540956494,0.6288489530096386,0.7901944296050962,0.0,0.0,0.0,0.0
0.005705436881270159,-0.37283068796622437,0.8323036591639201,0.0002758090649110884,-0.5244387912475414,-2.8833208701323652e-05,0.8514481060715464,-0.061773862952073266,0.2718908739887411,-0.5488222392082465,0.0662716029262707,0.2559947713244897,-0.5181040525339748,0.12266347504349806,0.626149305647675,0.7821230459809397,-0.11900162397755791,0.6289015337567462,0.7902062378913629,0.0,0.0,0.0,0.0
0.005705436881270141,-0.37283068796622437,0.8323036591639201,0.00027580906491101386,-0.5244387912475416,-2.883320870130631e-05,0.8514481060715464,-0.061773862952073315,0.2718908739887411,-0.5488222392082466,0.06627160292627063,0.25599477132449067,-0.5181040525339764,0.12266347504349805,0.6261493056476752,0.78212304598094,-0.11900162397755783,0.6289015337567462,0.790206237891363,0.0,0.0,0.0,0.0
0.005705436881270141,-0.37283068796622437,0.8323036591639201,0.00027580906491101386,-0.5244387912475416,-2.883320870130631e-05,0.8514481060715464,-0.061773862952073315,0.2718908739887411,-0.5488222392082466,0.06627160292627063,0.25599477132449067,-0.5181040525339764,0.12266347504349805,0.6261493056476752,0.78212304598094,-0.11900162397755783,0.6289015337567462,0.790206237891363,0.0,0.0,0.0,0.0
0.007317002225256039,-0.37445288201421933,0.8331858671323731,0.0004117676735247539,-0.5252568923839388,-2.271211187135152e-05,0.8509436097267024,-0.058685252273558315,0.2778496291530581,-0.5505579836535957,0.06944064814034123,0.26707316538370124,-0.5300683680811342,0.12972153888615595,0.6361738668734466,0.7711103409415015,-0.11414522213976319,0.6367948055099792,0.7904457732331677,0.0,0.0,0.0,0.0
0.010584363775281592,-0.37766752348833205,0.8361754299784225,0.0006397217634791442,-0.5270278957691429,-0.000737954968525553,0.8498474235177037,-0.0509194128060424,0.2879517773848752,-0.5446168051488502,0.077251823565822,0.2868110109436115,-0.5448691079675827,0.141375100908082,0.6642083088180467,0.7375894161690533,-0.10682327986768646,0.6587451694395512,0.7777733153198618,0.0,0.0,0.0,0.0
0.013770050680098487,-0.3808170783811569,0.8386388287146506,0.0007928111839294237,-0.5268789059157565,-0.00034029719469294464,0.8499399238471278,-0.045715353257137825,0.30317271587582567,-0.5609635557363749,0.07282125289437978,0.2837314669247753,-0.5379468806233751,0.12342797385441916,0.655315728371578,0.7728110003257304,-0.09300768372758995,0.6768278659818645,0.7635080780778623,0.0,0.0,0.0,0.0
0.017430858855033222,-0.3842691101084762,0.8404842779705117,0.0008585426972579016,-0.5268025070295892,-0.00013697414829654065,0.8499872720987411,-0.03938988599236609,0.321667936959635,-0.5844539005876812,0.06562721868209714,0.2798440143556218,-0.5362639379652449,0.1021145415646974,0.6515445219238858,0.7992775495668075,-0.07812055501458014,0.6926289906009802,0.7558598979293877,0.0,0.0,0.0,0.0
0.021395852159862616,-0.3879435012858859,0.8416653609507255,0.0009447609072982329,-0.5267495229265026,-0.00011983741939142268,0.8500200192716185,-0.03220200061019342,0.3419570908389047,-0.6127893397974781,0.05774284540757858,0.2765402115384475,-0.5381351188413971,0.083867384233684,0.6509618081477753,0.819078993188116,-0.06277004763844987,0.7054082313921856,0.7551197072711117,0.0,0.0,0.0,0.0
0.02526946410290733,-0.3917424050480735,0.8426718906790291,0.001095381087407343,-0.5267425567454631,-0.0002469316777733144,0.8500241279388911,-0.024423517477415703,0.36037158726945767,-0.6376896119869373,0.05025226125308503,0.2744519380049538,-0.541870087940212,0.0701990303658465,0.6515122069891731,0.835233698621345,-0.047182812802848556,0.7172176250866249,0.7559706727689183,0.0,0.0,0.0,0.0
0.028836557985664465,-0.39559675226288044,0.8437479951491808,0.001319817697213563,-0.5268499264989804,-0.0004488177175080907,0.8499571822109168,-0.01634607958291774,0.37544561545283184,-0.6556226000016536,0.04378256419560474,0.2733798225201383,-0.5464398235460572,0.06042700599774987,0.6524353516074678,0.8492337644020325,-0.03139986225154863,0.7291830617185726,0.7559511716365475,0.0,0.0,0.0,0.0
0.031987058709858525,-0.3994519537154524,0.8448966707559006,0.0015786073985461372,-0.5269978459530821,-0.0006812436433073653,0.8498648800053991,-0.008162965584052639,0.3871555461373839,-0.6672075197701692,0.03831788231658914,0.27268804650838374,-0.5515427762272143,0.05322513442195852,0.6532382027928872,0.8618004658713743,-0.015275565538647753,0.741014160910619,0.7547330356564117,0.0,0.0,0.0,0.0
0.03468772369375088,-0.4032526300829033,0.8460624491543712,0.001841616446375277,-0.5271339932780301,-0.0009167337444949264,0.8497796897895735,-4.367505323755669e-05,0.39579822396008857,-0.6736214716049383,0.03356087986054868,0.2719046622210183,-0.55697078792497,0.04740460136364584,0.6538132452170341,0.8733289172892608,0.0011356446793108488,0.7522349664630888,0.7526988299535177,0.0,0.0,0.0,0.0
0.036952803219444844,-0.40694505399572517,0.8471890560117784,0.002089941320535869,-0.5272318971378495,-0.0011402046195532604,0.8497181054438738,0.00786605988055502,0.40179123355811835,-0.6760351119215615,0.029161446336836795,0.2708127285360644,-0.5625353932757926,0.042126978628330536,0.6542016370676726,0.8840515258042269,0.01762884128142162,0.7624834185647323,0.7503250953268062,0.0,0.0,0.0,0.0
0.038820922145542044,-0.41048311907994706,0.8482309876717296,0.002312843202177169,-0.5272810975603351,-0.001344073224985725,0.8496867001307342,0.015450344777776374,0.4055899243405859,-0.6755057584763183,0.024830797293463183,0.26943191514650383,-0.5680140990286032,0.03685430548669407,0.6544961748797578,0.894043007242067,0.03394153879736748,0.7715289247741914,0.7480355793359176,0.0,0.0,0.0,0.0
0.04033883575570551,-0.4138324433772631,0.8491507182321321,0.0025044268109317004,-0.5272790697739962,-0.0015246005356841156,0.8496871106576964,0.022626931092736426,0.40763453636512725,-0.6729620443572186,0.020383415267144645,0.26799479497101797,-0.5730866056066385,0.031214812583287364,0.6548356139876874,0.9031589533122728,0.049829243163358294,0.7792188100868238,0.7462157723067414,0.0,0.0,0.0,0.0
0.04155051622733618,-0.4169720402185537,0.8499136047770022,0.002661168491008101,-0.5272264707764543,-0.0016795635372936534,0.8497189804642422,0.02934736273167586,0.40831157967156756,-0.6691980269363377,0.015736707221138943,0.2669062773866198,-0.5772517688921068,0.024877493935713545,0.6554518000186502,0.9109126533659129,0.06511209529824515,0.7854234169362656,0.7452583409268211,0.0,0.0,0.0,0.0
0.04248989270912029,-0.4198943209388699,0.8504868110643461,0.0027806797481961607,-0.5271254780284741,-0.0018072082276974278,0.8497809907451521,0.035594495564108174,0.4079184831854062,-0.6648355213677994,0.010884082340704721,0.2666209193024852,-0.5797278183410534,0.017489696286760212,0.6567680353932615,0.916268668099208,0.07969259003058811,0.7900126501105786,0.7455692357287702,0.0,0.0,0.0,0.0
0.043176142253331495,-0.42260374314699395,0.8508494390621992,0.0028627280014314215,-0.5269821209493004,-0.0019078159350411467,0.8498694071600206,0.041379087140189695,0.4066157710097528,-0.6601938507939291,0.0058459737681858534,0.2673517120245784,-0.5793839851273869,0.008749160962583062,0.6595245280633174,0.9174390841119672,0.09353180321347329,0.7929015128240908,0.7474568358139392,0.0,0.0,0.0,0.0
0.04360946771145279,-0.42511207058739425,0.8510061678909313,0.002907923533876502,-0.5267999041731348,-0.001981672158647576,0.8499820456452906,0.046724441920920255,0.4043988835905915,-0.6552290069382246,0.0006279792414981425,0.2691105904547339,-0.5762265217998307,-0.0012978276622594674,0.6636514883743171,0.9144113458075552,0.10662712180326456,0.7941028680876832,0.750947629994981,0.0,0.0,0.0,0.0
0.04377348277529875,-0.42743646177280875,0.8509867101004733,0.0029166479666057374,-0.5265789348125139,-0.002028613258406679,0.8501188171688736,0.0516610643837444,0.4011125310093141,-0.6495648464914155,-0.004806659958600556,0.27172112750212574,-0.5714143861984752,-0.012297147037366358,0.6682855959724704,0.9089694499131165,0.11899635871299782,0.7937244152707161,0.755783870229245,0.0,0.0,0.0,0.0
0.043643389276465674,-0.42959824243902456,0.8508299787905897,0.0028884215820185665,-0.5263209995049352,-0.0020491426954512082,0.8502785799460694,0.05622727359124083,0.3965088936226682,-0.6426219919934494,-0.010548729807925351,0.27479354747932716,-0.5657819174259158,-0.023935875533846688,0.6729090943569137,0.902192223962719,0.13067181156473195,0.7919081003428935,0.7616116469179344,0.0,0.0,0.0,0.0
0.0431937317118384,-0.43161746127818595,0.8505707873178423,0.002819659829658858,-0.5260270997458782,-0.0020419159456789614,0.8504606812961172,0.06045706573901246,0.390327843594988,-0.6338202378567347,-0.016731411114290558,0.27802590447123315,-0.559906136159594,-0.03608132312163746,0.6772405815148927,0.8946758415270135,0.14170430204526158,0.7887760696279177,0.7681077008057487,0.0,0.0,0.0,0.0
0.042408801527994214,-0.43350660454614376,0.8502373626950648,0.002703227637405067,-0.5256986022199228,-0.002002689387611211,0.8506642471736875,0.06436736937714783,0.38237422232483137,-0.6227128842910578,-0.02351017580674046,0.2813302095022711,-0.5542103338966858,-0.04885786952268175,0.6811821977392281,0.8867713894916075,0.1521488898094793,0.7844487418255305,0.7749930682607641,0.0,0.0,0.0,0.0
0.04129801280443004,-0.4352629539886767,0.8498529619622873,0.0025278462010008785,-0.5253401023131637,-0.0019223166330278772,0.8508864152129477,0.06794130720585272,0.37262575343643617,-0.609151811840995,-0.031018069963616068,0.28486083458445466,-0.5490548969088849,-0.06278293840308859,0.6848664646676468,0.8787664857826583,0.16205792268705155,0.7791037762330251,0.7820041045907484,0.0,0.0,0.0,0.0
0.039919265265378374,-0.43685773850769694,0.8494364594357408,0.002276670469236715,-0.524963104655458,-0.0017827472621613624,0.8511200722191178,0.07110328534587307,0.361417271424713,-0.5935915611878841,-0.039283250368593994,0.2889971123578666,-0.5448092151898956,-0.07903661987489034,0.6888096703603397,0.8710441128342828,0.17148659760795637,0.7730539701116684,0.7888740808673295,0.0,0.0,0.0,0.0
0.03841296103094874,-0.4382193599812989,0.8489936737121149,0.001922910580270719,-0.5245752368047457,-0.001542651162245557,0.8513605250265817,0.07366860898171933,0.3498050473792839,-0.5778411668450101,-0.04814131958901177,0.2942275450004537,-0.541853303086666,-0.09981196576227801,0.6941118740802602,0.8641772429871603,0.1805405733680134,0.7667816542779252,0.7953647198828091,0.0,0.0,0.0,0.0
0.03701575499129269,-0.439234058043955,0.848509340130698,0.0014169708144025242,-0.5241134213663972,-0.001093316666384532,0.8516465924290354,0.0752817426807285,0.33999187800176767,-0.5662754668935515,-0.0573135258472338,0.3007706965976256,-0.5405817820967731,-0.12795062058162276,0.7020370956025876,0.8588603197947043,0.18962385086043232,0.7608266409651447,0.8011736991841438,0.0,0.0,0.0,0.0
0.03603763822449291,-0.43986018565368695,0.8481307399423433,0.0008011532668832825,-0.5236966746338181,-0.0005311694886427998,0.8519042604599991,0.07603078532397879,0.3338421776571153,-0.5607300151986507,-0.0663655979885202,0.30924274336852897,-0.542894601918337,-0.1650864551657855,0.7129624258165679,0.8562884448245899,0.19813790465791814,0.7567997532211834,0.8050240110441771,0.0,0.0,0.0,0.0
0.03562408152586562,-0.4401255001207455,0.8480252424859841,0.0002389356872472944,-0.5234826051392135,4.43361347669649e-05,0.8520363273128129,0.07598982674417692,0.3315590872952794,-0.5597663032547983,-0.0728769437121767,0.3195031725335488,-0.5519627345678016,-0.2024489450388335,0.7239263041993388,0.8570273800602692,0.2051741216493893,0.7559952298283461,0.8058722265651564,0.0,0.0,0.0,0.0
0.03562715001703277,-0.44015903856735134,0.848019811419639,0.00024175213952597213,-0.5234611859497704,4.5399783987120506e-05,0.8520494858274503,0.07605032053759202,0.33150428182246827,-0.5597586295279515,-0.0729279211823513,0.3195417479403898,-0.551957160986774,-0.20246474323751423,0.7239547542258975,0.857038355613922,0.20521691883607282,0.7559136835720623,0.8058376313687622,0.0,0.0,0.0,0.0
0.03562715001703277,-0.44015903856735134,0.848019811419639,0.00024175213952597213,-0.5234611859497704,4.5399783987120506e-05,0.8520494858274503,0.07605032053759202,0.33150428182246827,-0.5597586295279515,-0.0729279211823513,0.3195417479403898,-0.551957160986774,-0.20246474323751423,0.7239547542258975,0.857038355613922,0.20521691883607282,0.7559136835720623,0.8058376313687622,0.0,0.0,0.0,0.0
0.036402325350130695,-0.4405797956207578,0.8482989164825155,0.00024463454008758173,-0.5238605428611578,-4.0578711577352505e-05,0.8518040092301297,0.07712124448741473,0.33435624626873944,-0.5609962507600669,-0.07194276171389287,0.32459910761374217,-0.557746762930298,-0.2020954937859158,0.7283394368408891,0.8546945037430754,0.20829322112522497,0.7601084862538744,0.8048231320271685,0.0,0.0,0.0,0.0
0.03795516376168468,-0.4413467690285864,0.8489799793560573,0.0003941462271506538,-0.5250020200409773,-0.0006479170913809784,0.8511006425829366,0.07980050443166377,0.3388748524301413,-0.5584317323090107,-0.06934903729864131,0.3334621562587307,-0.5657182066011314,-0.20563985984819047,0.7393873292489361,0.8500170788216517,0.2115052225073957,0.7693405446833702,0.8023969044226483,0.0,0.0,0.0,0.0
0.039258789705002226,-0.44233582751283335,0.8497674397266848,-0.0004023037175961538,-0.5246931590169069,0.00023745883565996523,0.8512912960003051,0.07261850461173099,0.32668536958246525,-0.5454323703696147,-0.0684063724789871,0.3437594758741912,-0.5798167851021336,-0.19088634340580582,0.7435484080878737,0.8392047065991125,0.17369378846574687,0.7476181790776292,0.8206704979976019,0.0,0.0,0.0,0.0
0.04070604364289174,-0.44341931016873753,0.8504530221261826,-0.001154667028998093,-0.5247119795647855,0.0009625461569643937,0.8512784965862534,0.06148595503384685,0.31657846329197864,-0.5403906612014898,-0.06696551506098825,0.35436235788399295,-0.5934054893397862,-0.17753786368166577,0.7487464866539556,0.8299335588686881,0.13312169860324394,0.7296059539105592,0.8340050728038971,0.0,0.0,0.0,0.0
0.04221714627942591,-0.44469429418134665,0.8510838692675818,-0.0016358749079547826,-0.524981402211456,0.0013045002545129362,0.8511111264250192,0.050047039302359465,0.3091393866682424,-0.540040609296223,-0.06462218254450514,0.3653633162774839,-0.6075333794414316,-0.16726914433826037,0.7552905442142359,0.8213985058513514,0.10134923690142617,0.7175556073609335,0.8449422834143339,0.0,0.0,0.0,0.0
0.043586314629918216,-0.44615008903528974,0.8516632251842903,-0.0019167174592803393,-0.5253677845041285,0.0014156488058829643,0.8508719134733871,0.03973501363290374,0.30363096587782135,-0.5424399788464986,-0.06162112218030926,0.3755968110190531,-0.6206042518703446,-0.15842629804817968,0.7620719087950479,0.8132392315266244,0.07787434694598588,0.7095447545439563,0.8548060494997877,0.0,0.0,0.0,0.0
0.04466973868113246,-0.4477803091378629,0.8521772250949102,-0.00207825997187298,-0.5257692675080164,0.0014198791054413284,0.8506235019812814,0.030921817732174953,0.29925094496129406,-0.5464476928574057,-0.05813446140653662,0.38433398960330506,-0.6317170008848854,-0.14962909290838383,0.7681525365380906,0.8053517861393519,0.059950495844009015,0.703608358274642,0.8640117446162432,0.0,0.0,0.0,0.0
0.045394512052620836,-0.44959158282891737,0.8526159551808713,-0.002170556514469997,-0.5261380680992321,0.0013838945363734436,0.8503952650486346,0.023489800248453877,0.2953887506489165,-0.5513928396983737,-0.05422899233381114,0.39125573498198973,-0.6405009516903304,-0.14008771437484793,0.7730275046672027,0.7977251145516829,0.04527521759866334,0.6984267869329807,0.8727258508636712,0.0,0.0,0.0,0.0
0.04573780723975349,-0.4516008548326694,0.8529714052273761,-0.0022172118561873525,-0.526457389657767,0.001332892415355457,0.850197579533207,0.017158935937281468,0.2916177209933909,-0.5568511662515768,-0.04989872615526736,0.3963242749772834,-0.6469797015933749,-0.12944790348956894,0.7764948303165516,0.7903796355611611,0.03241510255203455,0.6932688880231347,0.8810341477382663,0.0,0.0,0.0,0.0
0.04570509045458067,-0.45383061310463846,0.8532324846438522,-0.002226527079759955,-0.5267246323279603,0.001270645403637158,0.8500321110031057,0.011646642039178683,0.2876884634066537,-0.5625120225895132,-0.04510239332692742,0.399651976747426,-0.6514047650121818,-0.11760089153211148,0.7785023607206515,0.7833706009521473,0.020627222051342035,0.6878089039653136,0.8889596841748645,0.0,0.0,0.0,0.0
0.04531401471971324,-0.4563048250719442,0.8533816326901109,-0.0022002051281367935,-0.5269413844960235,0.0011936407794731633,0.8498979418874348,0.0067276212404726215,0.28353998175287953,-0.5680840132451169,-0.039789810314518566,0.4014094317137328,-0.654134062378479,-0.10454303277839973,0.7790351295792087,0.776804989882523,0.009612826366358225,0.6819693033882588,0.8964258897579843,0.0,0.0,0.0,0.0
0.04458433225170837,-0.4590452788619473,0.8533931106846644,-0.0021377549709316003,-0.5271092558825407,0.00109770777937433,0.8497941264825674,0.0022392583296484726,0.2793170046277667,-0.5732082394935013,-0.033917000576598196,0.4017673378284371,-0.6555499380339229,-0.09031286513187059,0.7780527873883207,0.7708618693739885,-0.0006531179671203074,0.6758369645590901,0.9031804298165409,0.0,0.0,0.0,0.0
0.04353222212263035,-0.4620678392455812,0.8532330745009664,-0.002037779694387765,-0.5272294695808741,0.00097955732601202,0.8497199387603143,-0.0019357631897752572,0.27535698571313133,-0.577365304025249,-0.027454826992782976,0.4008586139109547,-0.6559959801370914,-0.07498605865977757,0.7754673750071347,0.7658058083426003,-0.010007946529568162,0.669659938366295,0.9086652330457203,0.0,0.0,0.0,0.0
0.04216724496358265,-0.4653784374814544,0.8528637019581992,-0.0018980447917355675,-0.5273043038825292,0.0008362477391834509,0.8496739781955479,-0.0058859441095300965,0.27208005766108756,-0.5797746052573289,-0.020395487774872087,0.398746742089799,-0.6557022012074702,-0.05869365853334879,0.7711587502813481,0.7619621782513245,-0.018159358306265895,0.6639247140370131,0.9118071892581744,0.0,0.0,0.0,0.0
0.04049030276570252,-0.46896993066541304,0.8522572871923918,-0.001717472100507951,-0.5273385047739395,0.0006676315322338982,0.8496532857233631,-0.009671326134887484,0.2696931569101724,-0.5793332578542844,-0.012761360909086701,0.39538649524871394,-0.6546519977278775,-0.041604660438768454,0.7650403375611169,0.759579968048481,-0.024816943840997613,0.6594661267519222,0.9108125414241496,0.0,0.0,0.0,0.0
0.03848991331645492,-0.4728242393168294,0.8514118128955228,-0.0015010993322271467,-0.527329235352808,0.00048149681465063193,0.8496595744201527,-0.01333551162138249,0.2682029273887869,-0.5761010264764124,-0.004606528758002961,0.3906048302347116,-0.6525303753376509,-0.023848893586026775,0.7571006880344586,0.7586238400251721,-0.02999896367129287,0.6563307177720021,0.9056691290181746,0.0,0.0,0.0,0.0
0.03614536024858166,-0.4769101009231717,0.8503511744785845,-0.0012599539483160802,-0.5272664166073279,0.0002923166708252345,0.8496990367095162,-0.016922711424180403,0.2674147133767557,-0.5713020533728559,0.003978894456949577,0.3841179908835643,-0.6487506805894176,-0.005556942133717088,0.7474239344273241,0.7587725849391611,-0.034070438928998456,0.6537679092163046,0.8981247202975496,0.0,0.0,0.0,0.0
0.033436025494398676,-0.4811744323787746,0.8491122098872056,-0.00100643486643528,-0.5271430880763465,0.00011522801939508293,0.8497759342936798,-0.02049917101921087,0.2669224740708487,-0.5658419688086018,0.012856207523649044,0.3755740455835402,-0.642529808135755,0.013022999892363513,0.7361796039943103,0.759620985925791,-0.03749049352296088,0.6513462797705446,0.8891903160710856,0.0,0.0,0.0,0.0
0.030349551638895512,-0.48553839238145163,0.8477346970421689,-0.0007533112955235284,-0.5269547453570246,-3.6335904845538296e-05,0.8498930094709024,-0.02417940320119819,0.2664165329870732,-0.5603711554274653,0.021833536539921105,0.3646123162432989,-0.6330281697413771,0.031508058086757794,0.7235802898935162,0.760815008107302,-0.04073331087238052,0.6488303585529529,0.8793590250264055,0.0,0.0,0.0,0.0
0.026892929913027847,-0.4898951799976319,0.8462593808649702,-0.0005141268998471199,-0.5267006468391741,-0.00015112862410674482,0.8500506699326019,-0.0281171093675455,0.265823410494101,-0.5553818835158556,0.030665002136691353,0.35092625379800085,-0.6194512649155393,0.049404068041831325,0.7098835189282797,0.7621050937705547,-0.04433587591158248,0.6460860311799298,0.8688295019453441,0.0,0.0,0.0,0.0
0.02310889869523317,-0.4941091847962891,0.8447209616711524,-0.0003040860311674204,-0.5263859242599246,-0.00021933767473751283,0.850245681061477,-0.03245984192356908,0.2653473278125256,-0.5512784056378908,0.03905326344520296,0.3343696191986887,-0.6012405366139043,0.0661537855686177,0.6953706708531804,0.7634546066090806,-0.048977934789281606,0.6430594011387184,0.8576496458947152,0.0,0.0,0.0,0.0
0.01909939262823637,-0.498018534068286,0.8431124037088495,-0.0001421252059611354,-0.525995931217884,-0.00018800952135722808,0.8504870515152342,-0.037358064509703956,0.26540831635240314,-0.5486241649589517,0.04657480582283482,0.31525211707769035,-0.5788037665596795,0.08139645041207101,0.6800609989419782,0.7653081686505777,-0.0552739046241196,0.6397839713465194,0.8458906708029398,0.0,0.0,0.0,0.0
0.015243804699220204,-0.501550514481117,0.841404387992039,-3.0515436934977743e-05,-0.5255103573996402,-0.00013616393157950377,0.8507871912493125,-0.042982715325692235,0.26624771807107284,-0.5466519027093878,0.05328516904221284,0.2961139804204378,-0.5566798336070349,0.09466626094085667,0.6645784562176985,0.768278693903663,-0.06452717718769461,0.6370404427175015,0.8335134988093483,0.0,0.0,0.0,0.0
0.011886619173095891,-0.5045405436246719,0.8396792308283391,2.9526932592632766e-05,-0.5250119575718928,-6.998964451870964e-05,0.851094847027133,-0.049162186039191,0.2682142222803333,-0.5455127585980657,0.05891206680130348,0.2790806926699545,-0.537755697981201,0.10560907184546356,0.6499829321022786,0.7725957021425607,-0.07780939624440661,0.6350006398318189,0.8205593947589733,0.0,0.0,0.0,0.0
0.009263087988635017,-0.5067576891980302,0.8380857797424827,6.775401693601646e-05,-0.5245904341842133,-2.7668088308557844e-05,0.8513547268948993,-0.05525612308358908,0.27115536424881115,-0.5460855391373561,0.0630780573485467,0.26551573073318135,-0.5234384810412617,0.11336196853681546,0.6374254102683211,0.7782496791601985,-0.09520354664101276,0.63337737776694,0.8069630534505164,0.0,0.0,0.0,0.0
0.007707036724251927,-0.508007567431762,0.83689885774708,0.0001227975964375281,-0.524360161054151,-5.922016180956073e-05,0.8514965665890777,-0.05964283244014201,0.27438933629265927,-0.5490276585953215,0.06549669506465168,0.25738636646501706,-0.51559547319288,0.11720414386559505,0.6289550524641287,0.7840637056534648,-0.11225358741017877,0.6329900346856357,0.7935374690511671,0.0,0.0,0.0,0.0
0.007629818731355485,-0.50828535118407,0.8367849851295192,0.00031963097922782274,-0.5243883638891597,-4.234115445746986e-05,0.851479148224379,-0.059683502321440055,0.274432358091048,-0.5490335761791123,0.06579430980180893,0.25714298179328376,-0.5156029205603637,0.11728073383900253,0.6287565786049517,0.7839605772152053,-0.11227964129217902,0.6330426227623702,0.7935493733759922,0.0,0.0,0.0,0.0
0.007629818731355478,-0.50828535118407,0.8367849851295192,0.00031963097922756297,-0.5243883638891599,-4.234115445752819e-05,0.8514791482243789,-0.05968350232143976,0.27443235809104827,-0.5490335761791123,0.06579430980180924,0.25714298179328576,-0.5156029205603669,0.11728073383900299,0.6287565786049516,0.783960577215206,-0.11227964129217857,0.6330426227623701,0.7935493733759929,0.0,0.0,0.0,0.0
0.007629818731355478,-0.50828535118407,0.8367849851295192,0.00031963097922756297,-0.5243883638891599,-4.234115445752819e-05,0.8514791482243789,-0.05968350232143976,0.27443235809104827,-0.5490335761791123,0.06579430980180924,0.25714298179328576,-0.5156029205603669,0.11728073383900299,0.6287565786049516,0.783960577215206,-0.11227964129217857,0.6330426227623701,0.7935493733759929,0.0,0.0,0.0,0.0
0.009227871746851883,-0.5098842750084008,0.8376626034935295,0.00045170656815637195,-0.5252019569248112,-3.5324741180300446e-05,0.8509774962686661,-0.056637739741886524,0.2802908296290796,-0.5506370130684556,0.06891572688731781,0.26810297189762866,-0.5273873072487058,0.12425409268705656,0.6387093328320709,0.7730713280907406,-0.10736419120709965,0.6409965595600742,0.7935829928051347,0.0,0.0,0.0,0.0
0.012466598576226194,-0.5130437096631147,0.8406192184250421,0.0006904975012558216,-0.526962787973205,-0.0007603880231915843,0.8498877367716056,-0.04897669723623197,0.29019762744379585,-0.5445112611035476,0.07661755047152954,0.28760096394600787,-0.5419489917057454,0.13554687773857,0.6664794773369594,0.7400903205718122,-0.10015347939473015,0.6628641959839161,0.7807406444224514,0.0,0.0,0.0,0.0
0.015628954962464227,-0.5161423858010742,0.8430437955896003,0.0008345922725117836,-0.5268176967171375,-0.00036633441559256026,0.8499778136401471,-0.043849888932083206,0.3052793498915072,-0.5607393961616712,0.07214016174328745,0.28473679582158923,-0.5356925769175728,0.1178556929223836,0.6576472409201097,0.7748499317063153,-0.08632063131067445,0.6808378558423692,0.7664888728599841,0.0,0.0,0.0,0.0
0.019256601075326004,-0.5195382207127981,0.8448464184046381,0.00089737383630938,-0.5267422212913797,-0.00016803902468891897,0.8500245871691637,-0.03761444238578064,0.32359783866982544,-0.584073055112446,0.06488077073633826,0.2809314081029825,-0.5344165597258503,0.09673467380156095,0.6538556819858966,0.8010142279101109,-0.07144466353544379,0.6965095093634962,0.7588384957640643,0.0,0.0,0.0,0.0
0.023187945388131594,-0.5231439955938567,0.8460069108889958,0.0009829725166901346,-0.5266830556004314,-0.0001556802903627003,0.8500611557247346,-0.03054493793172217,0.3437353818855509,-0.6122506842959846,0.05688892492624225,0.2776573133781306,-0.5364789552522866,0.07859106758744808,0.6532195669601232,0.8206758961602943,-0.05615285160608645,0.7092923422914631,0.7577849522814667,0.0,0.0,0.0,0.0
0.027018450392936908,-0.5268774978188245,0.8470045347935576,0.0011355984439535547,-0.5266792824446581,-0.00028744106008959713,0.8500632689614293,-0.022883274213724873,0.36190415543043575,-0.6367427057912884,0.04930837545206764,0.27556697618851234,-0.5402966897335599,0.06492426223276496,0.6537120057764121,0.8367649080589578,-0.04063565835883193,0.7211547612181762,0.7582604798434852,0.0,0.0,0.0,0.0
0.030538960473239854,-0.530672160266854,0.8480701626887182,0.0013604960615556513,-0.5267860075777037,-0.000493181622003005,0.8499967106069868,-0.014915664848126356,0.37673529670124883,-0.654310999452096,0.04275638204466909,0.2744514359148341,-0.5449070225911131,0.05507084685759739,0.6545606492336157,0.8507283856181702,-0.024896940762362815,0.7331322561213754,0.7579191332589861,0.0,0.0,0.0,0.0
0.0336437471949571,-0.5344735859877962,0.8492052045271081,0.0016185140701243442,-0.5269300292796404,-0.000728665474529514,0.8499068147168773,-0.006834309515521563,0.38822229518754975,-0.6656024444297876,0.03721330173202882,0.2736940411296488,-0.5500227572754867,0.047735637717259534,0.6552909299810588,0.8632734562248908,-0.008796685685315928,0.744931529865367,0.7564555675266615,0.0,0.0,0.0,0.0
0.036302308132712076,-0.5382263694761988,0.8503554593304193,0.0018798466594194135,-0.5270600887997416,-0.0009664389442668782,0.849825390869626,0.0011921832548900703,0.39666919664585804,-0.6717918774300233,0.032381615360529914,0.2728386691811716,-0.5554473241131774,0.04176096988294131,0.6558002046357513,0.8747898088213945,0.007606329434129325,0.7560918650695577,0.7542402021434038,0.0,0.0,0.0,0.0
0.03853038806895857,-0.5418770266301789,0.8514662968345829,0.0021261299081964057,-0.5271507934484448,-0.0011916635275161778,0.8497682628083527,0.009019560245070508,0.4024953485355504,-0.6740374512652105,0.027913573035269385,0.2716772050654341,-0.5609993228421641,0.036329891541958724,0.6561299578716183,0.8855054390382107,0.02410341167427272,0.7662670677944393,0.7517319367590385,0.0,0.0,0.0,0.0
0.04036726552023857,-0.5453799328940105,0.8524934725435904,0.002347078933304652,-0.5271924215757007,-0.0013970254537066257,0.8497415431609256,0.016533763261640775,0.4061550478663467,-0.6733833329401516,0.02352356442956005,0.27023318438391497,-0.5664613334742139,0.030917028370792906,0.6563711553444658,0.8954908265641566,0.040431111505119986,0.7752384734467842,0.7493397244549634,0.0,0.0,0.0,0.0
0.041859814911701654,-0.5487012745263601,0.8534002270670048,0.002537132219071202,-0.5271828444580948,-0.0015790223780124224,0.8497466199741572,0.023654383720526508,0.4080859437121652,-0.6707468389722854,0.019029085696981515,0.2687401535707678,-0.5715168858614017,0.025157322618697443,0.6566599020324679,0.9045974000904146,0.05634636004277975,0.7828610870398003,0.7474385735892336,0.0,0.0,0.0,0.0
0.04305180241404015,-0.5518205826069102,0.8541522764297901,0.002693018041655182,-0.5271228492917777,-0.0017356388775270073,0.8497830528823412,0.03033454691066947,0.40867125948945743,-0.6669130387538427,0.014349947736775667,0.2676024913860612,-0.5756677279731779,0.018724112057822668,0.6572249913156503,0.9123341395944458,0.0716718676400074,0.7890094247442373,0.7464143877193622,0.0,0.0,0.0,0.0
0.04397677278726111,-0.554730645914916,0.8547168456738652,0.0028125465167769064,-0.527014534203934,-0.0018653058583520045,0.8498495696027364,0.03655827418688296,0.40820505650948435,-0.6624972435888116,0.0094810462062481,0.26727343876773885,-0.5781341869599574,0.011269284105007863,0.6584864982060955,0.9176607647785373,0.08631270471932669,0.7935548281583594,0.7466691347508214,0.0,0.0,0.0,0.0
0.04465346456468082,-0.557436129747564,0.8550729198786011,0.0028956173571538235,-0.5268636953108847,-0.001968452509850144,0.8499425787417622,0.04233701700126102,0.4068446421679143,-0.6578143119973542,0.004443044861450357,0.2679643477813637,-0.5777867768029482,0.0024952791319171694,0.6611821105953247,0.9187843198682426,0.1002318608431962,0.7964118000211332,0.7485090709249039,0.0,0.0,0.0,0.0
0.045081655532055454,-0.5599489330381644,0.855225105983107,0.0029428241417350162,-0.5266736408668113,-0.002045401077785972,0.8500600167850496,0.04769446688195183,0.4045817903454965,-0.6528150584020067,-0.0007596708353713785,0.2696865608347006,-0.5746322818387933,-0.007552263812334372,0.6652416647294935,0.9156932024897664,0.11342843814230572,0.7975921855214758,0.7519592685645834,0.0,0.0,0.0,0.0
0.04524453116361746,-0.562286253857668,0.8552030950591556,0.00295436693491741,-0.5264443072214736,-0.002095879800894887,0.8502018997849726,0.05266112757867708,0.40125707124033627,-0.6471175013109798,-0.006166403485868734,0.27226382683033923,-0.5698291721247412,-0.018525814650990062,0.6698035462771059,0.9101777589564276,0.12592173372893783,0.7972022663415822,0.756760900355005,0.0,0.0,0.0,0.0
0.045116767933229114,-0.5644691924681853,0.8550456527147176,0.0029295033291703476,-0.5261771459947848,-0.0021201867539819286,0.8503672934980245,0.05727461045642074,0.3966187186850774,-0.6401384669534076,-0.011871291771112501,0.2753056464501663,-0.5642098520336671,-0.030119832498575007,0.6743519489225948,0.9033222506423167,0.13774404134011062,0.7953810060454816,0.7625596713798898,0.0,0.0,0.0,0.0
0.044672185138134445,-0.5665172121559962,0.8547872868687489,0.0028643405940111605,-0.5258726176977837,-0.002116684220991177,0.8505558800905151,0.061567312266609914,0.3904030430999477,-0.6312967113544558,-0.01801072997107484,0.2785078821505188,-0.5583475097364949,-0.04221025965434974,0.6786067681588572,0.8957273923729088,0.14894395810538094,0.7922456777668565,0.7690324481034541,0.0,0.0,0.0,0.0
0.043894130546944125,-0.5684417281036009,0.854455733476186,0.0027513852031387756,-0.525531275913669,-0.0020807274309158894,0.8507672880931502,0.06555340568749167,0.3824123869294647,-0.6201489771728146,-0.0247420111166138,0.28177813699434684,-0.5526586598157176,-0.05493596966522842,0.682471260611504,0.887749088151089,0.1595716907903948,0.7879098501448152,0.7759004984116787,0.0,0.0,0.0,0.0
0.04279096979410417,-0.5702382339428892,0.8540734861999465,0.0025789269282650734,-0.5251564988480485,-0.002002615114190446,0.8509994068072331,0.0692116450835276,0.3726252986102971,-0.6065601655520805,-0.032197131538237306,0.285262701792162,-0.5474917515331129,-0.06884413756546906,0.6860807842114911,0.8796817513122809,0.16967190786210623,0.7825423401031313,0.7829001206584224,0.0,0.0,0.0,0.0
0.0414197834695077,-0.5718750061472744,0.8536581734747288,0.0023295435171525438,-0.5247577871585969,-0.0018634143705460796,0.851246360186226,0.07245948492106197,0.36138676488786575,-0.591021117977565,-0.04039959109855494,0.2893256135678917,-0.5431939238674571,-0.0851758541815211,0.6899596202746041,0.8719184914139494,0.1792895859650668,0.7764448766939922,0.7897637046026778,0.0,0.0,0.0,0.0
0.03992104803504979,-0.573275393540948,0.8532133625453066,0.0019750104819341737,-0.5243367111519946,-0.0016184742580670176,0.8515071891728114,0.07509804530637469,0.3497934011786354,-0.5754595893006595,-0.04918513487296661,0.2944173524227791,-0.5400958299059841,-0.10622559364012896,0.6952128844468438,0.8650391730308323,0.18852604653002525,0.7700813369800249,0.7962444905806562,0.0,0.0,0.0,0.0
